(G-CODE GENERATED BY FLATCAM v8.992 - www.flatcam.org - Version Date: 2020/05/01)

(Name: hardware.drl_mill_cnc)
(Type: G-code from Geometry)
(Units: MM)

(Created on Montag, 07 September 2020 at 21:54)

(This preprocessor is the default preprocessor used by FlatCAM.)
(It is made to work with MACH3 compatible motion controllers.)

(TOOL DIAMETER: 0.8 mm)
(Feedrate_XY: 120.0 mm/min)
(Feedrate_Z: 120.0 mm/min)
(Feedrate rapids 1500.0 mm/min)

(Z_Cut: -1.8 mm)
(Z_Move: 1.0 mm)
(Z Start: None mm)
(Z End: 2.0 mm)
(Steps per circle: 64)
(Preprocessor Geometry: default)

(X range:    3.8000 ...   96.2000  mm)
(Y range:    3.8000 ...   96.8470  mm)

(Spindle Speed: None RPM)
G21
G90
G94

M3141 ;  Enable RF1000 Z compensation

G01 F120.00
G00 Z1.0000

M03
G00 X6.2000 Y5.0000
G01 F120.00
G01 Z-1.8000
G01 F120.00
G01 X6.1942 Y4.8824
G01 X6.1769 Y4.7659
G01 X6.1483 Y4.6517
G01 X6.1087 Y4.5408
G01 X6.0583 Y4.4343
G01 X5.9978 Y4.3333
G01 X5.9276 Y4.2387
G01 X5.8485 Y4.1515
G01 X5.7613 Y4.0724
G01 X5.6667 Y4.0022
G01 X5.5657 Y3.9417
G01 X5.4592 Y3.8913
G01 X5.3483 Y3.8517
G01 X5.2341 Y3.8231
G01 X5.1176 Y3.8058
G01 X5.0000 Y3.8000
G01 X4.8824 Y3.8058
G01 X4.7659 Y3.8231
G01 X4.6517 Y3.8517
G01 X4.5408 Y3.8913
G01 X4.4343 Y3.9417
G01 X4.3333 Y4.0022
G01 X4.2387 Y4.0724
G01 X4.1515 Y4.1515
G01 X4.0724 Y4.2387
G01 X4.0022 Y4.3333
G01 X3.9417 Y4.4343
G01 X3.8913 Y4.5408
G01 X3.8517 Y4.6517
G01 X3.8231 Y4.7659
G01 X3.8058 Y4.8824
G01 X3.8000 Y5.0000
G01 X3.8058 Y5.1176
G01 X3.8231 Y5.2341
G01 X3.8517 Y5.3483
G01 X3.8913 Y5.4592
G01 X3.9417 Y5.5657
G01 X4.0022 Y5.6667
G01 X4.0724 Y5.7613
G01 X4.1515 Y5.8485
G01 X4.2387 Y5.9276
G01 X4.3333 Y5.9978
G01 X4.4343 Y6.0583
G01 X4.5408 Y6.1087
G01 X4.6517 Y6.1483
G01 X4.7659 Y6.1769
G01 X4.8824 Y6.1942
G01 X5.0000 Y6.2000
G01 X5.1176 Y6.1942
G01 X5.2341 Y6.1769
G01 X5.3483 Y6.1483
G01 X5.4592 Y6.1087
G01 X5.5657 Y6.0583
G01 X5.6667 Y5.9978
G01 X5.7613 Y5.9276
G01 X5.8485 Y5.8485
G01 X5.9276 Y5.7613
G01 X5.9978 Y5.6667
G01 X6.0583 Y5.5657
G01 X6.1087 Y5.4592
G01 X6.1483 Y5.3483
G01 X6.1769 Y5.2341
G01 X6.1942 Y5.1176
G01 X6.2000 Y5.0000
G00 Z1.0000
G00 X9.5020 Y6.4130
G01 F120.00
G01 Z-1.8000
G01 F120.00
G01 X9.5020 Y6.4130
G01 X9.5020 Y6.4130
G01 X9.5020 Y6.4130
G01 X9.5020 Y6.4130
G00 Z1.0000
G00 X12.0020 Y6.4130
G01 F120.00
G01 Z-1.8000
G01 F120.00
G01 X12.0020 Y6.4130
G01 X12.0020 Y6.4130
G01 X12.0020 Y6.4130
G01 X12.0020 Y6.4130
G00 Z1.0000
G00 X52.0940 Y33.8970
G01 F120.00
G01 Z-1.8000
G01 F120.00
G01 X52.0887 Y33.7892
G01 X52.0729 Y33.6824
G01 X52.0466 Y33.5777
G01 X52.0103 Y33.4760
G01 X51.9641 Y33.3785
G01 X51.9086 Y33.2859
G01 X51.8443 Y33.1992
G01 X51.7718 Y33.1192
G01 X51.6918 Y33.0467
G01 X51.6051 Y32.9824
G01 X51.5125 Y32.9269
G01 X51.4150 Y32.8807
G01 X51.3133 Y32.8444
G01 X51.2086 Y32.8181
G01 X51.1018 Y32.8023
G01 X50.9940 Y32.7970
G01 X50.8862 Y32.8023
G01 X50.7794 Y32.8181
G01 X50.6747 Y32.8444
G01 X50.5730 Y32.8807
G01 X50.4755 Y32.9269
G01 X50.3829 Y32.9824
G01 X50.2962 Y33.0467
G01 X50.2162 Y33.1192
G01 X50.1437 Y33.1992
G01 X50.0794 Y33.2859
G01 X50.0239 Y33.3785
G01 X49.9777 Y33.4760
G01 X49.9414 Y33.5777
G01 X49.9151 Y33.6824
G01 X49.8993 Y33.7892
G01 X49.8940 Y33.8970
G01 X49.8993 Y34.0048
G01 X49.9151 Y34.1116
G01 X49.9414 Y34.2163
G01 X49.9777 Y34.3180
G01 X50.0239 Y34.4155
G01 X50.0794 Y34.5081
G01 X50.1437 Y34.5948
G01 X50.2162 Y34.6748
G01 X50.2962 Y34.7473
G01 X50.3829 Y34.8116
G01 X50.4755 Y34.8671
G01 X50.5730 Y34.9133
G01 X50.6747 Y34.9496
G01 X50.7794 Y34.9759
G01 X50.8862 Y34.9917
G01 X50.9940 Y34.9970
G01 X51.1018 Y34.9917
G01 X51.2086 Y34.9759
G01 X51.3133 Y34.9496
G01 X51.4150 Y34.9133
G01 X51.5125 Y34.8671
G01 X51.6051 Y34.8116
G01 X51.6918 Y34.7473
G01 X51.7718 Y34.6748
G01 X51.8443 Y34.5948
G01 X51.9086 Y34.5081
G01 X51.9641 Y34.4155
G01 X52.0103 Y34.3180
G01 X52.0466 Y34.2163
G01 X52.0729 Y34.1116
G01 X52.0887 Y34.0048
G01 X52.0940 Y33.8970
G00 Z1.0000
G00 X68.4260 Y26.9240
G01 F120.00
G01 Z-1.8000
G01 F120.00
G01 X68.4255 Y26.9142
G01 X68.4241 Y26.9045
G01 X68.4217 Y26.8950
G01 X68.4184 Y26.8857
G01 X68.4142 Y26.8769
G01 X68.4091 Y26.8684
G01 X68.4033 Y26.8606
G01 X68.3967 Y26.8533
G01 X68.3894 Y26.8467
G01 X68.3816 Y26.8409
G01 X68.3731 Y26.8358
G01 X68.3643 Y26.8316
G01 X68.3550 Y26.8283
G01 X68.3455 Y26.8259
G01 X68.3358 Y26.8245
G01 X68.3260 Y26.8240
G01 X68.3162 Y26.8245
G01 X68.3065 Y26.8259
G01 X68.2970 Y26.8283
G01 X68.2877 Y26.8316
G01 X68.2789 Y26.8358
G01 X68.2704 Y26.8409
G01 X68.2626 Y26.8467
G01 X68.2553 Y26.8533
G01 X68.2487 Y26.8606
G01 X68.2429 Y26.8684
G01 X68.2378 Y26.8769
G01 X68.2336 Y26.8857
G01 X68.2303 Y26.8950
G01 X68.2279 Y26.9045
G01 X68.2265 Y26.9142
G01 X68.2260 Y26.9240
G01 X68.2265 Y26.9338
G01 X68.2279 Y26.9435
G01 X68.2303 Y26.9530
G01 X68.2336 Y26.9623
G01 X68.2378 Y26.9711
G01 X68.2429 Y26.9796
G01 X68.2487 Y26.9874
G01 X68.2553 Y26.9947
G01 X68.2626 Y27.0013
G01 X68.2704 Y27.0071
G01 X68.2789 Y27.0122
G01 X68.2877 Y27.0164
G01 X68.2970 Y27.0197
G01 X68.3065 Y27.0221
G01 X68.3162 Y27.0235
G01 X68.3260 Y27.0240
G01 X68.3358 Y27.0235
G01 X68.3455 Y27.0221
G01 X68.3550 Y27.0197
G01 X68.3643 Y27.0164
G01 X68.3731 Y27.0122
G01 X68.3816 Y27.0071
G01 X68.3894 Y27.0013
G01 X68.3967 Y26.9947
G01 X68.4033 Y26.9874
G01 X68.4091 Y26.9796
G01 X68.4142 Y26.9711
G01 X68.4184 Y26.9623
G01 X68.4217 Y26.9530
G01 X68.4241 Y26.9435
G01 X68.4255 Y26.9338
G01 X68.4260 Y26.9240
G00 Z1.0000
G00 X68.4260 Y24.3840
G01 F120.00
G01 Z-1.8000
G01 F120.00
G01 X68.4255 Y24.3742
G01 X68.4241 Y24.3645
G01 X68.4217 Y24.3550
G01 X68.4184 Y24.3457
G01 X68.4142 Y24.3369
G01 X68.4091 Y24.3284
G01 X68.4033 Y24.3206
G01 X68.3967 Y24.3133
G01 X68.3894 Y24.3067
G01 X68.3816 Y24.3009
G01 X68.3731 Y24.2958
G01 X68.3643 Y24.2916
G01 X68.3550 Y24.2883
G01 X68.3455 Y24.2859
G01 X68.3358 Y24.2845
G01 X68.3260 Y24.2840
G01 X68.3162 Y24.2845
G01 X68.3065 Y24.2859
G01 X68.2970 Y24.2883
G01 X68.2877 Y24.2916
G01 X68.2789 Y24.2958
G01 X68.2704 Y24.3009
G01 X68.2626 Y24.3067
G01 X68.2553 Y24.3133
G01 X68.2487 Y24.3206
G01 X68.2429 Y24.3284
G01 X68.2378 Y24.3369
G01 X68.2336 Y24.3457
G01 X68.2303 Y24.3550
G01 X68.2279 Y24.3645
G01 X68.2265 Y24.3742
G01 X68.2260 Y24.3840
G01 X68.2265 Y24.3938
G01 X68.2279 Y24.4035
G01 X68.2303 Y24.4130
G01 X68.2336 Y24.4223
G01 X68.2378 Y24.4311
G01 X68.2429 Y24.4396
G01 X68.2487 Y24.4474
G01 X68.2553 Y24.4547
G01 X68.2626 Y24.4613
G01 X68.2704 Y24.4671
G01 X68.2789 Y24.4722
G01 X68.2877 Y24.4764
G01 X68.2970 Y24.4797
G01 X68.3065 Y24.4821
G01 X68.3162 Y24.4835
G01 X68.3260 Y24.4840
G01 X68.3358 Y24.4835
G01 X68.3455 Y24.4821
G01 X68.3550 Y24.4797
G01 X68.3643 Y24.4764
G01 X68.3731 Y24.4722
G01 X68.3816 Y24.4671
G01 X68.3894 Y24.4613
G01 X68.3967 Y24.4547
G01 X68.4033 Y24.4474
G01 X68.4091 Y24.4396
G01 X68.4142 Y24.4311
G01 X68.4184 Y24.4223
G01 X68.4217 Y24.4130
G01 X68.4241 Y24.4035
G01 X68.4255 Y24.3938
G01 X68.4260 Y24.3840
G00 Z1.0000
G00 X68.4260 Y21.8440
G01 F120.00
G01 Z-1.8000
G01 F120.00
G01 X68.4255 Y21.8342
G01 X68.4241 Y21.8245
G01 X68.4217 Y21.8150
G01 X68.4184 Y21.8057
G01 X68.4142 Y21.7969
G01 X68.4091 Y21.7884
G01 X68.4033 Y21.7806
G01 X68.3967 Y21.7733
G01 X68.3894 Y21.7667
G01 X68.3816 Y21.7609
G01 X68.3731 Y21.7558
G01 X68.3643 Y21.7516
G01 X68.3550 Y21.7483
G01 X68.3455 Y21.7459
G01 X68.3358 Y21.7445
G01 X68.3260 Y21.7440
G01 X68.3162 Y21.7445
G01 X68.3065 Y21.7459
G01 X68.2970 Y21.7483
G01 X68.2877 Y21.7516
G01 X68.2789 Y21.7558
G01 X68.2704 Y21.7609
G01 X68.2626 Y21.7667
G01 X68.2553 Y21.7733
G01 X68.2487 Y21.7806
G01 X68.2429 Y21.7884
G01 X68.2378 Y21.7969
G01 X68.2336 Y21.8057
G01 X68.2303 Y21.8150
G01 X68.2279 Y21.8245
G01 X68.2265 Y21.8342
G01 X68.2260 Y21.8440
G01 X68.2265 Y21.8538
G01 X68.2279 Y21.8635
G01 X68.2303 Y21.8730
G01 X68.2336 Y21.8823
G01 X68.2378 Y21.8911
G01 X68.2429 Y21.8996
G01 X68.2487 Y21.9074
G01 X68.2553 Y21.9147
G01 X68.2626 Y21.9213
G01 X68.2704 Y21.9271
G01 X68.2789 Y21.9322
G01 X68.2877 Y21.9364
G01 X68.2970 Y21.9397
G01 X68.3065 Y21.9421
G01 X68.3162 Y21.9435
G01 X68.3260 Y21.9440
G01 X68.3358 Y21.9435
G01 X68.3455 Y21.9421
G01 X68.3550 Y21.9397
G01 X68.3643 Y21.9364
G01 X68.3731 Y21.9322
G01 X68.3816 Y21.9271
G01 X68.3894 Y21.9213
G01 X68.3967 Y21.9147
G01 X68.4033 Y21.9074
G01 X68.4091 Y21.8996
G01 X68.4142 Y21.8911
G01 X68.4184 Y21.8823
G01 X68.4217 Y21.8730
G01 X68.4241 Y21.8635
G01 X68.4255 Y21.8538
G01 X68.4260 Y21.8440
G00 Z1.0000
G00 X68.4260 Y19.3040
G01 F120.00
G01 Z-1.8000
G01 F120.00
G01 X68.4255 Y19.2942
G01 X68.4241 Y19.2845
G01 X68.4217 Y19.2750
G01 X68.4184 Y19.2657
G01 X68.4142 Y19.2569
G01 X68.4091 Y19.2484
G01 X68.4033 Y19.2406
G01 X68.3967 Y19.2333
G01 X68.3894 Y19.2267
G01 X68.3816 Y19.2209
G01 X68.3731 Y19.2158
G01 X68.3643 Y19.2116
G01 X68.3550 Y19.2083
G01 X68.3455 Y19.2059
G01 X68.3358 Y19.2045
G01 X68.3260 Y19.2040
G01 X68.3162 Y19.2045
G01 X68.3065 Y19.2059
G01 X68.2970 Y19.2083
G01 X68.2877 Y19.2116
G01 X68.2789 Y19.2158
G01 X68.2704 Y19.2209
G01 X68.2626 Y19.2267
G01 X68.2553 Y19.2333
G01 X68.2487 Y19.2406
G01 X68.2429 Y19.2484
G01 X68.2378 Y19.2569
G01 X68.2336 Y19.2657
G01 X68.2303 Y19.2750
G01 X68.2279 Y19.2845
G01 X68.2265 Y19.2942
G01 X68.2260 Y19.3040
G01 X68.2265 Y19.3138
G01 X68.2279 Y19.3235
G01 X68.2303 Y19.3330
G01 X68.2336 Y19.3423
G01 X68.2378 Y19.3511
G01 X68.2429 Y19.3596
G01 X68.2487 Y19.3674
G01 X68.2553 Y19.3747
G01 X68.2626 Y19.3813
G01 X68.2704 Y19.3871
G01 X68.2789 Y19.3922
G01 X68.2877 Y19.3964
G01 X68.2970 Y19.3997
G01 X68.3065 Y19.4021
G01 X68.3162 Y19.4035
G01 X68.3260 Y19.4040
G01 X68.3358 Y19.4035
G01 X68.3455 Y19.4021
G01 X68.3550 Y19.3997
G01 X68.3643 Y19.3964
G01 X68.3731 Y19.3922
G01 X68.3816 Y19.3871
G01 X68.3894 Y19.3813
G01 X68.3967 Y19.3747
G01 X68.4033 Y19.3674
G01 X68.4091 Y19.3596
G01 X68.4142 Y19.3511
G01 X68.4184 Y19.3423
G01 X68.4217 Y19.3330
G01 X68.4241 Y19.3235
G01 X68.4255 Y19.3138
G01 X68.4260 Y19.3040
G00 Z1.0000
G00 X68.4260 Y16.7640
G01 F120.00
G01 Z-1.8000
G01 F120.00
G01 X68.4255 Y16.7542
G01 X68.4241 Y16.7445
G01 X68.4217 Y16.7350
G01 X68.4184 Y16.7257
G01 X68.4142 Y16.7169
G01 X68.4091 Y16.7084
G01 X68.4033 Y16.7006
G01 X68.3967 Y16.6933
G01 X68.3894 Y16.6867
G01 X68.3816 Y16.6809
G01 X68.3731 Y16.6758
G01 X68.3643 Y16.6716
G01 X68.3550 Y16.6683
G01 X68.3455 Y16.6659
G01 X68.3358 Y16.6645
G01 X68.3260 Y16.6640
G01 X68.3162 Y16.6645
G01 X68.3065 Y16.6659
G01 X68.2970 Y16.6683
G01 X68.2877 Y16.6716
G01 X68.2789 Y16.6758
G01 X68.2704 Y16.6809
G01 X68.2626 Y16.6867
G01 X68.2553 Y16.6933
G01 X68.2487 Y16.7006
G01 X68.2429 Y16.7084
G01 X68.2378 Y16.7169
G01 X68.2336 Y16.7257
G01 X68.2303 Y16.7350
G01 X68.2279 Y16.7445
G01 X68.2265 Y16.7542
G01 X68.2260 Y16.7640
G01 X68.2265 Y16.7738
G01 X68.2279 Y16.7835
G01 X68.2303 Y16.7930
G01 X68.2336 Y16.8023
G01 X68.2378 Y16.8111
G01 X68.2429 Y16.8196
G01 X68.2487 Y16.8274
G01 X68.2553 Y16.8347
G01 X68.2626 Y16.8413
G01 X68.2704 Y16.8471
G01 X68.2789 Y16.8522
G01 X68.2877 Y16.8564
G01 X68.2970 Y16.8597
G01 X68.3065 Y16.8621
G01 X68.3162 Y16.8635
G01 X68.3260 Y16.8640
G01 X68.3358 Y16.8635
G01 X68.3455 Y16.8621
G01 X68.3550 Y16.8597
G01 X68.3643 Y16.8564
G01 X68.3731 Y16.8522
G01 X68.3816 Y16.8471
G01 X68.3894 Y16.8413
G01 X68.3967 Y16.8347
G01 X68.4033 Y16.8274
G01 X68.4091 Y16.8196
G01 X68.4142 Y16.8111
G01 X68.4184 Y16.8023
G01 X68.4217 Y16.7930
G01 X68.4241 Y16.7835
G01 X68.4255 Y16.7738
G01 X68.4260 Y16.7640
G00 Z1.0000
G00 X68.4260 Y14.2240
G01 F120.00
G01 Z-1.8000
G01 F120.00
G01 X68.4255 Y14.2142
G01 X68.4241 Y14.2045
G01 X68.4217 Y14.1950
G01 X68.4184 Y14.1857
G01 X68.4142 Y14.1769
G01 X68.4091 Y14.1684
G01 X68.4033 Y14.1606
G01 X68.3967 Y14.1533
G01 X68.3894 Y14.1467
G01 X68.3816 Y14.1409
G01 X68.3731 Y14.1358
G01 X68.3643 Y14.1316
G01 X68.3550 Y14.1283
G01 X68.3455 Y14.1259
G01 X68.3358 Y14.1245
G01 X68.3260 Y14.1240
G01 X68.3162 Y14.1245
G01 X68.3065 Y14.1259
G01 X68.2970 Y14.1283
G01 X68.2877 Y14.1316
G01 X68.2789 Y14.1358
G01 X68.2704 Y14.1409
G01 X68.2626 Y14.1467
G01 X68.2553 Y14.1533
G01 X68.2487 Y14.1606
G01 X68.2429 Y14.1684
G01 X68.2378 Y14.1769
G01 X68.2336 Y14.1857
G01 X68.2303 Y14.1950
G01 X68.2279 Y14.2045
G01 X68.2265 Y14.2142
G01 X68.2260 Y14.2240
G01 X68.2265 Y14.2338
G01 X68.2279 Y14.2435
G01 X68.2303 Y14.2530
G01 X68.2336 Y14.2623
G01 X68.2378 Y14.2711
G01 X68.2429 Y14.2796
G01 X68.2487 Y14.2874
G01 X68.2553 Y14.2947
G01 X68.2626 Y14.3013
G01 X68.2704 Y14.3071
G01 X68.2789 Y14.3122
G01 X68.2877 Y14.3164
G01 X68.2970 Y14.3197
G01 X68.3065 Y14.3221
G01 X68.3162 Y14.3235
G01 X68.3260 Y14.3240
G01 X68.3358 Y14.3235
G01 X68.3455 Y14.3221
G01 X68.3550 Y14.3197
G01 X68.3643 Y14.3164
G01 X68.3731 Y14.3122
G01 X68.3816 Y14.3071
G01 X68.3894 Y14.3013
G01 X68.3967 Y14.2947
G01 X68.4033 Y14.2874
G01 X68.4091 Y14.2796
G01 X68.4142 Y14.2711
G01 X68.4184 Y14.2623
G01 X68.4217 Y14.2530
G01 X68.4241 Y14.2435
G01 X68.4255 Y14.2338
G01 X68.4260 Y14.2240
G00 Z1.0000
G00 X74.7760 Y27.5590
G01 F120.00
G01 Z-1.8000
G01 F120.00
G01 X74.7755 Y27.5492
G01 X74.7741 Y27.5395
G01 X74.7717 Y27.5300
G01 X74.7684 Y27.5207
G01 X74.7642 Y27.5119
G01 X74.7591 Y27.5034
G01 X74.7533 Y27.4956
G01 X74.7467 Y27.4883
G01 X74.7394 Y27.4817
G01 X74.7316 Y27.4759
G01 X74.7231 Y27.4708
G01 X74.7143 Y27.4666
G01 X74.7050 Y27.4633
G01 X74.6955 Y27.4609
G01 X74.6858 Y27.4595
G01 X74.6760 Y27.4590
G01 X74.6662 Y27.4595
G01 X74.6565 Y27.4609
G01 X74.6470 Y27.4633
G01 X74.6377 Y27.4666
G01 X74.6289 Y27.4708
G01 X74.6204 Y27.4759
G01 X74.6126 Y27.4817
G01 X74.6053 Y27.4883
G01 X74.5987 Y27.4956
G01 X74.5929 Y27.5034
G01 X74.5878 Y27.5119
G01 X74.5836 Y27.5207
G01 X74.5803 Y27.5300
G01 X74.5779 Y27.5395
G01 X74.5765 Y27.5492
G01 X74.5760 Y27.5590
G01 X74.5765 Y27.5688
G01 X74.5779 Y27.5785
G01 X74.5803 Y27.5880
G01 X74.5836 Y27.5973
G01 X74.5878 Y27.6061
G01 X74.5929 Y27.6146
G01 X74.5987 Y27.6224
G01 X74.6053 Y27.6297
G01 X74.6126 Y27.6363
G01 X74.6204 Y27.6421
G01 X74.6289 Y27.6472
G01 X74.6377 Y27.6514
G01 X74.6470 Y27.6547
G01 X74.6565 Y27.6571
G01 X74.6662 Y27.6585
G01 X74.6760 Y27.6590
G01 X74.6858 Y27.6585
G01 X74.6955 Y27.6571
G01 X74.7050 Y27.6547
G01 X74.7143 Y27.6514
G01 X74.7231 Y27.6472
G01 X74.7316 Y27.6421
G01 X74.7394 Y27.6363
G01 X74.7467 Y27.6297
G01 X74.7533 Y27.6224
G01 X74.7591 Y27.6146
G01 X74.7642 Y27.6061
G01 X74.7684 Y27.5973
G01 X74.7717 Y27.5880
G01 X74.7741 Y27.5785
G01 X74.7755 Y27.5688
G01 X74.7760 Y27.5590
G00 Z1.0000
G00 X77.3160 Y27.5590
G01 F120.00
G01 Z-1.8000
G01 F120.00
G01 X77.3155 Y27.5492
G01 X77.3141 Y27.5395
G01 X77.3117 Y27.5300
G01 X77.3084 Y27.5207
G01 X77.3042 Y27.5119
G01 X77.2991 Y27.5034
G01 X77.2933 Y27.4956
G01 X77.2867 Y27.4883
G01 X77.2794 Y27.4817
G01 X77.2716 Y27.4759
G01 X77.2631 Y27.4708
G01 X77.2543 Y27.4666
G01 X77.2450 Y27.4633
G01 X77.2355 Y27.4609
G01 X77.2258 Y27.4595
G01 X77.2160 Y27.4590
G01 X77.2062 Y27.4595
G01 X77.1965 Y27.4609
G01 X77.1870 Y27.4633
G01 X77.1777 Y27.4666
G01 X77.1689 Y27.4708
G01 X77.1604 Y27.4759
G01 X77.1526 Y27.4817
G01 X77.1453 Y27.4883
G01 X77.1387 Y27.4956
G01 X77.1329 Y27.5034
G01 X77.1278 Y27.5119
G01 X77.1236 Y27.5207
G01 X77.1203 Y27.5300
G01 X77.1179 Y27.5395
G01 X77.1165 Y27.5492
G01 X77.1160 Y27.5590
G01 X77.1165 Y27.5688
G01 X77.1179 Y27.5785
G01 X77.1203 Y27.5880
G01 X77.1236 Y27.5973
G01 X77.1278 Y27.6061
G01 X77.1329 Y27.6146
G01 X77.1387 Y27.6224
G01 X77.1453 Y27.6297
G01 X77.1526 Y27.6363
G01 X77.1604 Y27.6421
G01 X77.1689 Y27.6472
G01 X77.1777 Y27.6514
G01 X77.1870 Y27.6547
G01 X77.1965 Y27.6571
G01 X77.2062 Y27.6585
G01 X77.2160 Y27.6590
G01 X77.2258 Y27.6585
G01 X77.2355 Y27.6571
G01 X77.2450 Y27.6547
G01 X77.2543 Y27.6514
G01 X77.2631 Y27.6472
G01 X77.2716 Y27.6421
G01 X77.2794 Y27.6363
G01 X77.2867 Y27.6297
G01 X77.2933 Y27.6224
G01 X77.2991 Y27.6146
G01 X77.3042 Y27.6061
G01 X77.3084 Y27.5973
G01 X77.3117 Y27.5880
G01 X77.3141 Y27.5785
G01 X77.3155 Y27.5688
G01 X77.3160 Y27.5590
G00 Z1.0000
G00 X79.8560 Y27.5590
G01 F120.00
G01 Z-1.8000
G01 F120.00
G01 X79.8555 Y27.5492
G01 X79.8541 Y27.5395
G01 X79.8517 Y27.5300
G01 X79.8484 Y27.5207
G01 X79.8442 Y27.5119
G01 X79.8391 Y27.5034
G01 X79.8333 Y27.4956
G01 X79.8267 Y27.4883
G01 X79.8194 Y27.4817
G01 X79.8116 Y27.4759
G01 X79.8031 Y27.4708
G01 X79.7943 Y27.4666
G01 X79.7850 Y27.4633
G01 X79.7755 Y27.4609
G01 X79.7658 Y27.4595
G01 X79.7560 Y27.4590
G01 X79.7462 Y27.4595
G01 X79.7365 Y27.4609
G01 X79.7270 Y27.4633
G01 X79.7177 Y27.4666
G01 X79.7089 Y27.4708
G01 X79.7004 Y27.4759
G01 X79.6926 Y27.4817
G01 X79.6853 Y27.4883
G01 X79.6787 Y27.4956
G01 X79.6729 Y27.5034
G01 X79.6678 Y27.5119
G01 X79.6636 Y27.5207
G01 X79.6603 Y27.5300
G01 X79.6579 Y27.5395
G01 X79.6565 Y27.5492
G01 X79.6560 Y27.5590
G01 X79.6565 Y27.5688
G01 X79.6579 Y27.5785
G01 X79.6603 Y27.5880
G01 X79.6636 Y27.5973
G01 X79.6678 Y27.6061
G01 X79.6729 Y27.6146
G01 X79.6787 Y27.6224
G01 X79.6853 Y27.6297
G01 X79.6926 Y27.6363
G01 X79.7004 Y27.6421
G01 X79.7089 Y27.6472
G01 X79.7177 Y27.6514
G01 X79.7270 Y27.6547
G01 X79.7365 Y27.6571
G01 X79.7462 Y27.6585
G01 X79.7560 Y27.6590
G01 X79.7658 Y27.6585
G01 X79.7755 Y27.6571
G01 X79.7850 Y27.6547
G01 X79.7943 Y27.6514
G01 X79.8031 Y27.6472
G01 X79.8116 Y27.6421
G01 X79.8194 Y27.6363
G01 X79.8267 Y27.6297
G01 X79.8333 Y27.6224
G01 X79.8391 Y27.6146
G01 X79.8442 Y27.6061
G01 X79.8484 Y27.5973
G01 X79.8517 Y27.5880
G01 X79.8541 Y27.5785
G01 X79.8555 Y27.5688
G01 X79.8560 Y27.5590
G00 Z1.0000
G00 X82.3960 Y27.5590
G01 F120.00
G01 Z-1.8000
G01 F120.00
G01 X82.3955 Y27.5492
G01 X82.3941 Y27.5395
G01 X82.3917 Y27.5300
G01 X82.3884 Y27.5207
G01 X82.3842 Y27.5119
G01 X82.3791 Y27.5034
G01 X82.3733 Y27.4956
G01 X82.3667 Y27.4883
G01 X82.3594 Y27.4817
G01 X82.3516 Y27.4759
G01 X82.3431 Y27.4708
G01 X82.3343 Y27.4666
G01 X82.3250 Y27.4633
G01 X82.3155 Y27.4609
G01 X82.3058 Y27.4595
G01 X82.2960 Y27.4590
G01 X82.2862 Y27.4595
G01 X82.2765 Y27.4609
G01 X82.2670 Y27.4633
G01 X82.2577 Y27.4666
G01 X82.2489 Y27.4708
G01 X82.2404 Y27.4759
G01 X82.2326 Y27.4817
G01 X82.2253 Y27.4883
G01 X82.2187 Y27.4956
G01 X82.2129 Y27.5034
G01 X82.2078 Y27.5119
G01 X82.2036 Y27.5207
G01 X82.2003 Y27.5300
G01 X82.1979 Y27.5395
G01 X82.1965 Y27.5492
G01 X82.1960 Y27.5590
G01 X82.1965 Y27.5688
G01 X82.1979 Y27.5785
G01 X82.2003 Y27.5880
G01 X82.2036 Y27.5973
G01 X82.2078 Y27.6061
G01 X82.2129 Y27.6146
G01 X82.2187 Y27.6224
G01 X82.2253 Y27.6297
G01 X82.2326 Y27.6363
G01 X82.2404 Y27.6421
G01 X82.2489 Y27.6472
G01 X82.2577 Y27.6514
G01 X82.2670 Y27.6547
G01 X82.2765 Y27.6571
G01 X82.2862 Y27.6585
G01 X82.2960 Y27.6590
G01 X82.3058 Y27.6585
G01 X82.3155 Y27.6571
G01 X82.3250 Y27.6547
G01 X82.3343 Y27.6514
G01 X82.3431 Y27.6472
G01 X82.3516 Y27.6421
G01 X82.3594 Y27.6363
G01 X82.3667 Y27.6297
G01 X82.3733 Y27.6224
G01 X82.3791 Y27.6146
G01 X82.3842 Y27.6061
G01 X82.3884 Y27.5973
G01 X82.3917 Y27.5880
G01 X82.3941 Y27.5785
G01 X82.3955 Y27.5688
G01 X82.3960 Y27.5590
G00 Z1.0000
G00 X84.9360 Y27.5590
G01 F120.00
G01 Z-1.8000
G01 F120.00
G01 X84.9355 Y27.5492
G01 X84.9341 Y27.5395
G01 X84.9317 Y27.5300
G01 X84.9284 Y27.5207
G01 X84.9242 Y27.5119
G01 X84.9191 Y27.5034
G01 X84.9133 Y27.4956
G01 X84.9067 Y27.4883
G01 X84.8994 Y27.4817
G01 X84.8916 Y27.4759
G01 X84.8831 Y27.4708
G01 X84.8743 Y27.4666
G01 X84.8650 Y27.4633
G01 X84.8555 Y27.4609
G01 X84.8458 Y27.4595
G01 X84.8360 Y27.4590
G01 X84.8262 Y27.4595
G01 X84.8165 Y27.4609
G01 X84.8070 Y27.4633
G01 X84.7977 Y27.4666
G01 X84.7889 Y27.4708
G01 X84.7804 Y27.4759
G01 X84.7726 Y27.4817
G01 X84.7653 Y27.4883
G01 X84.7587 Y27.4956
G01 X84.7529 Y27.5034
G01 X84.7478 Y27.5119
G01 X84.7436 Y27.5207
G01 X84.7403 Y27.5300
G01 X84.7379 Y27.5395
G01 X84.7365 Y27.5492
G01 X84.7360 Y27.5590
G01 X84.7365 Y27.5688
G01 X84.7379 Y27.5785
G01 X84.7403 Y27.5880
G01 X84.7436 Y27.5973
G01 X84.7478 Y27.6061
G01 X84.7529 Y27.6146
G01 X84.7587 Y27.6224
G01 X84.7653 Y27.6297
G01 X84.7726 Y27.6363
G01 X84.7804 Y27.6421
G01 X84.7889 Y27.6472
G01 X84.7977 Y27.6514
G01 X84.8070 Y27.6547
G01 X84.8165 Y27.6571
G01 X84.8262 Y27.6585
G01 X84.8360 Y27.6590
G01 X84.8458 Y27.6585
G01 X84.8555 Y27.6571
G01 X84.8650 Y27.6547
G01 X84.8743 Y27.6514
G01 X84.8831 Y27.6472
G01 X84.8916 Y27.6421
G01 X84.8994 Y27.6363
G01 X84.9067 Y27.6297
G01 X84.9133 Y27.6224
G01 X84.9191 Y27.6146
G01 X84.9242 Y27.6061
G01 X84.9284 Y27.5973
G01 X84.9317 Y27.5880
G01 X84.9341 Y27.5785
G01 X84.9355 Y27.5688
G01 X84.9360 Y27.5590
G00 Z1.0000
G00 X87.4760 Y27.5590
G01 F120.00
G01 Z-1.8000
G01 F120.00
G01 X87.4755 Y27.5492
G01 X87.4741 Y27.5395
G01 X87.4717 Y27.5300
G01 X87.4684 Y27.5207
G01 X87.4642 Y27.5119
G01 X87.4591 Y27.5034
G01 X87.4533 Y27.4956
G01 X87.4467 Y27.4883
G01 X87.4394 Y27.4817
G01 X87.4316 Y27.4759
G01 X87.4231 Y27.4708
G01 X87.4143 Y27.4666
G01 X87.4050 Y27.4633
G01 X87.3955 Y27.4609
G01 X87.3858 Y27.4595
G01 X87.3760 Y27.4590
G01 X87.3662 Y27.4595
G01 X87.3565 Y27.4609
G01 X87.3470 Y27.4633
G01 X87.3377 Y27.4666
G01 X87.3289 Y27.4708
G01 X87.3204 Y27.4759
G01 X87.3126 Y27.4817
G01 X87.3053 Y27.4883
G01 X87.2987 Y27.4956
G01 X87.2929 Y27.5034
G01 X87.2878 Y27.5119
G01 X87.2836 Y27.5207
G01 X87.2803 Y27.5300
G01 X87.2779 Y27.5395
G01 X87.2765 Y27.5492
G01 X87.2760 Y27.5590
G01 X87.2765 Y27.5688
G01 X87.2779 Y27.5785
G01 X87.2803 Y27.5880
G01 X87.2836 Y27.5973
G01 X87.2878 Y27.6061
G01 X87.2929 Y27.6146
G01 X87.2987 Y27.6224
G01 X87.3053 Y27.6297
G01 X87.3126 Y27.6363
G01 X87.3204 Y27.6421
G01 X87.3289 Y27.6472
G01 X87.3377 Y27.6514
G01 X87.3470 Y27.6547
G01 X87.3565 Y27.6571
G01 X87.3662 Y27.6585
G01 X87.3760 Y27.6590
G01 X87.3858 Y27.6585
G01 X87.3955 Y27.6571
G01 X87.4050 Y27.6547
G01 X87.4143 Y27.6514
G01 X87.4231 Y27.6472
G01 X87.4316 Y27.6421
G01 X87.4394 Y27.6363
G01 X87.4467 Y27.6297
G01 X87.4533 Y27.6224
G01 X87.4591 Y27.6146
G01 X87.4642 Y27.6061
G01 X87.4684 Y27.5973
G01 X87.4717 Y27.5880
G01 X87.4741 Y27.5785
G01 X87.4755 Y27.5688
G01 X87.4760 Y27.5590
G00 Z1.0000
G00 X90.0160 Y27.5590
G01 F120.00
G01 Z-1.8000
G01 F120.00
G01 X90.0155 Y27.5492
G01 X90.0141 Y27.5395
G01 X90.0117 Y27.5300
G01 X90.0084 Y27.5207
G01 X90.0042 Y27.5119
G01 X89.9991 Y27.5034
G01 X89.9933 Y27.4956
G01 X89.9867 Y27.4883
G01 X89.9794 Y27.4817
G01 X89.9716 Y27.4759
G01 X89.9631 Y27.4708
G01 X89.9543 Y27.4666
G01 X89.9450 Y27.4633
G01 X89.9355 Y27.4609
G01 X89.9258 Y27.4595
G01 X89.9160 Y27.4590
G01 X89.9062 Y27.4595
G01 X89.8965 Y27.4609
G01 X89.8870 Y27.4633
G01 X89.8777 Y27.4666
G01 X89.8689 Y27.4708
G01 X89.8604 Y27.4759
G01 X89.8526 Y27.4817
G01 X89.8453 Y27.4883
G01 X89.8387 Y27.4956
G01 X89.8329 Y27.5034
G01 X89.8278 Y27.5119
G01 X89.8236 Y27.5207
G01 X89.8203 Y27.5300
G01 X89.8179 Y27.5395
G01 X89.8165 Y27.5492
G01 X89.8160 Y27.5590
G01 X89.8165 Y27.5688
G01 X89.8179 Y27.5785
G01 X89.8203 Y27.5880
G01 X89.8236 Y27.5973
G01 X89.8278 Y27.6061
G01 X89.8329 Y27.6146
G01 X89.8387 Y27.6224
G01 X89.8453 Y27.6297
G01 X89.8526 Y27.6363
G01 X89.8604 Y27.6421
G01 X89.8689 Y27.6472
G01 X89.8777 Y27.6514
G01 X89.8870 Y27.6547
G01 X89.8965 Y27.6571
G01 X89.9062 Y27.6585
G01 X89.9160 Y27.6590
G01 X89.9258 Y27.6585
G01 X89.9355 Y27.6571
G01 X89.9450 Y27.6547
G01 X89.9543 Y27.6514
G01 X89.9631 Y27.6472
G01 X89.9716 Y27.6421
G01 X89.9794 Y27.6363
G01 X89.9867 Y27.6297
G01 X89.9933 Y27.6224
G01 X89.9991 Y27.6146
G01 X90.0042 Y27.6061
G01 X90.0084 Y27.5973
G01 X90.0117 Y27.5880
G01 X90.0141 Y27.5785
G01 X90.0155 Y27.5688
G01 X90.0160 Y27.5590
G00 Z1.0000
G00 X92.5560 Y27.5590
G01 F120.00
G01 Z-1.8000
G01 F120.00
G01 X92.5555 Y27.5492
G01 X92.5541 Y27.5395
G01 X92.5517 Y27.5300
G01 X92.5484 Y27.5207
G01 X92.5442 Y27.5119
G01 X92.5391 Y27.5034
G01 X92.5333 Y27.4956
G01 X92.5267 Y27.4883
G01 X92.5194 Y27.4817
G01 X92.5116 Y27.4759
G01 X92.5031 Y27.4708
G01 X92.4943 Y27.4666
G01 X92.4850 Y27.4633
G01 X92.4755 Y27.4609
G01 X92.4658 Y27.4595
G01 X92.4560 Y27.4590
G01 X92.4462 Y27.4595
G01 X92.4365 Y27.4609
G01 X92.4270 Y27.4633
G01 X92.4177 Y27.4666
G01 X92.4089 Y27.4708
G01 X92.4004 Y27.4759
G01 X92.3926 Y27.4817
G01 X92.3853 Y27.4883
G01 X92.3787 Y27.4956
G01 X92.3729 Y27.5034
G01 X92.3678 Y27.5119
G01 X92.3636 Y27.5207
G01 X92.3603 Y27.5300
G01 X92.3579 Y27.5395
G01 X92.3565 Y27.5492
G01 X92.3560 Y27.5590
G01 X92.3565 Y27.5688
G01 X92.3579 Y27.5785
G01 X92.3603 Y27.5880
G01 X92.3636 Y27.5973
G01 X92.3678 Y27.6061
G01 X92.3729 Y27.6146
G01 X92.3787 Y27.6224
G01 X92.3853 Y27.6297
G01 X92.3926 Y27.6363
G01 X92.4004 Y27.6421
G01 X92.4089 Y27.6472
G01 X92.4177 Y27.6514
G01 X92.4270 Y27.6547
G01 X92.4365 Y27.6571
G01 X92.4462 Y27.6585
G01 X92.4560 Y27.6590
G01 X92.4658 Y27.6585
G01 X92.4755 Y27.6571
G01 X92.4850 Y27.6547
G01 X92.4943 Y27.6514
G01 X92.5031 Y27.6472
G01 X92.5116 Y27.6421
G01 X92.5194 Y27.6363
G01 X92.5267 Y27.6297
G01 X92.5333 Y27.6224
G01 X92.5391 Y27.6146
G01 X92.5442 Y27.6061
G01 X92.5484 Y27.5973
G01 X92.5517 Y27.5880
G01 X92.5541 Y27.5785
G01 X92.5555 Y27.5688
G01 X92.5560 Y27.5590
G00 Z1.0000
G00 X95.0960 Y27.5590
G01 F120.00
G01 Z-1.8000
G01 F120.00
G01 X95.0955 Y27.5492
G01 X95.0941 Y27.5395
G01 X95.0917 Y27.5300
G01 X95.0884 Y27.5207
G01 X95.0842 Y27.5119
G01 X95.0791 Y27.5034
G01 X95.0733 Y27.4956
G01 X95.0667 Y27.4883
G01 X95.0594 Y27.4817
G01 X95.0516 Y27.4759
G01 X95.0431 Y27.4708
G01 X95.0343 Y27.4666
G01 X95.0250 Y27.4633
G01 X95.0155 Y27.4609
G01 X95.0058 Y27.4595
G01 X94.9960 Y27.4590
G01 X94.9862 Y27.4595
G01 X94.9765 Y27.4609
G01 X94.9670 Y27.4633
G01 X94.9577 Y27.4666
G01 X94.9489 Y27.4708
G01 X94.9404 Y27.4759
G01 X94.9326 Y27.4817
G01 X94.9253 Y27.4883
G01 X94.9187 Y27.4956
G01 X94.9129 Y27.5034
G01 X94.9078 Y27.5119
G01 X94.9036 Y27.5207
G01 X94.9003 Y27.5300
G01 X94.8979 Y27.5395
G01 X94.8965 Y27.5492
G01 X94.8960 Y27.5590
G01 X94.8965 Y27.5688
G01 X94.8979 Y27.5785
G01 X94.9003 Y27.5880
G01 X94.9036 Y27.5973
G01 X94.9078 Y27.6061
G01 X94.9129 Y27.6146
G01 X94.9187 Y27.6224
G01 X94.9253 Y27.6297
G01 X94.9326 Y27.6363
G01 X94.9404 Y27.6421
G01 X94.9489 Y27.6472
G01 X94.9577 Y27.6514
G01 X94.9670 Y27.6547
G01 X94.9765 Y27.6571
G01 X94.9862 Y27.6585
G01 X94.9960 Y27.6590
G01 X95.0058 Y27.6585
G01 X95.0155 Y27.6571
G01 X95.0250 Y27.6547
G01 X95.0343 Y27.6514
G01 X95.0431 Y27.6472
G01 X95.0516 Y27.6421
G01 X95.0594 Y27.6363
G01 X95.0667 Y27.6297
G01 X95.0733 Y27.6224
G01 X95.0791 Y27.6146
G01 X95.0842 Y27.6061
G01 X95.0884 Y27.5973
G01 X95.0917 Y27.5880
G01 X95.0941 Y27.5785
G01 X95.0955 Y27.5688
G01 X95.0960 Y27.5590
G00 Z1.0000
G00 X94.9960 Y31.7500
G01 F120.00
G01 Z-1.8000
G01 F120.00
G01 X94.9960 Y31.7500
G01 X94.9960 Y31.7500
G01 X94.9960 Y31.7500
G01 X94.9960 Y31.7500
G00 Z1.0000
G00 X94.9960 Y34.2500
G01 F120.00
G01 Z-1.8000
G01 F120.00
G01 X94.9960 Y34.2500
G01 X94.9960 Y34.2500
G01 X94.9960 Y34.2500
G01 X94.9960 Y34.2500
G00 Z1.0000
G00 X89.9160 Y34.1630
G01 F120.00
G01 Z-1.8000
G01 F120.00
G01 X89.9160 Y34.1630
G01 X89.9160 Y34.1630
G01 X89.9160 Y34.1630
G01 X89.9160 Y34.1630
G00 Z1.0000
G00 X89.9160 Y31.6630
G01 F120.00
G01 Z-1.8000
G01 F120.00
G01 X89.9160 Y31.6630
G01 X89.9160 Y31.6630
G01 X89.9160 Y31.6630
G01 X89.9160 Y31.6630
G00 Z1.0000
G00 X86.3200 Y58.4200
G01 F120.00
G01 Z-1.8000
G01 F120.00
G01 X86.3200 Y58.4200
G01 X86.3200 Y58.4200
G01 X86.3200 Y58.4200
G01 X86.3200 Y58.4200
G00 Z1.0000
G00 X83.8200 Y58.4200
G01 F120.00
G01 Z-1.8000
G01 F120.00
G01 X83.8200 Y58.4200
G01 X83.8200 Y58.4200
G01 X83.8200 Y58.4200
G01 X83.8200 Y58.4200
G00 Z1.0000
G00 X74.0410 Y62.9050
G01 F120.00
G01 Z-1.8000
G01 F120.00
G01 X74.0410 Y62.9050
G01 X74.0410 Y62.9050
G01 X74.0410 Y62.9050
G01 X74.0410 Y62.9050
G00 Z1.0000
G00 X74.0410 Y65.4050
G01 F120.00
G01 Z-1.8000
G01 F120.00
G01 X74.0410 Y65.4050
G01 X74.0410 Y65.4050
G01 X74.0410 Y65.4050
G01 X74.0410 Y65.4050
G00 Z1.0000
G00 X74.0410 Y69.8500
G01 F120.00
G01 Z-1.8000
G01 F120.00
G01 X74.0410 Y69.8500
G01 X74.0410 Y69.8500
G01 X74.0410 Y69.8500
G01 X74.0410 Y69.8500
G00 Z1.0000
G00 X74.0410 Y72.3500
G01 F120.00
G01 Z-1.8000
G01 F120.00
G01 X74.0410 Y72.3500
G01 X74.0410 Y72.3500
G01 X74.0410 Y72.3500
G01 X74.0410 Y72.3500
G00 Z1.0000
G00 X79.2480 Y80.7720
G01 F120.00
G01 Z-1.8000
G01 F120.00
G01 X79.2480 Y80.7720
G01 X79.2480 Y80.7720
G01 X79.2480 Y80.7720
G01 X79.2480 Y80.7720
G00 Z1.0000
G00 X79.2480 Y84.5720
G01 F120.00
G01 Z-1.8000
G01 F120.00
G01 X79.2480 Y84.5720
G01 X79.2480 Y84.5720
G01 X79.2480 Y84.5720
G01 X79.2480 Y84.5720
G00 Z1.0000
G00 X70.3440 Y82.8040
G01 F120.00
G01 Z-1.8000
G01 F120.00
G01 X70.3430 Y82.7942
G01 X70.3402 Y82.7849
G01 X70.3356 Y82.7762
G01 X70.3294 Y82.7686
G01 X70.3218 Y82.7624
G01 X70.3131 Y82.7578
G01 X70.3038 Y82.7550
G01 X70.2940 Y82.7540
G01 X70.2842 Y82.7550
G01 X70.2749 Y82.7578
G01 X70.2662 Y82.7624
G01 X70.2586 Y82.7686
G01 X70.2524 Y82.7762
G01 X70.2478 Y82.7849
G01 X70.2450 Y82.7942
G01 X70.2440 Y82.8040
G01 X70.2450 Y82.8138
G01 X70.2478 Y82.8231
G01 X70.2524 Y82.8318
G01 X70.2586 Y82.8394
G01 X70.2662 Y82.8456
G01 X70.2749 Y82.8502
G01 X70.2842 Y82.8530
G01 X70.2940 Y82.8540
G01 X70.3038 Y82.8530
G01 X70.3131 Y82.8502
G01 X70.3218 Y82.8456
G01 X70.3294 Y82.8394
G01 X70.3356 Y82.8318
G01 X70.3402 Y82.8231
G01 X70.3430 Y82.8138
G01 X70.3440 Y82.8040
G00 Z1.0000
G00 X60.1840 Y82.8040
G01 F120.00
G01 Z-1.8000
G01 F120.00
G01 X60.1830 Y82.7942
G01 X60.1802 Y82.7849
G01 X60.1756 Y82.7762
G01 X60.1694 Y82.7686
G01 X60.1618 Y82.7624
G01 X60.1531 Y82.7578
G01 X60.1438 Y82.7550
G01 X60.1340 Y82.7540
G01 X60.1242 Y82.7550
G01 X60.1149 Y82.7578
G01 X60.1062 Y82.7624
G01 X60.0986 Y82.7686
G01 X60.0924 Y82.7762
G01 X60.0878 Y82.7849
G01 X60.0850 Y82.7942
G01 X60.0840 Y82.8040
G01 X60.0850 Y82.8138
G01 X60.0878 Y82.8231
G01 X60.0924 Y82.8318
G01 X60.0986 Y82.8394
G01 X60.1062 Y82.8456
G01 X60.1149 Y82.8502
G01 X60.1242 Y82.8530
G01 X60.1340 Y82.8540
G01 X60.1438 Y82.8530
G01 X60.1531 Y82.8502
G01 X60.1618 Y82.8456
G01 X60.1694 Y82.8394
G01 X60.1756 Y82.8318
G01 X60.1802 Y82.8231
G01 X60.1830 Y82.8138
G01 X60.1840 Y82.8040
G00 Z1.0000
G00 X60.1840 Y95.5040
G01 F120.00
G01 Z-1.8000
G01 F120.00
G01 X60.1830 Y95.4942
G01 X60.1802 Y95.4849
G01 X60.1756 Y95.4762
G01 X60.1694 Y95.4686
G01 X60.1618 Y95.4624
G01 X60.1531 Y95.4578
G01 X60.1438 Y95.4550
G01 X60.1340 Y95.4540
G01 X60.1242 Y95.4550
G01 X60.1149 Y95.4578
G01 X60.1062 Y95.4624
G01 X60.0986 Y95.4686
G01 X60.0924 Y95.4762
G01 X60.0878 Y95.4849
G01 X60.0850 Y95.4942
G01 X60.0840 Y95.5040
G01 X60.0850 Y95.5138
G01 X60.0878 Y95.5231
G01 X60.0924 Y95.5318
G01 X60.0986 Y95.5394
G01 X60.1062 Y95.5456
G01 X60.1149 Y95.5502
G01 X60.1242 Y95.5530
G01 X60.1340 Y95.5540
G01 X60.1438 Y95.5530
G01 X60.1531 Y95.5502
G01 X60.1618 Y95.5456
G01 X60.1694 Y95.5394
G01 X60.1756 Y95.5318
G01 X60.1802 Y95.5231
G01 X60.1830 Y95.5138
G01 X60.1840 Y95.5040
G00 Z1.0000
G00 X70.3440 Y95.5040
G01 F120.00
G01 Z-1.8000
G01 F120.00
G01 X70.3430 Y95.4942
G01 X70.3402 Y95.4849
G01 X70.3356 Y95.4762
G01 X70.3294 Y95.4686
G01 X70.3218 Y95.4624
G01 X70.3131 Y95.4578
G01 X70.3038 Y95.4550
G01 X70.2940 Y95.4540
G01 X70.2842 Y95.4550
G01 X70.2749 Y95.4578
G01 X70.2662 Y95.4624
G01 X70.2586 Y95.4686
G01 X70.2524 Y95.4762
G01 X70.2478 Y95.4849
G01 X70.2450 Y95.4942
G01 X70.2440 Y95.5040
G01 X70.2450 Y95.5138
G01 X70.2478 Y95.5231
G01 X70.2524 Y95.5318
G01 X70.2586 Y95.5394
G01 X70.2662 Y95.5456
G01 X70.2749 Y95.5502
G01 X70.2842 Y95.5530
G01 X70.2940 Y95.5540
G01 X70.3038 Y95.5530
G01 X70.3131 Y95.5502
G01 X70.3218 Y95.5456
G01 X70.3294 Y95.5394
G01 X70.3356 Y95.5318
G01 X70.3402 Y95.5231
G01 X70.3430 Y95.5138
G01 X70.3440 Y95.5040
G00 Z1.0000
G00 X74.6850 Y92.7730
G01 F120.00
G01 Z-1.8000
G01 F120.00
G01 X74.6843 Y92.7583
G01 X74.6821 Y92.7437
G01 X74.6785 Y92.7295
G01 X74.6736 Y92.7156
G01 X74.6673 Y92.7023
G01 X74.6597 Y92.6897
G01 X74.6510 Y92.6778
G01 X74.6411 Y92.6669
G01 X74.6302 Y92.6570
G01 X74.6183 Y92.6483
G01 X74.6057 Y92.6407
G01 X74.5924 Y92.6344
G01 X74.5785 Y92.6295
G01 X74.5643 Y92.6259
G01 X74.5497 Y92.6237
G01 X74.5350 Y92.6230
G01 X74.5203 Y92.6237
G01 X74.5057 Y92.6259
G01 X74.4915 Y92.6295
G01 X74.4776 Y92.6344
G01 X74.4643 Y92.6407
G01 X74.4517 Y92.6483
G01 X74.4398 Y92.6570
G01 X74.4289 Y92.6669
G01 X74.4190 Y92.6778
G01 X74.4103 Y92.6897
G01 X74.4027 Y92.7023
G01 X74.3964 Y92.7156
G01 X74.3915 Y92.7295
G01 X74.3879 Y92.7437
G01 X74.3857 Y92.7583
G01 X74.3850 Y92.7730
G01 X74.3857 Y92.7877
G01 X74.3879 Y92.8023
G01 X74.3915 Y92.8165
G01 X74.3964 Y92.8304
G01 X74.4027 Y92.8437
G01 X74.4103 Y92.8563
G01 X74.4190 Y92.8682
G01 X74.4289 Y92.8791
G01 X74.4398 Y92.8890
G01 X74.4517 Y92.8977
G01 X74.4643 Y92.9053
G01 X74.4776 Y92.9116
G01 X74.4915 Y92.9165
G01 X74.5057 Y92.9201
G01 X74.5203 Y92.9223
G01 X74.5350 Y92.9230
G01 X74.5497 Y92.9223
G01 X74.5643 Y92.9201
G01 X74.5785 Y92.9165
G01 X74.5924 Y92.9116
G01 X74.6057 Y92.9053
G01 X74.6183 Y92.8977
G01 X74.6302 Y92.8890
G01 X74.6411 Y92.8791
G01 X74.6510 Y92.8682
G01 X74.6597 Y92.8563
G01 X74.6673 Y92.8437
G01 X74.6736 Y92.8304
G01 X74.6785 Y92.8165
G01 X74.6821 Y92.8023
G01 X74.6843 Y92.7877
G01 X74.6850 Y92.7730
G00 Z1.0000
G00 X89.6850 Y92.7730
G01 F120.00
G01 Z-1.8000
G01 F120.00
G01 X89.6843 Y92.7583
G01 X89.6821 Y92.7437
G01 X89.6785 Y92.7295
G01 X89.6736 Y92.7156
G01 X89.6673 Y92.7023
G01 X89.6597 Y92.6897
G01 X89.6510 Y92.6778
G01 X89.6411 Y92.6669
G01 X89.6302 Y92.6570
G01 X89.6183 Y92.6483
G01 X89.6057 Y92.6407
G01 X89.5924 Y92.6344
G01 X89.5785 Y92.6295
G01 X89.5643 Y92.6259
G01 X89.5497 Y92.6237
G01 X89.5350 Y92.6230
G01 X89.5203 Y92.6237
G01 X89.5057 Y92.6259
G01 X89.4915 Y92.6295
G01 X89.4776 Y92.6344
G01 X89.4643 Y92.6407
G01 X89.4517 Y92.6483
G01 X89.4398 Y92.6570
G01 X89.4289 Y92.6669
G01 X89.4190 Y92.6778
G01 X89.4103 Y92.6897
G01 X89.4027 Y92.7023
G01 X89.3964 Y92.7156
G01 X89.3915 Y92.7295
G01 X89.3879 Y92.7437
G01 X89.3857 Y92.7583
G01 X89.3850 Y92.7730
G01 X89.3857 Y92.7877
G01 X89.3879 Y92.8023
G01 X89.3915 Y92.8165
G01 X89.3964 Y92.8304
G01 X89.4027 Y92.8437
G01 X89.4103 Y92.8563
G01 X89.4190 Y92.8682
G01 X89.4289 Y92.8791
G01 X89.4398 Y92.8890
G01 X89.4517 Y92.8977
G01 X89.4643 Y92.9053
G01 X89.4776 Y92.9116
G01 X89.4915 Y92.9165
G01 X89.5057 Y92.9201
G01 X89.5203 Y92.9223
G01 X89.5350 Y92.9230
G01 X89.5497 Y92.9223
G01 X89.5643 Y92.9201
G01 X89.5785 Y92.9165
G01 X89.5924 Y92.9116
G01 X89.6057 Y92.9053
G01 X89.6183 Y92.8977
G01 X89.6302 Y92.8890
G01 X89.6411 Y92.8791
G01 X89.6510 Y92.8682
G01 X89.6597 Y92.8563
G01 X89.6673 Y92.8437
G01 X89.6736 Y92.8304
G01 X89.6785 Y92.8165
G01 X89.6821 Y92.8023
G01 X89.6843 Y92.7877
G01 X89.6850 Y92.7730
G00 Z1.0000
G00 X92.9730 Y87.8840
G01 F120.00
G01 Z-1.8000
G01 F120.00
G01 X92.9720 Y87.8644
G01 X92.9692 Y87.8450
G01 X92.9644 Y87.8259
G01 X92.9578 Y87.8075
G01 X92.9494 Y87.7897
G01 X92.9393 Y87.7729
G01 X92.9276 Y87.7571
G01 X92.9144 Y87.7426
G01 X92.8999 Y87.7294
G01 X92.8841 Y87.7177
G01 X92.8673 Y87.7076
G01 X92.8495 Y87.6992
G01 X92.8311 Y87.6926
G01 X92.8120 Y87.6878
G01 X92.7926 Y87.6850
G01 X92.7730 Y87.6840
G01 X92.7534 Y87.6850
G01 X92.7340 Y87.6878
G01 X92.7149 Y87.6926
G01 X92.6965 Y87.6992
G01 X92.6787 Y87.7076
G01 X92.6619 Y87.7177
G01 X92.6461 Y87.7294
G01 X92.6316 Y87.7426
G01 X92.6184 Y87.7571
G01 X92.6067 Y87.7729
G01 X92.5966 Y87.7897
G01 X92.5882 Y87.8075
G01 X92.5816 Y87.8259
G01 X92.5768 Y87.8450
G01 X92.5740 Y87.8644
G01 X92.5730 Y87.8840
G01 X92.5740 Y87.9036
G01 X92.5768 Y87.9230
G01 X92.5816 Y87.9421
G01 X92.5882 Y87.9605
G01 X92.5966 Y87.9783
G01 X92.6067 Y87.9951
G01 X92.6184 Y88.0109
G01 X92.6316 Y88.0254
G01 X92.6461 Y88.0386
G01 X92.6619 Y88.0503
G01 X92.6787 Y88.0604
G01 X92.6965 Y88.0688
G01 X92.7149 Y88.0754
G01 X92.7340 Y88.0802
G01 X92.7534 Y88.0830
G01 X92.7730 Y88.0840
G01 X92.7926 Y88.0830
G01 X92.8120 Y88.0802
G01 X92.8311 Y88.0754
G01 X92.8495 Y88.0688
G01 X92.8673 Y88.0604
G01 X92.8841 Y88.0503
G01 X92.8999 Y88.0386
G01 X92.9144 Y88.0254
G01 X92.9276 Y88.0109
G01 X92.9393 Y87.9951
G01 X92.9494 Y87.9783
G01 X92.9578 Y87.9605
G01 X92.9644 Y87.9421
G01 X92.9692 Y87.9230
G01 X92.9720 Y87.9036
G01 X92.9730 Y87.8840
G00 Z1.0000
G00 X92.9730 Y85.3440
G01 F120.00
G01 Z-1.8000
G01 F120.00
G01 X92.9720 Y85.3244
G01 X92.9692 Y85.3050
G01 X92.9644 Y85.2859
G01 X92.9578 Y85.2675
G01 X92.9494 Y85.2497
G01 X92.9393 Y85.2329
G01 X92.9276 Y85.2171
G01 X92.9144 Y85.2026
G01 X92.8999 Y85.1894
G01 X92.8841 Y85.1777
G01 X92.8673 Y85.1676
G01 X92.8495 Y85.1592
G01 X92.8311 Y85.1526
G01 X92.8120 Y85.1478
G01 X92.7926 Y85.1450
G01 X92.7730 Y85.1440
G01 X92.7534 Y85.1450
G01 X92.7340 Y85.1478
G01 X92.7149 Y85.1526
G01 X92.6965 Y85.1592
G01 X92.6787 Y85.1676
G01 X92.6619 Y85.1777
G01 X92.6461 Y85.1894
G01 X92.6316 Y85.2026
G01 X92.6184 Y85.2171
G01 X92.6067 Y85.2329
G01 X92.5966 Y85.2497
G01 X92.5882 Y85.2675
G01 X92.5816 Y85.2859
G01 X92.5768 Y85.3050
G01 X92.5740 Y85.3244
G01 X92.5730 Y85.3440
G01 X92.5740 Y85.3636
G01 X92.5768 Y85.3830
G01 X92.5816 Y85.4021
G01 X92.5882 Y85.4205
G01 X92.5966 Y85.4383
G01 X92.6067 Y85.4551
G01 X92.6184 Y85.4709
G01 X92.6316 Y85.4854
G01 X92.6461 Y85.4986
G01 X92.6619 Y85.5103
G01 X92.6787 Y85.5204
G01 X92.6965 Y85.5288
G01 X92.7149 Y85.5354
G01 X92.7340 Y85.5402
G01 X92.7534 Y85.5430
G01 X92.7730 Y85.5440
G01 X92.7926 Y85.5430
G01 X92.8120 Y85.5402
G01 X92.8311 Y85.5354
G01 X92.8495 Y85.5288
G01 X92.8673 Y85.5204
G01 X92.8841 Y85.5103
G01 X92.8999 Y85.4986
G01 X92.9144 Y85.4854
G01 X92.9276 Y85.4709
G01 X92.9393 Y85.4551
G01 X92.9494 Y85.4383
G01 X92.9578 Y85.4205
G01 X92.9644 Y85.4021
G01 X92.9692 Y85.3830
G01 X92.9720 Y85.3636
G01 X92.9730 Y85.3440
G00 Z1.0000
G00 X92.9730 Y82.8040
G01 F120.00
G01 Z-1.8000
G01 F120.00
G01 X92.9720 Y82.7844
G01 X92.9692 Y82.7650
G01 X92.9644 Y82.7459
G01 X92.9578 Y82.7275
G01 X92.9494 Y82.7097
G01 X92.9393 Y82.6929
G01 X92.9276 Y82.6771
G01 X92.9144 Y82.6626
G01 X92.8999 Y82.6494
G01 X92.8841 Y82.6377
G01 X92.8673 Y82.6276
G01 X92.8495 Y82.6192
G01 X92.8311 Y82.6126
G01 X92.8120 Y82.6078
G01 X92.7926 Y82.6050
G01 X92.7730 Y82.6040
G01 X92.7534 Y82.6050
G01 X92.7340 Y82.6078
G01 X92.7149 Y82.6126
G01 X92.6965 Y82.6192
G01 X92.6787 Y82.6276
G01 X92.6619 Y82.6377
G01 X92.6461 Y82.6494
G01 X92.6316 Y82.6626
G01 X92.6184 Y82.6771
G01 X92.6067 Y82.6929
G01 X92.5966 Y82.7097
G01 X92.5882 Y82.7275
G01 X92.5816 Y82.7459
G01 X92.5768 Y82.7650
G01 X92.5740 Y82.7844
G01 X92.5730 Y82.8040
G01 X92.5740 Y82.8236
G01 X92.5768 Y82.8430
G01 X92.5816 Y82.8621
G01 X92.5882 Y82.8805
G01 X92.5966 Y82.8983
G01 X92.6067 Y82.9151
G01 X92.6184 Y82.9309
G01 X92.6316 Y82.9454
G01 X92.6461 Y82.9586
G01 X92.6619 Y82.9703
G01 X92.6787 Y82.9804
G01 X92.6965 Y82.9888
G01 X92.7149 Y82.9954
G01 X92.7340 Y83.0002
G01 X92.7534 Y83.0030
G01 X92.7730 Y83.0040
G01 X92.7926 Y83.0030
G01 X92.8120 Y83.0002
G01 X92.8311 Y82.9954
G01 X92.8495 Y82.9888
G01 X92.8673 Y82.9804
G01 X92.8841 Y82.9703
G01 X92.8999 Y82.9586
G01 X92.9144 Y82.9454
G01 X92.9276 Y82.9309
G01 X92.9393 Y82.9151
G01 X92.9494 Y82.8983
G01 X92.9578 Y82.8805
G01 X92.9644 Y82.8621
G01 X92.9692 Y82.8430
G01 X92.9720 Y82.8236
G01 X92.9730 Y82.8040
G00 Z1.0000
G00 X92.9730 Y80.2640
G01 F120.00
G01 Z-1.8000
G01 F120.00
G01 X92.9720 Y80.2444
G01 X92.9692 Y80.2250
G01 X92.9644 Y80.2059
G01 X92.9578 Y80.1875
G01 X92.9494 Y80.1697
G01 X92.9393 Y80.1529
G01 X92.9276 Y80.1371
G01 X92.9144 Y80.1226
G01 X92.8999 Y80.1094
G01 X92.8841 Y80.0977
G01 X92.8673 Y80.0876
G01 X92.8495 Y80.0792
G01 X92.8311 Y80.0726
G01 X92.8120 Y80.0678
G01 X92.7926 Y80.0650
G01 X92.7730 Y80.0640
G01 X92.7534 Y80.0650
G01 X92.7340 Y80.0678
G01 X92.7149 Y80.0726
G01 X92.6965 Y80.0792
G01 X92.6787 Y80.0876
G01 X92.6619 Y80.0977
G01 X92.6461 Y80.1094
G01 X92.6316 Y80.1226
G01 X92.6184 Y80.1371
G01 X92.6067 Y80.1529
G01 X92.5966 Y80.1697
G01 X92.5882 Y80.1875
G01 X92.5816 Y80.2059
G01 X92.5768 Y80.2250
G01 X92.5740 Y80.2444
G01 X92.5730 Y80.2640
G01 X92.5740 Y80.2836
G01 X92.5768 Y80.3030
G01 X92.5816 Y80.3221
G01 X92.5882 Y80.3405
G01 X92.5966 Y80.3583
G01 X92.6067 Y80.3751
G01 X92.6184 Y80.3909
G01 X92.6316 Y80.4054
G01 X92.6461 Y80.4186
G01 X92.6619 Y80.4303
G01 X92.6787 Y80.4404
G01 X92.6965 Y80.4488
G01 X92.7149 Y80.4554
G01 X92.7340 Y80.4602
G01 X92.7534 Y80.4630
G01 X92.7730 Y80.4640
G01 X92.7926 Y80.4630
G01 X92.8120 Y80.4602
G01 X92.8311 Y80.4554
G01 X92.8495 Y80.4488
G01 X92.8673 Y80.4404
G01 X92.8841 Y80.4303
G01 X92.8999 Y80.4186
G01 X92.9144 Y80.4054
G01 X92.9276 Y80.3909
G01 X92.9393 Y80.3751
G01 X92.9494 Y80.3583
G01 X92.9578 Y80.3405
G01 X92.9644 Y80.3221
G01 X92.9692 Y80.3030
G01 X92.9720 Y80.2836
G01 X92.9730 Y80.2640
G00 Z1.0000
G00 X92.9730 Y77.7240
G01 F120.00
G01 Z-1.8000
G01 F120.00
G01 X92.9720 Y77.7044
G01 X92.9692 Y77.6850
G01 X92.9644 Y77.6659
G01 X92.9578 Y77.6475
G01 X92.9494 Y77.6297
G01 X92.9393 Y77.6129
G01 X92.9276 Y77.5971
G01 X92.9144 Y77.5826
G01 X92.8999 Y77.5694
G01 X92.8841 Y77.5577
G01 X92.8673 Y77.5476
G01 X92.8495 Y77.5392
G01 X92.8311 Y77.5326
G01 X92.8120 Y77.5278
G01 X92.7926 Y77.5250
G01 X92.7730 Y77.5240
G01 X92.7534 Y77.5250
G01 X92.7340 Y77.5278
G01 X92.7149 Y77.5326
G01 X92.6965 Y77.5392
G01 X92.6787 Y77.5476
G01 X92.6619 Y77.5577
G01 X92.6461 Y77.5694
G01 X92.6316 Y77.5826
G01 X92.6184 Y77.5971
G01 X92.6067 Y77.6129
G01 X92.5966 Y77.6297
G01 X92.5882 Y77.6475
G01 X92.5816 Y77.6659
G01 X92.5768 Y77.6850
G01 X92.5740 Y77.7044
G01 X92.5730 Y77.7240
G01 X92.5740 Y77.7436
G01 X92.5768 Y77.7630
G01 X92.5816 Y77.7821
G01 X92.5882 Y77.8005
G01 X92.5966 Y77.8183
G01 X92.6067 Y77.8351
G01 X92.6184 Y77.8509
G01 X92.6316 Y77.8654
G01 X92.6461 Y77.8786
G01 X92.6619 Y77.8903
G01 X92.6787 Y77.9004
G01 X92.6965 Y77.9088
G01 X92.7149 Y77.9154
G01 X92.7340 Y77.9202
G01 X92.7534 Y77.9230
G01 X92.7730 Y77.9240
G01 X92.7926 Y77.9230
G01 X92.8120 Y77.9202
G01 X92.8311 Y77.9154
G01 X92.8495 Y77.9088
G01 X92.8673 Y77.9004
G01 X92.8841 Y77.8903
G01 X92.8999 Y77.8786
G01 X92.9144 Y77.8654
G01 X92.9276 Y77.8509
G01 X92.9393 Y77.8351
G01 X92.9494 Y77.8183
G01 X92.9578 Y77.8005
G01 X92.9644 Y77.7821
G01 X92.9692 Y77.7630
G01 X92.9720 Y77.7436
G01 X92.9730 Y77.7240
G00 Z1.0000
G00 X93.9800 Y71.0800
G01 F120.00
G01 Z-1.8000
G01 F120.00
G01 X93.9800 Y71.0800
G01 X93.9800 Y71.0800
G01 X93.9800 Y71.0800
G01 X93.9800 Y71.0800
G00 Z1.0000
G00 X93.9800 Y68.5800
G01 F120.00
G01 Z-1.8000
G01 F120.00
G01 X93.9800 Y68.5800
G01 X93.9800 Y68.5800
G01 X93.9800 Y68.5800
G01 X93.9800 Y68.5800
G00 Z1.0000
G00 X96.2000 Y95.0000
G01 F120.00
G01 Z-1.8000
G01 F120.00
G01 X96.1942 Y94.8824
G01 X96.1769 Y94.7659
G01 X96.1483 Y94.6517
G01 X96.1087 Y94.5408
G01 X96.0583 Y94.4343
G01 X95.9978 Y94.3333
G01 X95.9276 Y94.2387
G01 X95.8485 Y94.1515
G01 X95.7613 Y94.0724
G01 X95.6667 Y94.0022
G01 X95.5657 Y93.9417
G01 X95.4592 Y93.8913
G01 X95.3483 Y93.8517
G01 X95.2341 Y93.8231
G01 X95.1176 Y93.8058
G01 X95.0000 Y93.8000
G01 X94.8824 Y93.8058
G01 X94.7659 Y93.8231
G01 X94.6517 Y93.8517
G01 X94.5408 Y93.8913
G01 X94.4343 Y93.9417
G01 X94.3333 Y94.0022
G01 X94.2387 Y94.0724
G01 X94.1515 Y94.1515
G01 X94.0724 Y94.2387
G01 X94.0022 Y94.3333
G01 X93.9417 Y94.4343
G01 X93.8913 Y94.5408
G01 X93.8517 Y94.6517
G01 X93.8231 Y94.7659
G01 X93.8058 Y94.8824
G01 X93.8000 Y95.0000
G01 X93.8058 Y95.1176
G01 X93.8231 Y95.2341
G01 X93.8517 Y95.3483
G01 X93.8913 Y95.4592
G01 X93.9417 Y95.5657
G01 X94.0022 Y95.6667
G01 X94.0724 Y95.7613
G01 X94.1515 Y95.8485
G01 X94.2387 Y95.9276
G01 X94.3333 Y95.9978
G01 X94.4343 Y96.0583
G01 X94.5408 Y96.1087
G01 X94.6517 Y96.1483
G01 X94.7659 Y96.1769
G01 X94.8824 Y96.1942
G01 X95.0000 Y96.2000
G01 X95.1176 Y96.1942
G01 X95.2341 Y96.1769
G01 X95.3483 Y96.1483
G01 X95.4592 Y96.1087
G01 X95.5657 Y96.0583
G01 X95.6667 Y95.9978
G01 X95.7613 Y95.9276
G01 X95.8485 Y95.8485
G01 X95.9276 Y95.7613
G01 X95.9978 Y95.6667
G01 X96.0583 Y95.5657
G01 X96.1087 Y95.4592
G01 X96.1483 Y95.3483
G01 X96.1769 Y95.2341
G01 X96.1942 Y95.1176
G01 X96.2000 Y95.0000
G00 Z1.0000
G00 X69.6060 Y51.4080
G01 F120.00
G01 Z-1.8000
G01 F120.00
G01 X69.6007 Y51.3002
G01 X69.5849 Y51.1934
G01 X69.5586 Y51.0887
G01 X69.5223 Y50.9870
G01 X69.4761 Y50.8895
G01 X69.4206 Y50.7969
G01 X69.3563 Y50.7102
G01 X69.2838 Y50.6302
G01 X69.2038 Y50.5577
G01 X69.1171 Y50.4934
G01 X69.0245 Y50.4379
G01 X68.9270 Y50.3917
G01 X68.8253 Y50.3554
G01 X68.7206 Y50.3291
G01 X68.6138 Y50.3133
G01 X68.5060 Y50.3080
G01 X68.3982 Y50.3133
G01 X68.2914 Y50.3291
G01 X68.1867 Y50.3554
G01 X68.0850 Y50.3917
G01 X67.9875 Y50.4379
G01 X67.8949 Y50.4934
G01 X67.8082 Y50.5577
G01 X67.7282 Y50.6302
G01 X67.6557 Y50.7102
G01 X67.5914 Y50.7969
G01 X67.5359 Y50.8895
G01 X67.4897 Y50.9870
G01 X67.4534 Y51.0887
G01 X67.4271 Y51.1934
G01 X67.4113 Y51.3002
G01 X67.4060 Y51.4080
G01 X67.4113 Y51.5158
G01 X67.4271 Y51.6226
G01 X67.4534 Y51.7273
G01 X67.4897 Y51.8290
G01 X67.5359 Y51.9265
G01 X67.5914 Y52.0191
G01 X67.6557 Y52.1058
G01 X67.7282 Y52.1858
G01 X67.8082 Y52.2583
G01 X67.8949 Y52.3226
G01 X67.9875 Y52.3781
G01 X68.0850 Y52.4243
G01 X68.1867 Y52.4606
G01 X68.2914 Y52.4869
G01 X68.3982 Y52.5027
G01 X68.5060 Y52.5080
G01 X68.6138 Y52.5027
G01 X68.7206 Y52.4869
G01 X68.8253 Y52.4606
G01 X68.9270 Y52.4243
G01 X69.0245 Y52.3781
G01 X69.1171 Y52.3226
G01 X69.2038 Y52.2583
G01 X69.2838 Y52.1858
G01 X69.3563 Y52.1058
G01 X69.4206 Y52.0191
G01 X69.4761 Y51.9265
G01 X69.5223 Y51.8290
G01 X69.5586 Y51.7273
G01 X69.5849 Y51.6226
G01 X69.6007 Y51.5158
G01 X69.6060 Y51.4080
G00 Z1.0000
G00 X34.0090 Y61.5950
G01 F120.00
G01 Z-1.8000
G01 F120.00
G01 X34.0085 Y61.5852
G01 X34.0071 Y61.5755
G01 X34.0047 Y61.5660
G01 X34.0014 Y61.5567
G01 X33.9972 Y61.5479
G01 X33.9921 Y61.5394
G01 X33.9863 Y61.5316
G01 X33.9797 Y61.5243
G01 X33.9724 Y61.5177
G01 X33.9646 Y61.5119
G01 X33.9561 Y61.5068
G01 X33.9473 Y61.5026
G01 X33.9380 Y61.4993
G01 X33.9285 Y61.4969
G01 X33.9188 Y61.4955
G01 X33.9090 Y61.4950
G01 X33.8992 Y61.4955
G01 X33.8895 Y61.4969
G01 X33.8800 Y61.4993
G01 X33.8707 Y61.5026
G01 X33.8619 Y61.5068
G01 X33.8534 Y61.5119
G01 X33.8456 Y61.5177
G01 X33.8383 Y61.5243
G01 X33.8317 Y61.5316
G01 X33.8259 Y61.5394
G01 X33.8208 Y61.5479
G01 X33.8166 Y61.5567
G01 X33.8133 Y61.5660
G01 X33.8109 Y61.5755
G01 X33.8095 Y61.5852
G01 X33.8090 Y61.5950
G01 X33.8095 Y61.6048
G01 X33.8109 Y61.6145
G01 X33.8133 Y61.6240
G01 X33.8166 Y61.6333
G01 X33.8208 Y61.6421
G01 X33.8259 Y61.6506
G01 X33.8317 Y61.6584
G01 X33.8383 Y61.6657
G01 X33.8456 Y61.6723
G01 X33.8534 Y61.6781
G01 X33.8619 Y61.6832
G01 X33.8707 Y61.6874
G01 X33.8800 Y61.6907
G01 X33.8895 Y61.6931
G01 X33.8992 Y61.6945
G01 X33.9090 Y61.6950
G01 X33.9188 Y61.6945
G01 X33.9285 Y61.6931
G01 X33.9380 Y61.6907
G01 X33.9473 Y61.6874
G01 X33.9561 Y61.6832
G01 X33.9646 Y61.6781
G01 X33.9724 Y61.6723
G01 X33.9797 Y61.6657
G01 X33.9863 Y61.6584
G01 X33.9921 Y61.6506
G01 X33.9972 Y61.6421
G01 X34.0014 Y61.6333
G01 X34.0047 Y61.6240
G01 X34.0071 Y61.6145
G01 X34.0085 Y61.6048
G01 X34.0090 Y61.5950
G00 Z1.0000
G00 X31.4690 Y61.5950
G01 F120.00
G01 Z-1.8000
G01 F120.00
G01 X31.4685 Y61.5852
G01 X31.4671 Y61.5755
G01 X31.4647 Y61.5660
G01 X31.4614 Y61.5567
G01 X31.4572 Y61.5479
G01 X31.4521 Y61.5394
G01 X31.4463 Y61.5316
G01 X31.4397 Y61.5243
G01 X31.4324 Y61.5177
G01 X31.4246 Y61.5119
G01 X31.4161 Y61.5068
G01 X31.4073 Y61.5026
G01 X31.3980 Y61.4993
G01 X31.3885 Y61.4969
G01 X31.3788 Y61.4955
G01 X31.3690 Y61.4950
G01 X31.3592 Y61.4955
G01 X31.3495 Y61.4969
G01 X31.3400 Y61.4993
G01 X31.3307 Y61.5026
G01 X31.3219 Y61.5068
G01 X31.3134 Y61.5119
G01 X31.3056 Y61.5177
G01 X31.2983 Y61.5243
G01 X31.2917 Y61.5316
G01 X31.2859 Y61.5394
G01 X31.2808 Y61.5479
G01 X31.2766 Y61.5567
G01 X31.2733 Y61.5660
G01 X31.2709 Y61.5755
G01 X31.2695 Y61.5852
G01 X31.2690 Y61.5950
G01 X31.2695 Y61.6048
G01 X31.2709 Y61.6145
G01 X31.2733 Y61.6240
G01 X31.2766 Y61.6333
G01 X31.2808 Y61.6421
G01 X31.2859 Y61.6506
G01 X31.2917 Y61.6584
G01 X31.2983 Y61.6657
G01 X31.3056 Y61.6723
G01 X31.3134 Y61.6781
G01 X31.3219 Y61.6832
G01 X31.3307 Y61.6874
G01 X31.3400 Y61.6907
G01 X31.3495 Y61.6931
G01 X31.3592 Y61.6945
G01 X31.3690 Y61.6950
G01 X31.3788 Y61.6945
G01 X31.3885 Y61.6931
G01 X31.3980 Y61.6907
G01 X31.4073 Y61.6874
G01 X31.4161 Y61.6832
G01 X31.4246 Y61.6781
G01 X31.4324 Y61.6723
G01 X31.4397 Y61.6657
G01 X31.4463 Y61.6584
G01 X31.4521 Y61.6506
G01 X31.4572 Y61.6421
G01 X31.4614 Y61.6333
G01 X31.4647 Y61.6240
G01 X31.4671 Y61.6145
G01 X31.4685 Y61.6048
G01 X31.4690 Y61.5950
G00 Z1.0000
G00 X31.4690 Y64.1350
G01 F120.00
G01 Z-1.8000
G01 F120.00
G01 X31.4685 Y64.1252
G01 X31.4671 Y64.1155
G01 X31.4647 Y64.1060
G01 X31.4614 Y64.0967
G01 X31.4572 Y64.0879
G01 X31.4521 Y64.0794
G01 X31.4463 Y64.0716
G01 X31.4397 Y64.0643
G01 X31.4324 Y64.0577
G01 X31.4246 Y64.0519
G01 X31.4161 Y64.0468
G01 X31.4073 Y64.0426
G01 X31.3980 Y64.0393
G01 X31.3885 Y64.0369
G01 X31.3788 Y64.0355
G01 X31.3690 Y64.0350
G01 X31.3592 Y64.0355
G01 X31.3495 Y64.0369
G01 X31.3400 Y64.0393
G01 X31.3307 Y64.0426
G01 X31.3219 Y64.0468
G01 X31.3134 Y64.0519
G01 X31.3056 Y64.0577
G01 X31.2983 Y64.0643
G01 X31.2917 Y64.0716
G01 X31.2859 Y64.0794
G01 X31.2808 Y64.0879
G01 X31.2766 Y64.0967
G01 X31.2733 Y64.1060
G01 X31.2709 Y64.1155
G01 X31.2695 Y64.1252
G01 X31.2690 Y64.1350
G01 X31.2695 Y64.1448
G01 X31.2709 Y64.1545
G01 X31.2733 Y64.1640
G01 X31.2766 Y64.1733
G01 X31.2808 Y64.1821
G01 X31.2859 Y64.1906
G01 X31.2917 Y64.1984
G01 X31.2983 Y64.2057
G01 X31.3056 Y64.2123
G01 X31.3134 Y64.2181
G01 X31.3219 Y64.2232
G01 X31.3307 Y64.2274
G01 X31.3400 Y64.2307
G01 X31.3495 Y64.2331
G01 X31.3592 Y64.2345
G01 X31.3690 Y64.2350
G01 X31.3788 Y64.2345
G01 X31.3885 Y64.2331
G01 X31.3980 Y64.2307
G01 X31.4073 Y64.2274
G01 X31.4161 Y64.2232
G01 X31.4246 Y64.2181
G01 X31.4324 Y64.2123
G01 X31.4397 Y64.2057
G01 X31.4463 Y64.1984
G01 X31.4521 Y64.1906
G01 X31.4572 Y64.1821
G01 X31.4614 Y64.1733
G01 X31.4647 Y64.1640
G01 X31.4671 Y64.1545
G01 X31.4685 Y64.1448
G01 X31.4690 Y64.1350
G00 Z1.0000
G00 X31.4690 Y66.6750
G01 F120.00
G01 Z-1.8000
G01 F120.00
G01 X31.4685 Y66.6652
G01 X31.4671 Y66.6555
G01 X31.4647 Y66.6460
G01 X31.4614 Y66.6367
G01 X31.4572 Y66.6279
G01 X31.4521 Y66.6194
G01 X31.4463 Y66.6116
G01 X31.4397 Y66.6043
G01 X31.4324 Y66.5977
G01 X31.4246 Y66.5919
G01 X31.4161 Y66.5868
G01 X31.4073 Y66.5826
G01 X31.3980 Y66.5793
G01 X31.3885 Y66.5769
G01 X31.3788 Y66.5755
G01 X31.3690 Y66.5750
G01 X31.3592 Y66.5755
G01 X31.3495 Y66.5769
G01 X31.3400 Y66.5793
G01 X31.3307 Y66.5826
G01 X31.3219 Y66.5868
G01 X31.3134 Y66.5919
G01 X31.3056 Y66.5977
G01 X31.2983 Y66.6043
G01 X31.2917 Y66.6116
G01 X31.2859 Y66.6194
G01 X31.2808 Y66.6279
G01 X31.2766 Y66.6367
G01 X31.2733 Y66.6460
G01 X31.2709 Y66.6555
G01 X31.2695 Y66.6652
G01 X31.2690 Y66.6750
G01 X31.2695 Y66.6848
G01 X31.2709 Y66.6945
G01 X31.2733 Y66.7040
G01 X31.2766 Y66.7133
G01 X31.2808 Y66.7221
G01 X31.2859 Y66.7306
G01 X31.2917 Y66.7384
G01 X31.2983 Y66.7457
G01 X31.3056 Y66.7523
G01 X31.3134 Y66.7581
G01 X31.3219 Y66.7632
G01 X31.3307 Y66.7674
G01 X31.3400 Y66.7707
G01 X31.3495 Y66.7731
G01 X31.3592 Y66.7745
G01 X31.3690 Y66.7750
G01 X31.3788 Y66.7745
G01 X31.3885 Y66.7731
G01 X31.3980 Y66.7707
G01 X31.4073 Y66.7674
G01 X31.4161 Y66.7632
G01 X31.4246 Y66.7581
G01 X31.4324 Y66.7523
G01 X31.4397 Y66.7457
G01 X31.4463 Y66.7384
G01 X31.4521 Y66.7306
G01 X31.4572 Y66.7221
G01 X31.4614 Y66.7133
G01 X31.4647 Y66.7040
G01 X31.4671 Y66.6945
G01 X31.4685 Y66.6848
G01 X31.4690 Y66.6750
G00 Z1.0000
G00 X34.0090 Y66.6750
G01 F120.00
G01 Z-1.8000
G01 F120.00
G01 X34.0085 Y66.6652
G01 X34.0071 Y66.6555
G01 X34.0047 Y66.6460
G01 X34.0014 Y66.6367
G01 X33.9972 Y66.6279
G01 X33.9921 Y66.6194
G01 X33.9863 Y66.6116
G01 X33.9797 Y66.6043
G01 X33.9724 Y66.5977
G01 X33.9646 Y66.5919
G01 X33.9561 Y66.5868
G01 X33.9473 Y66.5826
G01 X33.9380 Y66.5793
G01 X33.9285 Y66.5769
G01 X33.9188 Y66.5755
G01 X33.9090 Y66.5750
G01 X33.8992 Y66.5755
G01 X33.8895 Y66.5769
G01 X33.8800 Y66.5793
G01 X33.8707 Y66.5826
G01 X33.8619 Y66.5868
G01 X33.8534 Y66.5919
G01 X33.8456 Y66.5977
G01 X33.8383 Y66.6043
G01 X33.8317 Y66.6116
G01 X33.8259 Y66.6194
G01 X33.8208 Y66.6279
G01 X33.8166 Y66.6367
G01 X33.8133 Y66.6460
G01 X33.8109 Y66.6555
G01 X33.8095 Y66.6652
G01 X33.8090 Y66.6750
G01 X33.8095 Y66.6848
G01 X33.8109 Y66.6945
G01 X33.8133 Y66.7040
G01 X33.8166 Y66.7133
G01 X33.8208 Y66.7221
G01 X33.8259 Y66.7306
G01 X33.8317 Y66.7384
G01 X33.8383 Y66.7457
G01 X33.8456 Y66.7523
G01 X33.8534 Y66.7581
G01 X33.8619 Y66.7632
G01 X33.8707 Y66.7674
G01 X33.8800 Y66.7707
G01 X33.8895 Y66.7731
G01 X33.8992 Y66.7745
G01 X33.9090 Y66.7750
G01 X33.9188 Y66.7745
G01 X33.9285 Y66.7731
G01 X33.9380 Y66.7707
G01 X33.9473 Y66.7674
G01 X33.9561 Y66.7632
G01 X33.9646 Y66.7581
G01 X33.9724 Y66.7523
G01 X33.9797 Y66.7457
G01 X33.9863 Y66.7384
G01 X33.9921 Y66.7306
G01 X33.9972 Y66.7221
G01 X34.0014 Y66.7133
G01 X34.0047 Y66.7040
G01 X34.0071 Y66.6945
G01 X34.0085 Y66.6848
G01 X34.0090 Y66.6750
G00 Z1.0000
G00 X34.0090 Y64.1350
G01 F120.00
G01 Z-1.8000
G01 F120.00
G01 X34.0085 Y64.1252
G01 X34.0071 Y64.1155
G01 X34.0047 Y64.1060
G01 X34.0014 Y64.0967
G01 X33.9972 Y64.0879
G01 X33.9921 Y64.0794
G01 X33.9863 Y64.0716
G01 X33.9797 Y64.0643
G01 X33.9724 Y64.0577
G01 X33.9646 Y64.0519
G01 X33.9561 Y64.0468
G01 X33.9473 Y64.0426
G01 X33.9380 Y64.0393
G01 X33.9285 Y64.0369
G01 X33.9188 Y64.0355
G01 X33.9090 Y64.0350
G01 X33.8992 Y64.0355
G01 X33.8895 Y64.0369
G01 X33.8800 Y64.0393
G01 X33.8707 Y64.0426
G01 X33.8619 Y64.0468
G01 X33.8534 Y64.0519
G01 X33.8456 Y64.0577
G01 X33.8383 Y64.0643
G01 X33.8317 Y64.0716
G01 X33.8259 Y64.0794
G01 X33.8208 Y64.0879
G01 X33.8166 Y64.0967
G01 X33.8133 Y64.1060
G01 X33.8109 Y64.1155
G01 X33.8095 Y64.1252
G01 X33.8090 Y64.1350
G01 X33.8095 Y64.1448
G01 X33.8109 Y64.1545
G01 X33.8133 Y64.1640
G01 X33.8166 Y64.1733
G01 X33.8208 Y64.1821
G01 X33.8259 Y64.1906
G01 X33.8317 Y64.1984
G01 X33.8383 Y64.2057
G01 X33.8456 Y64.2123
G01 X33.8534 Y64.2181
G01 X33.8619 Y64.2232
G01 X33.8707 Y64.2274
G01 X33.8800 Y64.2307
G01 X33.8895 Y64.2331
G01 X33.8992 Y64.2345
G01 X33.9090 Y64.2350
G01 X33.9188 Y64.2345
G01 X33.9285 Y64.2331
G01 X33.9380 Y64.2307
G01 X33.9473 Y64.2274
G01 X33.9561 Y64.2232
G01 X33.9646 Y64.2181
G01 X33.9724 Y64.2123
G01 X33.9797 Y64.2057
G01 X33.9863 Y64.1984
G01 X33.9921 Y64.1906
G01 X33.9972 Y64.1821
G01 X34.0014 Y64.1733
G01 X34.0047 Y64.1640
G01 X34.0071 Y64.1545
G01 X34.0085 Y64.1448
G01 X34.0090 Y64.1350
G00 Z1.0000
G00 X22.7880 Y56.6760
G01 F120.00
G01 Z-1.8000
G01 F120.00
G01 X22.7827 Y56.5682
G01 X22.7669 Y56.4614
G01 X22.7406 Y56.3567
G01 X22.7043 Y56.2550
G01 X22.6581 Y56.1575
G01 X22.6026 Y56.0649
G01 X22.5383 Y55.9782
G01 X22.4658 Y55.8982
G01 X22.3858 Y55.8257
G01 X22.2991 Y55.7614
G01 X22.2065 Y55.7059
G01 X22.1090 Y55.6597
G01 X22.0073 Y55.6234
G01 X21.9026 Y55.5971
G01 X21.7958 Y55.5813
G01 X21.6880 Y55.5760
G01 X21.5802 Y55.5813
G01 X21.4734 Y55.5971
G01 X21.3687 Y55.6234
G01 X21.2670 Y55.6597
G01 X21.1695 Y55.7059
G01 X21.0769 Y55.7614
G01 X20.9902 Y55.8257
G01 X20.9102 Y55.8982
G01 X20.8377 Y55.9782
G01 X20.7734 Y56.0649
G01 X20.7179 Y56.1575
G01 X20.6717 Y56.2550
G01 X20.6354 Y56.3567
G01 X20.6091 Y56.4614
G01 X20.5933 Y56.5682
G01 X20.5880 Y56.6760
G01 X20.5933 Y56.7838
G01 X20.6091 Y56.8906
G01 X20.6354 Y56.9953
G01 X20.6717 Y57.0970
G01 X20.7179 Y57.1945
G01 X20.7734 Y57.2871
G01 X20.8377 Y57.3738
G01 X20.9102 Y57.4538
G01 X20.9902 Y57.5263
G01 X21.0769 Y57.5906
G01 X21.1695 Y57.6461
G01 X21.2670 Y57.6923
G01 X21.3687 Y57.7286
G01 X21.4734 Y57.7549
G01 X21.5802 Y57.7707
G01 X21.6880 Y57.7760
G01 X21.7958 Y57.7707
G01 X21.9026 Y57.7549
G01 X22.0073 Y57.7286
G01 X22.1090 Y57.6923
G01 X22.2065 Y57.6461
G01 X22.2991 Y57.5906
G01 X22.3858 Y57.5263
G01 X22.4658 Y57.4538
G01 X22.5383 Y57.3738
G01 X22.6026 Y57.2871
G01 X22.6581 Y57.1945
G01 X22.7043 Y57.0970
G01 X22.7406 Y56.9953
G01 X22.7669 Y56.8906
G01 X22.7827 Y56.7838
G01 X22.7880 Y56.6760
G00 Z1.0000
G00 X18.9230 Y61.7220
G01 F120.00
G01 Z-1.8000
G01 F120.00
G01 X18.9230 Y61.7220
G01 X18.9230 Y61.7220
G01 X18.9230 Y61.7220
G01 X18.9230 Y61.7220
G00 Z1.0000
G00 X16.4230 Y61.7220
G01 F120.00
G01 Z-1.8000
G01 F120.00
G01 X16.4230 Y61.7220
G01 X16.4230 Y61.7220
G01 X16.4230 Y61.7220
G01 X16.4230 Y61.7220
G00 Z1.0000
G00 X11.6300 Y61.7220
G01 F120.00
G01 Z-1.8000
G01 F120.00
G01 X11.6290 Y61.7024
G01 X11.6262 Y61.6830
G01 X11.6214 Y61.6639
G01 X11.6148 Y61.6455
G01 X11.6064 Y61.6277
G01 X11.5963 Y61.6109
G01 X11.5846 Y61.5951
G01 X11.5714 Y61.5806
G01 X11.5569 Y61.5674
G01 X11.5411 Y61.5557
G01 X11.5243 Y61.5456
G01 X11.5065 Y61.5372
G01 X11.4881 Y61.5306
G01 X11.4690 Y61.5258
G01 X11.4496 Y61.5230
G01 X11.4300 Y61.5220
G01 X11.4104 Y61.5230
G01 X11.3910 Y61.5258
G01 X11.3719 Y61.5306
G01 X11.3535 Y61.5372
G01 X11.3357 Y61.5456
G01 X11.3189 Y61.5557
G01 X11.3031 Y61.5674
G01 X11.2886 Y61.5806
G01 X11.2754 Y61.5951
G01 X11.2637 Y61.6109
G01 X11.2536 Y61.6277
G01 X11.2452 Y61.6455
G01 X11.2386 Y61.6639
G01 X11.2338 Y61.6830
G01 X11.2310 Y61.7024
G01 X11.2300 Y61.7220
G01 X11.2310 Y61.7416
G01 X11.2338 Y61.7610
G01 X11.2386 Y61.7801
G01 X11.2452 Y61.7985
G01 X11.2536 Y61.8163
G01 X11.2637 Y61.8331
G01 X11.2754 Y61.8489
G01 X11.2886 Y61.8634
G01 X11.3031 Y61.8766
G01 X11.3189 Y61.8883
G01 X11.3357 Y61.8984
G01 X11.3535 Y61.9068
G01 X11.3719 Y61.9134
G01 X11.3910 Y61.9182
G01 X11.4104 Y61.9210
G01 X11.4300 Y61.9220
G01 X11.4496 Y61.9210
G01 X11.4690 Y61.9182
G01 X11.4881 Y61.9134
G01 X11.5065 Y61.9068
G01 X11.5243 Y61.8984
G01 X11.5411 Y61.8883
G01 X11.5569 Y61.8766
G01 X11.5714 Y61.8634
G01 X11.5846 Y61.8489
G01 X11.5963 Y61.8331
G01 X11.6064 Y61.8163
G01 X11.6148 Y61.7985
G01 X11.6214 Y61.7801
G01 X11.6262 Y61.7610
G01 X11.6290 Y61.7416
G01 X11.6300 Y61.7220
G00 Z1.0000
G00 X11.6300 Y64.2620
G01 F120.00
G01 Z-1.8000
G01 F120.00
G01 X11.6290 Y64.2424
G01 X11.6262 Y64.2230
G01 X11.6214 Y64.2039
G01 X11.6148 Y64.1855
G01 X11.6064 Y64.1677
G01 X11.5963 Y64.1509
G01 X11.5846 Y64.1351
G01 X11.5714 Y64.1206
G01 X11.5569 Y64.1074
G01 X11.5411 Y64.0957
G01 X11.5243 Y64.0856
G01 X11.5065 Y64.0772
G01 X11.4881 Y64.0706
G01 X11.4690 Y64.0658
G01 X11.4496 Y64.0630
G01 X11.4300 Y64.0620
G01 X11.4104 Y64.0630
G01 X11.3910 Y64.0658
G01 X11.3719 Y64.0706
G01 X11.3535 Y64.0772
G01 X11.3357 Y64.0856
G01 X11.3189 Y64.0957
G01 X11.3031 Y64.1074
G01 X11.2886 Y64.1206
G01 X11.2754 Y64.1351
G01 X11.2637 Y64.1509
G01 X11.2536 Y64.1677
G01 X11.2452 Y64.1855
G01 X11.2386 Y64.2039
G01 X11.2338 Y64.2230
G01 X11.2310 Y64.2424
G01 X11.2300 Y64.2620
G01 X11.2310 Y64.2816
G01 X11.2338 Y64.3010
G01 X11.2386 Y64.3201
G01 X11.2452 Y64.3385
G01 X11.2536 Y64.3563
G01 X11.2637 Y64.3731
G01 X11.2754 Y64.3889
G01 X11.2886 Y64.4034
G01 X11.3031 Y64.4166
G01 X11.3189 Y64.4283
G01 X11.3357 Y64.4384
G01 X11.3535 Y64.4468
G01 X11.3719 Y64.4534
G01 X11.3910 Y64.4582
G01 X11.4104 Y64.4610
G01 X11.4300 Y64.4620
G01 X11.4496 Y64.4610
G01 X11.4690 Y64.4582
G01 X11.4881 Y64.4534
G01 X11.5065 Y64.4468
G01 X11.5243 Y64.4384
G01 X11.5411 Y64.4283
G01 X11.5569 Y64.4166
G01 X11.5714 Y64.4034
G01 X11.5846 Y64.3889
G01 X11.5963 Y64.3731
G01 X11.6064 Y64.3563
G01 X11.6148 Y64.3385
G01 X11.6214 Y64.3201
G01 X11.6262 Y64.3010
G01 X11.6290 Y64.2816
G01 X11.6300 Y64.2620
G00 Z1.0000
G00 X11.6300 Y66.8020
G01 F120.00
G01 Z-1.8000
G01 F120.00
G01 X11.6290 Y66.7824
G01 X11.6262 Y66.7630
G01 X11.6214 Y66.7439
G01 X11.6148 Y66.7255
G01 X11.6064 Y66.7077
G01 X11.5963 Y66.6909
G01 X11.5846 Y66.6751
G01 X11.5714 Y66.6606
G01 X11.5569 Y66.6474
G01 X11.5411 Y66.6357
G01 X11.5243 Y66.6256
G01 X11.5065 Y66.6172
G01 X11.4881 Y66.6106
G01 X11.4690 Y66.6058
G01 X11.4496 Y66.6030
G01 X11.4300 Y66.6020
G01 X11.4104 Y66.6030
G01 X11.3910 Y66.6058
G01 X11.3719 Y66.6106
G01 X11.3535 Y66.6172
G01 X11.3357 Y66.6256
G01 X11.3189 Y66.6357
G01 X11.3031 Y66.6474
G01 X11.2886 Y66.6606
G01 X11.2754 Y66.6751
G01 X11.2637 Y66.6909
G01 X11.2536 Y66.7077
G01 X11.2452 Y66.7255
G01 X11.2386 Y66.7439
G01 X11.2338 Y66.7630
G01 X11.2310 Y66.7824
G01 X11.2300 Y66.8020
G01 X11.2310 Y66.8216
G01 X11.2338 Y66.8410
G01 X11.2386 Y66.8601
G01 X11.2452 Y66.8785
G01 X11.2536 Y66.8963
G01 X11.2637 Y66.9131
G01 X11.2754 Y66.9289
G01 X11.2886 Y66.9434
G01 X11.3031 Y66.9566
G01 X11.3189 Y66.9683
G01 X11.3357 Y66.9784
G01 X11.3535 Y66.9868
G01 X11.3719 Y66.9934
G01 X11.3910 Y66.9982
G01 X11.4104 Y67.0010
G01 X11.4300 Y67.0020
G01 X11.4496 Y67.0010
G01 X11.4690 Y66.9982
G01 X11.4881 Y66.9934
G01 X11.5065 Y66.9868
G01 X11.5243 Y66.9784
G01 X11.5411 Y66.9683
G01 X11.5569 Y66.9566
G01 X11.5714 Y66.9434
G01 X11.5846 Y66.9289
G01 X11.5963 Y66.9131
G01 X11.6064 Y66.8963
G01 X11.6148 Y66.8785
G01 X11.6214 Y66.8601
G01 X11.6262 Y66.8410
G01 X11.6290 Y66.8216
G01 X11.6300 Y66.8020
G00 Z1.0000
G00 X11.6300 Y69.3420
G01 F120.00
G01 Z-1.8000
G01 F120.00
G01 X11.6290 Y69.3224
G01 X11.6262 Y69.3030
G01 X11.6214 Y69.2839
G01 X11.6148 Y69.2655
G01 X11.6064 Y69.2477
G01 X11.5963 Y69.2309
G01 X11.5846 Y69.2151
G01 X11.5714 Y69.2006
G01 X11.5569 Y69.1874
G01 X11.5411 Y69.1757
G01 X11.5243 Y69.1656
G01 X11.5065 Y69.1572
G01 X11.4881 Y69.1506
G01 X11.4690 Y69.1458
G01 X11.4496 Y69.1430
G01 X11.4300 Y69.1420
G01 X11.4104 Y69.1430
G01 X11.3910 Y69.1458
G01 X11.3719 Y69.1506
G01 X11.3535 Y69.1572
G01 X11.3357 Y69.1656
G01 X11.3189 Y69.1757
G01 X11.3031 Y69.1874
G01 X11.2886 Y69.2006
G01 X11.2754 Y69.2151
G01 X11.2637 Y69.2309
G01 X11.2536 Y69.2477
G01 X11.2452 Y69.2655
G01 X11.2386 Y69.2839
G01 X11.2338 Y69.3030
G01 X11.2310 Y69.3224
G01 X11.2300 Y69.3420
G01 X11.2310 Y69.3616
G01 X11.2338 Y69.3810
G01 X11.2386 Y69.4001
G01 X11.2452 Y69.4185
G01 X11.2536 Y69.4363
G01 X11.2637 Y69.4531
G01 X11.2754 Y69.4689
G01 X11.2886 Y69.4834
G01 X11.3031 Y69.4966
G01 X11.3189 Y69.5083
G01 X11.3357 Y69.5184
G01 X11.3535 Y69.5268
G01 X11.3719 Y69.5334
G01 X11.3910 Y69.5382
G01 X11.4104 Y69.5410
G01 X11.4300 Y69.5420
G01 X11.4496 Y69.5410
G01 X11.4690 Y69.5382
G01 X11.4881 Y69.5334
G01 X11.5065 Y69.5268
G01 X11.5243 Y69.5184
G01 X11.5411 Y69.5083
G01 X11.5569 Y69.4966
G01 X11.5714 Y69.4834
G01 X11.5846 Y69.4689
G01 X11.5963 Y69.4531
G01 X11.6064 Y69.4363
G01 X11.6148 Y69.4185
G01 X11.6214 Y69.4001
G01 X11.6262 Y69.3810
G01 X11.6290 Y69.3616
G01 X11.6300 Y69.3420
G00 Z1.0000
G00 X11.6300 Y71.8820
G01 F120.00
G01 Z-1.8000
G01 F120.00
G01 X11.6290 Y71.8624
G01 X11.6262 Y71.8430
G01 X11.6214 Y71.8239
G01 X11.6148 Y71.8055
G01 X11.6064 Y71.7877
G01 X11.5963 Y71.7709
G01 X11.5846 Y71.7551
G01 X11.5714 Y71.7406
G01 X11.5569 Y71.7274
G01 X11.5411 Y71.7157
G01 X11.5243 Y71.7056
G01 X11.5065 Y71.6972
G01 X11.4881 Y71.6906
G01 X11.4690 Y71.6858
G01 X11.4496 Y71.6830
G01 X11.4300 Y71.6820
G01 X11.4104 Y71.6830
G01 X11.3910 Y71.6858
G01 X11.3719 Y71.6906
G01 X11.3535 Y71.6972
G01 X11.3357 Y71.7056
G01 X11.3189 Y71.7157
G01 X11.3031 Y71.7274
G01 X11.2886 Y71.7406
G01 X11.2754 Y71.7551
G01 X11.2637 Y71.7709
G01 X11.2536 Y71.7877
G01 X11.2452 Y71.8055
G01 X11.2386 Y71.8239
G01 X11.2338 Y71.8430
G01 X11.2310 Y71.8624
G01 X11.2300 Y71.8820
G01 X11.2310 Y71.9016
G01 X11.2338 Y71.9210
G01 X11.2386 Y71.9401
G01 X11.2452 Y71.9585
G01 X11.2536 Y71.9763
G01 X11.2637 Y71.9931
G01 X11.2754 Y72.0089
G01 X11.2886 Y72.0234
G01 X11.3031 Y72.0366
G01 X11.3189 Y72.0483
G01 X11.3357 Y72.0584
G01 X11.3535 Y72.0668
G01 X11.3719 Y72.0734
G01 X11.3910 Y72.0782
G01 X11.4104 Y72.0810
G01 X11.4300 Y72.0820
G01 X11.4496 Y72.0810
G01 X11.4690 Y72.0782
G01 X11.4881 Y72.0734
G01 X11.5065 Y72.0668
G01 X11.5243 Y72.0584
G01 X11.5411 Y72.0483
G01 X11.5569 Y72.0366
G01 X11.5714 Y72.0234
G01 X11.5846 Y72.0089
G01 X11.5963 Y71.9931
G01 X11.6064 Y71.9763
G01 X11.6148 Y71.9585
G01 X11.6214 Y71.9401
G01 X11.6262 Y71.9210
G01 X11.6290 Y71.9016
G01 X11.6300 Y71.8820
G00 Z1.0000
G00 X11.6300 Y74.4220
G01 F120.00
G01 Z-1.8000
G01 F120.00
G01 X11.6290 Y74.4024
G01 X11.6262 Y74.3830
G01 X11.6214 Y74.3639
G01 X11.6148 Y74.3455
G01 X11.6064 Y74.3277
G01 X11.5963 Y74.3109
G01 X11.5846 Y74.2951
G01 X11.5714 Y74.2806
G01 X11.5569 Y74.2674
G01 X11.5411 Y74.2557
G01 X11.5243 Y74.2456
G01 X11.5065 Y74.2372
G01 X11.4881 Y74.2306
G01 X11.4690 Y74.2258
G01 X11.4496 Y74.2230
G01 X11.4300 Y74.2220
G01 X11.4104 Y74.2230
G01 X11.3910 Y74.2258
G01 X11.3719 Y74.2306
G01 X11.3535 Y74.2372
G01 X11.3357 Y74.2456
G01 X11.3189 Y74.2557
G01 X11.3031 Y74.2674
G01 X11.2886 Y74.2806
G01 X11.2754 Y74.2951
G01 X11.2637 Y74.3109
G01 X11.2536 Y74.3277
G01 X11.2452 Y74.3455
G01 X11.2386 Y74.3639
G01 X11.2338 Y74.3830
G01 X11.2310 Y74.4024
G01 X11.2300 Y74.4220
G01 X11.2310 Y74.4416
G01 X11.2338 Y74.4610
G01 X11.2386 Y74.4801
G01 X11.2452 Y74.4985
G01 X11.2536 Y74.5163
G01 X11.2637 Y74.5331
G01 X11.2754 Y74.5489
G01 X11.2886 Y74.5634
G01 X11.3031 Y74.5766
G01 X11.3189 Y74.5883
G01 X11.3357 Y74.5984
G01 X11.3535 Y74.6068
G01 X11.3719 Y74.6134
G01 X11.3910 Y74.6182
G01 X11.4104 Y74.6210
G01 X11.4300 Y74.6220
G01 X11.4496 Y74.6210
G01 X11.4690 Y74.6182
G01 X11.4881 Y74.6134
G01 X11.5065 Y74.6068
G01 X11.5243 Y74.5984
G01 X11.5411 Y74.5883
G01 X11.5569 Y74.5766
G01 X11.5714 Y74.5634
G01 X11.5846 Y74.5489
G01 X11.5963 Y74.5331
G01 X11.6064 Y74.5163
G01 X11.6148 Y74.4985
G01 X11.6214 Y74.4801
G01 X11.6262 Y74.4610
G01 X11.6290 Y74.4416
G01 X11.6300 Y74.4220
G00 Z1.0000
G00 X18.2390 Y72.7490
G01 F120.00
G01 Z-1.8000
G01 F120.00
G01 X18.2385 Y72.7392
G01 X18.2371 Y72.7295
G01 X18.2347 Y72.7200
G01 X18.2314 Y72.7107
G01 X18.2272 Y72.7019
G01 X18.2221 Y72.6934
G01 X18.2163 Y72.6856
G01 X18.2097 Y72.6783
G01 X18.2024 Y72.6717
G01 X18.1946 Y72.6659
G01 X18.1861 Y72.6608
G01 X18.1773 Y72.6566
G01 X18.1680 Y72.6533
G01 X18.1585 Y72.6509
G01 X18.1488 Y72.6495
G01 X18.1390 Y72.6490
G01 X18.1292 Y72.6495
G01 X18.1195 Y72.6509
G01 X18.1100 Y72.6533
G01 X18.1007 Y72.6566
G01 X18.0919 Y72.6608
G01 X18.0834 Y72.6659
G01 X18.0756 Y72.6717
G01 X18.0683 Y72.6783
G01 X18.0617 Y72.6856
G01 X18.0559 Y72.6934
G01 X18.0508 Y72.7019
G01 X18.0466 Y72.7107
G01 X18.0433 Y72.7200
G01 X18.0409 Y72.7295
G01 X18.0395 Y72.7392
G01 X18.0390 Y72.7490
G01 X18.0395 Y72.7588
G01 X18.0409 Y72.7685
G01 X18.0433 Y72.7780
G01 X18.0466 Y72.7873
G01 X18.0508 Y72.7961
G01 X18.0559 Y72.8046
G01 X18.0617 Y72.8124
G01 X18.0683 Y72.8197
G01 X18.0756 Y72.8263
G01 X18.0834 Y72.8321
G01 X18.0919 Y72.8372
G01 X18.1007 Y72.8414
G01 X18.1100 Y72.8447
G01 X18.1195 Y72.8471
G01 X18.1292 Y72.8485
G01 X18.1390 Y72.8490
G01 X18.1488 Y72.8485
G01 X18.1585 Y72.8471
G01 X18.1680 Y72.8447
G01 X18.1773 Y72.8414
G01 X18.1861 Y72.8372
G01 X18.1946 Y72.8321
G01 X18.2024 Y72.8263
G01 X18.2097 Y72.8197
G01 X18.2163 Y72.8124
G01 X18.2221 Y72.8046
G01 X18.2272 Y72.7961
G01 X18.2314 Y72.7873
G01 X18.2347 Y72.7780
G01 X18.2371 Y72.7685
G01 X18.2385 Y72.7588
G01 X18.2390 Y72.7490
G00 Z1.0000
G00 X20.0350 Y74.5450
G01 F120.00
G01 Z-1.8000
G01 F120.00
G01 X20.0345 Y74.5352
G01 X20.0331 Y74.5255
G01 X20.0307 Y74.5160
G01 X20.0274 Y74.5067
G01 X20.0232 Y74.4979
G01 X20.0181 Y74.4894
G01 X20.0123 Y74.4816
G01 X20.0057 Y74.4743
G01 X19.9984 Y74.4677
G01 X19.9906 Y74.4619
G01 X19.9821 Y74.4568
G01 X19.9733 Y74.4526
G01 X19.9640 Y74.4493
G01 X19.9545 Y74.4469
G01 X19.9448 Y74.4455
G01 X19.9350 Y74.4450
G01 X19.9252 Y74.4455
G01 X19.9155 Y74.4469
G01 X19.9060 Y74.4493
G01 X19.8967 Y74.4526
G01 X19.8879 Y74.4568
G01 X19.8794 Y74.4619
G01 X19.8716 Y74.4677
G01 X19.8643 Y74.4743
G01 X19.8577 Y74.4816
G01 X19.8519 Y74.4894
G01 X19.8468 Y74.4979
G01 X19.8426 Y74.5067
G01 X19.8393 Y74.5160
G01 X19.8369 Y74.5255
G01 X19.8355 Y74.5352
G01 X19.8350 Y74.5450
G01 X19.8355 Y74.5548
G01 X19.8369 Y74.5645
G01 X19.8393 Y74.5740
G01 X19.8426 Y74.5833
G01 X19.8468 Y74.5921
G01 X19.8519 Y74.6006
G01 X19.8577 Y74.6084
G01 X19.8643 Y74.6157
G01 X19.8716 Y74.6223
G01 X19.8794 Y74.6281
G01 X19.8879 Y74.6332
G01 X19.8967 Y74.6374
G01 X19.9060 Y74.6407
G01 X19.9155 Y74.6431
G01 X19.9252 Y74.6445
G01 X19.9350 Y74.6450
G01 X19.9448 Y74.6445
G01 X19.9545 Y74.6431
G01 X19.9640 Y74.6407
G01 X19.9733 Y74.6374
G01 X19.9821 Y74.6332
G01 X19.9906 Y74.6281
G01 X19.9984 Y74.6223
G01 X20.0057 Y74.6157
G01 X20.0123 Y74.6084
G01 X20.0181 Y74.6006
G01 X20.0232 Y74.5921
G01 X20.0274 Y74.5833
G01 X20.0307 Y74.5740
G01 X20.0331 Y74.5645
G01 X20.0345 Y74.5548
G01 X20.0350 Y74.5450
G00 Z1.0000
G00 X21.8310 Y76.3410
G01 F120.00
G01 Z-1.8000
G01 F120.00
G01 X21.8305 Y76.3312
G01 X21.8291 Y76.3215
G01 X21.8267 Y76.3120
G01 X21.8234 Y76.3027
G01 X21.8192 Y76.2939
G01 X21.8141 Y76.2854
G01 X21.8083 Y76.2776
G01 X21.8017 Y76.2703
G01 X21.7944 Y76.2637
G01 X21.7866 Y76.2579
G01 X21.7781 Y76.2528
G01 X21.7693 Y76.2486
G01 X21.7600 Y76.2453
G01 X21.7505 Y76.2429
G01 X21.7408 Y76.2415
G01 X21.7310 Y76.2410
G01 X21.7212 Y76.2415
G01 X21.7115 Y76.2429
G01 X21.7020 Y76.2453
G01 X21.6927 Y76.2486
G01 X21.6839 Y76.2528
G01 X21.6754 Y76.2579
G01 X21.6676 Y76.2637
G01 X21.6603 Y76.2703
G01 X21.6537 Y76.2776
G01 X21.6479 Y76.2854
G01 X21.6428 Y76.2939
G01 X21.6386 Y76.3027
G01 X21.6353 Y76.3120
G01 X21.6329 Y76.3215
G01 X21.6315 Y76.3312
G01 X21.6310 Y76.3410
G01 X21.6315 Y76.3508
G01 X21.6329 Y76.3605
G01 X21.6353 Y76.3700
G01 X21.6386 Y76.3793
G01 X21.6428 Y76.3881
G01 X21.6479 Y76.3966
G01 X21.6537 Y76.4044
G01 X21.6603 Y76.4117
G01 X21.6676 Y76.4183
G01 X21.6754 Y76.4241
G01 X21.6839 Y76.4292
G01 X21.6927 Y76.4334
G01 X21.7020 Y76.4367
G01 X21.7115 Y76.4391
G01 X21.7212 Y76.4405
G01 X21.7310 Y76.4410
G01 X21.7408 Y76.4405
G01 X21.7505 Y76.4391
G01 X21.7600 Y76.4367
G01 X21.7693 Y76.4334
G01 X21.7781 Y76.4292
G01 X21.7866 Y76.4241
G01 X21.7944 Y76.4183
G01 X21.8017 Y76.4117
G01 X21.8083 Y76.4044
G01 X21.8141 Y76.3966
G01 X21.8192 Y76.3881
G01 X21.8234 Y76.3793
G01 X21.8267 Y76.3700
G01 X21.8291 Y76.3605
G01 X21.8305 Y76.3508
G01 X21.8310 Y76.3410
G00 Z1.0000
G00 X23.6270 Y78.1370
G01 F120.00
G01 Z-1.8000
G01 F120.00
G01 X23.6265 Y78.1272
G01 X23.6251 Y78.1175
G01 X23.6227 Y78.1080
G01 X23.6194 Y78.0987
G01 X23.6152 Y78.0899
G01 X23.6101 Y78.0814
G01 X23.6043 Y78.0736
G01 X23.5977 Y78.0663
G01 X23.5904 Y78.0597
G01 X23.5826 Y78.0539
G01 X23.5741 Y78.0488
G01 X23.5653 Y78.0446
G01 X23.5560 Y78.0413
G01 X23.5465 Y78.0389
G01 X23.5368 Y78.0375
G01 X23.5270 Y78.0370
G01 X23.5172 Y78.0375
G01 X23.5075 Y78.0389
G01 X23.4980 Y78.0413
G01 X23.4887 Y78.0446
G01 X23.4799 Y78.0488
G01 X23.4714 Y78.0539
G01 X23.4636 Y78.0597
G01 X23.4563 Y78.0663
G01 X23.4497 Y78.0736
G01 X23.4439 Y78.0814
G01 X23.4388 Y78.0899
G01 X23.4346 Y78.0987
G01 X23.4313 Y78.1080
G01 X23.4289 Y78.1175
G01 X23.4275 Y78.1272
G01 X23.4270 Y78.1370
G01 X23.4275 Y78.1468
G01 X23.4289 Y78.1565
G01 X23.4313 Y78.1660
G01 X23.4346 Y78.1753
G01 X23.4388 Y78.1841
G01 X23.4439 Y78.1926
G01 X23.4497 Y78.2004
G01 X23.4563 Y78.2077
G01 X23.4636 Y78.2143
G01 X23.4714 Y78.2201
G01 X23.4799 Y78.2252
G01 X23.4887 Y78.2294
G01 X23.4980 Y78.2327
G01 X23.5075 Y78.2351
G01 X23.5172 Y78.2365
G01 X23.5270 Y78.2370
G01 X23.5368 Y78.2365
G01 X23.5465 Y78.2351
G01 X23.5560 Y78.2327
G01 X23.5653 Y78.2294
G01 X23.5741 Y78.2252
G01 X23.5826 Y78.2201
G01 X23.5904 Y78.2143
G01 X23.5977 Y78.2077
G01 X23.6043 Y78.2004
G01 X23.6101 Y78.1926
G01 X23.6152 Y78.1841
G01 X23.6194 Y78.1753
G01 X23.6227 Y78.1660
G01 X23.6251 Y78.1565
G01 X23.6265 Y78.1468
G01 X23.6270 Y78.1370
G00 Z1.0000
G00 X25.4230 Y79.9330
G01 F120.00
G01 Z-1.8000
G01 F120.00
G01 X25.4225 Y79.9232
G01 X25.4211 Y79.9135
G01 X25.4187 Y79.9040
G01 X25.4154 Y79.8947
G01 X25.4112 Y79.8859
G01 X25.4061 Y79.8774
G01 X25.4003 Y79.8696
G01 X25.3937 Y79.8623
G01 X25.3864 Y79.8557
G01 X25.3786 Y79.8499
G01 X25.3701 Y79.8448
G01 X25.3613 Y79.8406
G01 X25.3520 Y79.8373
G01 X25.3425 Y79.8349
G01 X25.3328 Y79.8335
G01 X25.3230 Y79.8330
G01 X25.3132 Y79.8335
G01 X25.3035 Y79.8349
G01 X25.2940 Y79.8373
G01 X25.2847 Y79.8406
G01 X25.2759 Y79.8448
G01 X25.2674 Y79.8499
G01 X25.2596 Y79.8557
G01 X25.2523 Y79.8623
G01 X25.2457 Y79.8696
G01 X25.2399 Y79.8774
G01 X25.2348 Y79.8859
G01 X25.2306 Y79.8947
G01 X25.2273 Y79.9040
G01 X25.2249 Y79.9135
G01 X25.2235 Y79.9232
G01 X25.2230 Y79.9330
G01 X25.2235 Y79.9428
G01 X25.2249 Y79.9525
G01 X25.2273 Y79.9620
G01 X25.2306 Y79.9713
G01 X25.2348 Y79.9801
G01 X25.2399 Y79.9886
G01 X25.2457 Y79.9964
G01 X25.2523 Y80.0037
G01 X25.2596 Y80.0103
G01 X25.2674 Y80.0161
G01 X25.2759 Y80.0212
G01 X25.2847 Y80.0254
G01 X25.2940 Y80.0287
G01 X25.3035 Y80.0311
G01 X25.3132 Y80.0325
G01 X25.3230 Y80.0330
G01 X25.3328 Y80.0325
G01 X25.3425 Y80.0311
G01 X25.3520 Y80.0287
G01 X25.3613 Y80.0254
G01 X25.3701 Y80.0212
G01 X25.3786 Y80.0161
G01 X25.3864 Y80.0103
G01 X25.3937 Y80.0037
G01 X25.4003 Y79.9964
G01 X25.4061 Y79.9886
G01 X25.4112 Y79.9801
G01 X25.4154 Y79.9713
G01 X25.4187 Y79.9620
G01 X25.4211 Y79.9525
G01 X25.4225 Y79.9428
G01 X25.4230 Y79.9330
G00 Z1.0000
G00 X27.2190 Y81.7290
G01 F120.00
G01 Z-1.8000
G01 F120.00
G01 X27.2185 Y81.7192
G01 X27.2171 Y81.7095
G01 X27.2147 Y81.7000
G01 X27.2114 Y81.6907
G01 X27.2072 Y81.6819
G01 X27.2021 Y81.6734
G01 X27.1963 Y81.6656
G01 X27.1897 Y81.6583
G01 X27.1824 Y81.6517
G01 X27.1746 Y81.6459
G01 X27.1661 Y81.6408
G01 X27.1573 Y81.6366
G01 X27.1480 Y81.6333
G01 X27.1385 Y81.6309
G01 X27.1288 Y81.6295
G01 X27.1190 Y81.6290
G01 X27.1092 Y81.6295
G01 X27.0995 Y81.6309
G01 X27.0900 Y81.6333
G01 X27.0807 Y81.6366
G01 X27.0719 Y81.6408
G01 X27.0634 Y81.6459
G01 X27.0556 Y81.6517
G01 X27.0483 Y81.6583
G01 X27.0417 Y81.6656
G01 X27.0359 Y81.6734
G01 X27.0308 Y81.6819
G01 X27.0266 Y81.6907
G01 X27.0233 Y81.7000
G01 X27.0209 Y81.7095
G01 X27.0195 Y81.7192
G01 X27.0190 Y81.7290
G01 X27.0195 Y81.7388
G01 X27.0209 Y81.7485
G01 X27.0233 Y81.7580
G01 X27.0266 Y81.7673
G01 X27.0308 Y81.7761
G01 X27.0359 Y81.7846
G01 X27.0417 Y81.7924
G01 X27.0483 Y81.7997
G01 X27.0556 Y81.8063
G01 X27.0634 Y81.8121
G01 X27.0719 Y81.8172
G01 X27.0807 Y81.8214
G01 X27.0900 Y81.8247
G01 X27.0995 Y81.8271
G01 X27.1092 Y81.8285
G01 X27.1190 Y81.8290
G01 X27.1288 Y81.8285
G01 X27.1385 Y81.8271
G01 X27.1480 Y81.8247
G01 X27.1573 Y81.8214
G01 X27.1661 Y81.8172
G01 X27.1746 Y81.8121
G01 X27.1824 Y81.8063
G01 X27.1897 Y81.7997
G01 X27.1963 Y81.7924
G01 X27.2021 Y81.7846
G01 X27.2072 Y81.7761
G01 X27.2114 Y81.7673
G01 X27.2147 Y81.7580
G01 X27.2171 Y81.7485
G01 X27.2185 Y81.7388
G01 X27.2190 Y81.7290
G00 Z1.0000
G00 X29.0150 Y83.5250
G01 F120.00
G01 Z-1.8000
G01 F120.00
G01 X29.0145 Y83.5152
G01 X29.0131 Y83.5055
G01 X29.0107 Y83.4960
G01 X29.0074 Y83.4867
G01 X29.0032 Y83.4779
G01 X28.9981 Y83.4694
G01 X28.9923 Y83.4616
G01 X28.9857 Y83.4543
G01 X28.9784 Y83.4477
G01 X28.9706 Y83.4419
G01 X28.9621 Y83.4368
G01 X28.9533 Y83.4326
G01 X28.9440 Y83.4293
G01 X28.9345 Y83.4269
G01 X28.9248 Y83.4255
G01 X28.9150 Y83.4250
G01 X28.9052 Y83.4255
G01 X28.8955 Y83.4269
G01 X28.8860 Y83.4293
G01 X28.8767 Y83.4326
G01 X28.8679 Y83.4368
G01 X28.8594 Y83.4419
G01 X28.8516 Y83.4477
G01 X28.8443 Y83.4543
G01 X28.8377 Y83.4616
G01 X28.8319 Y83.4694
G01 X28.8268 Y83.4779
G01 X28.8226 Y83.4867
G01 X28.8193 Y83.4960
G01 X28.8169 Y83.5055
G01 X28.8155 Y83.5152
G01 X28.8150 Y83.5250
G01 X28.8155 Y83.5348
G01 X28.8169 Y83.5445
G01 X28.8193 Y83.5540
G01 X28.8226 Y83.5633
G01 X28.8268 Y83.5721
G01 X28.8319 Y83.5806
G01 X28.8377 Y83.5884
G01 X28.8443 Y83.5957
G01 X28.8516 Y83.6023
G01 X28.8594 Y83.6081
G01 X28.8679 Y83.6132
G01 X28.8767 Y83.6174
G01 X28.8860 Y83.6207
G01 X28.8955 Y83.6231
G01 X28.9052 Y83.6245
G01 X28.9150 Y83.6250
G01 X28.9248 Y83.6245
G01 X28.9345 Y83.6231
G01 X28.9440 Y83.6207
G01 X28.9533 Y83.6174
G01 X28.9621 Y83.6132
G01 X28.9706 Y83.6081
G01 X28.9784 Y83.6023
G01 X28.9857 Y83.5957
G01 X28.9923 Y83.5884
G01 X28.9981 Y83.5806
G01 X29.0032 Y83.5721
G01 X29.0074 Y83.5633
G01 X29.0107 Y83.5540
G01 X29.0131 Y83.5445
G01 X29.0145 Y83.5348
G01 X29.0150 Y83.5250
G00 Z1.0000
G00 X30.8110 Y85.3210
G01 F120.00
G01 Z-1.8000
G01 F120.00
G01 X30.8105 Y85.3112
G01 X30.8091 Y85.3015
G01 X30.8067 Y85.2920
G01 X30.8034 Y85.2827
G01 X30.7992 Y85.2739
G01 X30.7941 Y85.2654
G01 X30.7883 Y85.2576
G01 X30.7817 Y85.2503
G01 X30.7744 Y85.2437
G01 X30.7666 Y85.2379
G01 X30.7581 Y85.2328
G01 X30.7493 Y85.2286
G01 X30.7400 Y85.2253
G01 X30.7305 Y85.2229
G01 X30.7208 Y85.2215
G01 X30.7110 Y85.2210
G01 X30.7012 Y85.2215
G01 X30.6915 Y85.2229
G01 X30.6820 Y85.2253
G01 X30.6727 Y85.2286
G01 X30.6639 Y85.2328
G01 X30.6554 Y85.2379
G01 X30.6476 Y85.2437
G01 X30.6403 Y85.2503
G01 X30.6337 Y85.2576
G01 X30.6279 Y85.2654
G01 X30.6228 Y85.2739
G01 X30.6186 Y85.2827
G01 X30.6153 Y85.2920
G01 X30.6129 Y85.3015
G01 X30.6115 Y85.3112
G01 X30.6110 Y85.3210
G01 X30.6115 Y85.3308
G01 X30.6129 Y85.3405
G01 X30.6153 Y85.3500
G01 X30.6186 Y85.3593
G01 X30.6228 Y85.3681
G01 X30.6279 Y85.3766
G01 X30.6337 Y85.3844
G01 X30.6403 Y85.3917
G01 X30.6476 Y85.3983
G01 X30.6554 Y85.4041
G01 X30.6639 Y85.4092
G01 X30.6727 Y85.4134
G01 X30.6820 Y85.4167
G01 X30.6915 Y85.4191
G01 X30.7012 Y85.4205
G01 X30.7110 Y85.4210
G01 X30.7208 Y85.4205
G01 X30.7305 Y85.4191
G01 X30.7400 Y85.4167
G01 X30.7493 Y85.4134
G01 X30.7581 Y85.4092
G01 X30.7666 Y85.4041
G01 X30.7744 Y85.3983
G01 X30.7817 Y85.3917
G01 X30.7883 Y85.3844
G01 X30.7941 Y85.3766
G01 X30.7992 Y85.3681
G01 X30.8034 Y85.3593
G01 X30.8067 Y85.3500
G01 X30.8091 Y85.3405
G01 X30.8105 Y85.3308
G01 X30.8110 Y85.3210
G00 Z1.0000
G00 X28.8380 Y94.1070
G01 F120.00
G01 Z-1.8000
G01 F120.00
G01 X28.8370 Y94.0874
G01 X28.8342 Y94.0680
G01 X28.8294 Y94.0489
G01 X28.8228 Y94.0305
G01 X28.8144 Y94.0127
G01 X28.8043 Y93.9959
G01 X28.7926 Y93.9801
G01 X28.7794 Y93.9656
G01 X28.7649 Y93.9524
G01 X28.7491 Y93.9407
G01 X28.7323 Y93.9306
G01 X28.7145 Y93.9222
G01 X28.6961 Y93.9156
G01 X28.6770 Y93.9108
G01 X28.6576 Y93.9080
G01 X28.6380 Y93.9070
G01 X28.6184 Y93.9080
G01 X28.5990 Y93.9108
G01 X28.5799 Y93.9156
G01 X28.5615 Y93.9222
G01 X28.5437 Y93.9306
G01 X28.5269 Y93.9407
G01 X28.5111 Y93.9524
G01 X28.4966 Y93.9656
G01 X28.4834 Y93.9801
G01 X28.4717 Y93.9959
G01 X28.4616 Y94.0127
G01 X28.4532 Y94.0305
G01 X28.4466 Y94.0489
G01 X28.4418 Y94.0680
G01 X28.4390 Y94.0874
G01 X28.4380 Y94.1070
G01 X28.4390 Y94.1266
G01 X28.4418 Y94.1460
G01 X28.4466 Y94.1651
G01 X28.4532 Y94.1835
G01 X28.4616 Y94.2013
G01 X28.4717 Y94.2181
G01 X28.4834 Y94.2339
G01 X28.4966 Y94.2484
G01 X28.5111 Y94.2616
G01 X28.5269 Y94.2733
G01 X28.5437 Y94.2834
G01 X28.5615 Y94.2918
G01 X28.5799 Y94.2984
G01 X28.5990 Y94.3032
G01 X28.6184 Y94.3060
G01 X28.6380 Y94.3070
G01 X28.6576 Y94.3060
G01 X28.6770 Y94.3032
G01 X28.6961 Y94.2984
G01 X28.7145 Y94.2918
G01 X28.7323 Y94.2834
G01 X28.7491 Y94.2733
G01 X28.7649 Y94.2616
G01 X28.7794 Y94.2484
G01 X28.7926 Y94.2339
G01 X28.8043 Y94.2181
G01 X28.8144 Y94.2013
G01 X28.8228 Y94.1835
G01 X28.8294 Y94.1651
G01 X28.8342 Y94.1460
G01 X28.8370 Y94.1266
G01 X28.8380 Y94.1070
G00 Z1.0000
G00 X28.8380 Y96.6470
G01 F120.00
G01 Z-1.8000
G01 F120.00
G01 X28.8370 Y96.6274
G01 X28.8342 Y96.6080
G01 X28.8294 Y96.5889
G01 X28.8228 Y96.5705
G01 X28.8144 Y96.5527
G01 X28.8043 Y96.5359
G01 X28.7926 Y96.5201
G01 X28.7794 Y96.5056
G01 X28.7649 Y96.4924
G01 X28.7491 Y96.4807
G01 X28.7323 Y96.4706
G01 X28.7145 Y96.4622
G01 X28.6961 Y96.4556
G01 X28.6770 Y96.4508
G01 X28.6576 Y96.4480
G01 X28.6380 Y96.4470
G01 X28.6184 Y96.4480
G01 X28.5990 Y96.4508
G01 X28.5799 Y96.4556
G01 X28.5615 Y96.4622
G01 X28.5437 Y96.4706
G01 X28.5269 Y96.4807
G01 X28.5111 Y96.4924
G01 X28.4966 Y96.5056
G01 X28.4834 Y96.5201
G01 X28.4717 Y96.5359
G01 X28.4616 Y96.5527
G01 X28.4532 Y96.5705
G01 X28.4466 Y96.5889
G01 X28.4418 Y96.6080
G01 X28.4390 Y96.6274
G01 X28.4380 Y96.6470
G01 X28.4390 Y96.6666
G01 X28.4418 Y96.6860
G01 X28.4466 Y96.7051
G01 X28.4532 Y96.7235
G01 X28.4616 Y96.7413
G01 X28.4717 Y96.7581
G01 X28.4834 Y96.7739
G01 X28.4966 Y96.7884
G01 X28.5111 Y96.8016
G01 X28.5269 Y96.8133
G01 X28.5437 Y96.8234
G01 X28.5615 Y96.8318
G01 X28.5799 Y96.8384
G01 X28.5990 Y96.8432
G01 X28.6184 Y96.8460
G01 X28.6380 Y96.8470
G01 X28.6576 Y96.8460
G01 X28.6770 Y96.8432
G01 X28.6961 Y96.8384
G01 X28.7145 Y96.8318
G01 X28.7323 Y96.8234
G01 X28.7491 Y96.8133
G01 X28.7649 Y96.8016
G01 X28.7794 Y96.7884
G01 X28.7926 Y96.7739
G01 X28.8043 Y96.7581
G01 X28.8144 Y96.7413
G01 X28.8228 Y96.7235
G01 X28.8294 Y96.7051
G01 X28.8342 Y96.6860
G01 X28.8370 Y96.6666
G01 X28.8380 Y96.6470
G00 Z1.0000
G00 X19.8850 Y96.6470
G01 F120.00
G01 Z-1.8000
G01 F120.00
G01 X19.8840 Y96.6274
G01 X19.8812 Y96.6080
G01 X19.8764 Y96.5889
G01 X19.8698 Y96.5705
G01 X19.8614 Y96.5527
G01 X19.8513 Y96.5359
G01 X19.8396 Y96.5201
G01 X19.8264 Y96.5056
G01 X19.8119 Y96.4924
G01 X19.7961 Y96.4807
G01 X19.7793 Y96.4706
G01 X19.7615 Y96.4622
G01 X19.7431 Y96.4556
G01 X19.7240 Y96.4508
G01 X19.7046 Y96.4480
G01 X19.6850 Y96.4470
G01 X19.6654 Y96.4480
G01 X19.6460 Y96.4508
G01 X19.6269 Y96.4556
G01 X19.6085 Y96.4622
G01 X19.5907 Y96.4706
G01 X19.5739 Y96.4807
G01 X19.5581 Y96.4924
G01 X19.5436 Y96.5056
G01 X19.5304 Y96.5201
G01 X19.5187 Y96.5359
G01 X19.5086 Y96.5527
G01 X19.5002 Y96.5705
G01 X19.4936 Y96.5889
G01 X19.4888 Y96.6080
G01 X19.4860 Y96.6274
G01 X19.4850 Y96.6470
G01 X19.4860 Y96.6666
G01 X19.4888 Y96.6860
G01 X19.4936 Y96.7051
G01 X19.5002 Y96.7235
G01 X19.5086 Y96.7413
G01 X19.5187 Y96.7581
G01 X19.5304 Y96.7739
G01 X19.5436 Y96.7884
G01 X19.5581 Y96.8016
G01 X19.5739 Y96.8133
G01 X19.5907 Y96.8234
G01 X19.6085 Y96.8318
G01 X19.6269 Y96.8384
G01 X19.6460 Y96.8432
G01 X19.6654 Y96.8460
G01 X19.6850 Y96.8470
G01 X19.7046 Y96.8460
G01 X19.7240 Y96.8432
G01 X19.7431 Y96.8384
G01 X19.7615 Y96.8318
G01 X19.7793 Y96.8234
G01 X19.7961 Y96.8133
G01 X19.8119 Y96.8016
G01 X19.8264 Y96.7884
G01 X19.8396 Y96.7739
G01 X19.8513 Y96.7581
G01 X19.8614 Y96.7413
G01 X19.8698 Y96.7235
G01 X19.8764 Y96.7051
G01 X19.8812 Y96.6860
G01 X19.8840 Y96.6666
G01 X19.8850 Y96.6470
G00 Z1.0000
G00 X19.8850 Y94.1070
G01 F120.00
G01 Z-1.8000
G01 F120.00
G01 X19.8840 Y94.0874
G01 X19.8812 Y94.0680
G01 X19.8764 Y94.0489
G01 X19.8698 Y94.0305
G01 X19.8614 Y94.0127
G01 X19.8513 Y93.9959
G01 X19.8396 Y93.9801
G01 X19.8264 Y93.9656
G01 X19.8119 Y93.9524
G01 X19.7961 Y93.9407
G01 X19.7793 Y93.9306
G01 X19.7615 Y93.9222
G01 X19.7431 Y93.9156
G01 X19.7240 Y93.9108
G01 X19.7046 Y93.9080
G01 X19.6850 Y93.9070
G01 X19.6654 Y93.9080
G01 X19.6460 Y93.9108
G01 X19.6269 Y93.9156
G01 X19.6085 Y93.9222
G01 X19.5907 Y93.9306
G01 X19.5739 Y93.9407
G01 X19.5581 Y93.9524
G01 X19.5436 Y93.9656
G01 X19.5304 Y93.9801
G01 X19.5187 Y93.9959
G01 X19.5086 Y94.0127
G01 X19.5002 Y94.0305
G01 X19.4936 Y94.0489
G01 X19.4888 Y94.0680
G01 X19.4860 Y94.0874
G01 X19.4850 Y94.1070
G01 X19.4860 Y94.1266
G01 X19.4888 Y94.1460
G01 X19.4936 Y94.1651
G01 X19.5002 Y94.1835
G01 X19.5086 Y94.2013
G01 X19.5187 Y94.2181
G01 X19.5304 Y94.2339
G01 X19.5436 Y94.2484
G01 X19.5581 Y94.2616
G01 X19.5739 Y94.2733
G01 X19.5907 Y94.2834
G01 X19.6085 Y94.2918
G01 X19.6269 Y94.2984
G01 X19.6460 Y94.3032
G01 X19.6654 Y94.3060
G01 X19.6850 Y94.3070
G01 X19.7046 Y94.3060
G01 X19.7240 Y94.3032
G01 X19.7431 Y94.2984
G01 X19.7615 Y94.2918
G01 X19.7793 Y94.2834
G01 X19.7961 Y94.2733
G01 X19.8119 Y94.2616
G01 X19.8264 Y94.2484
G01 X19.8396 Y94.2339
G01 X19.8513 Y94.2181
G01 X19.8614 Y94.2013
G01 X19.8698 Y94.1835
G01 X19.8764 Y94.1651
G01 X19.8812 Y94.1460
G01 X19.8840 Y94.1266
G01 X19.8850 Y94.1070
G00 Z1.0000
G00 X6.2000 Y95.0000
G01 F120.00
G01 Z-1.8000
G01 F120.00
G01 X6.1942 Y94.8824
G01 X6.1769 Y94.7659
G01 X6.1483 Y94.6517
G01 X6.1087 Y94.5408
G01 X6.0583 Y94.4343
G01 X5.9978 Y94.3333
G01 X5.9276 Y94.2387
G01 X5.8485 Y94.1515
G01 X5.7613 Y94.0724
G01 X5.6667 Y94.0022
G01 X5.5657 Y93.9417
G01 X5.4592 Y93.8913
G01 X5.3483 Y93.8517
G01 X5.2341 Y93.8231
G01 X5.1176 Y93.8058
G01 X5.0000 Y93.8000
G01 X4.8824 Y93.8058
G01 X4.7659 Y93.8231
G01 X4.6517 Y93.8517
G01 X4.5408 Y93.8913
G01 X4.4343 Y93.9417
G01 X4.3333 Y94.0022
G01 X4.2387 Y94.0724
G01 X4.1515 Y94.1515
G01 X4.0724 Y94.2387
G01 X4.0022 Y94.3333
G01 X3.9417 Y94.4343
G01 X3.8913 Y94.5408
G01 X3.8517 Y94.6517
G01 X3.8231 Y94.7659
G01 X3.8058 Y94.8824
G01 X3.8000 Y95.0000
G01 X3.8058 Y95.1176
G01 X3.8231 Y95.2341
G01 X3.8517 Y95.3483
G01 X3.8913 Y95.4592
G01 X3.9417 Y95.5657
G01 X4.0022 Y95.6667
G01 X4.0724 Y95.7613
G01 X4.1515 Y95.8485
G01 X4.2387 Y95.9276
G01 X4.3333 Y95.9978
G01 X4.4343 Y96.0583
G01 X4.5408 Y96.1087
G01 X4.6517 Y96.1483
G01 X4.7659 Y96.1769
G01 X4.8824 Y96.1942
G01 X5.0000 Y96.2000
G01 X5.1176 Y96.1942
G01 X5.2341 Y96.1769
G01 X5.3483 Y96.1483
G01 X5.4592 Y96.1087
G01 X5.5657 Y96.0583
G01 X5.6667 Y95.9978
G01 X5.7613 Y95.9276
G01 X5.8485 Y95.8485
G01 X5.9276 Y95.7613
G01 X5.9978 Y95.6667
G01 X6.0583 Y95.5657
G01 X6.1087 Y95.4592
G01 X6.1483 Y95.3483
G01 X6.1769 Y95.2341
G01 X6.1942 Y95.1176
G01 X6.2000 Y95.0000
G00 Z1.0000
G00 X46.8300 Y80.7180
G01 F120.00
G01 Z-1.8000
G01 F120.00
G01 X46.8247 Y80.6102
G01 X46.8089 Y80.5034
G01 X46.7826 Y80.3987
G01 X46.7463 Y80.2970
G01 X46.7001 Y80.1995
G01 X46.6446 Y80.1069
G01 X46.5803 Y80.0202
G01 X46.5078 Y79.9402
G01 X46.4278 Y79.8677
G01 X46.3411 Y79.8034
G01 X46.2485 Y79.7479
G01 X46.1510 Y79.7017
G01 X46.0493 Y79.6654
G01 X45.9446 Y79.6391
G01 X45.8378 Y79.6233
G01 X45.7300 Y79.6180
G01 X45.6222 Y79.6233
G01 X45.5154 Y79.6391
G01 X45.4107 Y79.6654
G01 X45.3090 Y79.7017
G01 X45.2115 Y79.7479
G01 X45.1189 Y79.8034
G01 X45.0322 Y79.8677
G01 X44.9522 Y79.9402
G01 X44.8797 Y80.0202
G01 X44.8154 Y80.1069
G01 X44.7599 Y80.1995
G01 X44.7137 Y80.2970
G01 X44.6774 Y80.3987
G01 X44.6511 Y80.5034
G01 X44.6353 Y80.6102
G01 X44.6300 Y80.7180
G01 X44.6353 Y80.8258
G01 X44.6511 Y80.9326
G01 X44.6774 Y81.0373
G01 X44.7137 Y81.1390
G01 X44.7599 Y81.2365
G01 X44.8154 Y81.3291
G01 X44.8797 Y81.4158
G01 X44.9522 Y81.4958
G01 X45.0322 Y81.5683
G01 X45.1189 Y81.6326
G01 X45.2115 Y81.6881
G01 X45.3090 Y81.7343
G01 X45.4107 Y81.7706
G01 X45.5154 Y81.7969
G01 X45.6222 Y81.8127
G01 X45.7300 Y81.8180
G01 X45.8378 Y81.8127
G01 X45.9446 Y81.7969
G01 X46.0493 Y81.7706
G01 X46.1510 Y81.7343
G01 X46.2485 Y81.6881
G01 X46.3411 Y81.6326
G01 X46.4278 Y81.5683
G01 X46.5078 Y81.4958
G01 X46.5803 Y81.4158
G01 X46.6446 Y81.3291
G01 X46.7001 Y81.2365
G01 X46.7463 Y81.1390
G01 X46.7826 Y81.0373
G01 X46.8089 Y80.9326
G01 X46.8247 Y80.8258
G01 X46.8300 Y80.7180
G00 Z1.0000
G00 X96.2000 Y5.0000
G01 F120.00
G01 Z-1.8000
G01 F120.00
G01 X96.1942 Y4.8824
G01 X96.1769 Y4.7659
G01 X96.1483 Y4.6517
G01 X96.1087 Y4.5408
G01 X96.0583 Y4.4343
G01 X95.9978 Y4.3333
G01 X95.9276 Y4.2387
G01 X95.8485 Y4.1515
G01 X95.7613 Y4.0724
G01 X95.6667 Y4.0022
G01 X95.5657 Y3.9417
G01 X95.4592 Y3.8913
G01 X95.3483 Y3.8517
G01 X95.2341 Y3.8231
G01 X95.1176 Y3.8058
G01 X95.0000 Y3.8000
G01 X94.8824 Y3.8058
G01 X94.7659 Y3.8231
G01 X94.6517 Y3.8517
G01 X94.5408 Y3.8913
G01 X94.4343 Y3.9417
G01 X94.3333 Y4.0022
G01 X94.2387 Y4.0724
G01 X94.1515 Y4.1515
G01 X94.0724 Y4.2387
G01 X94.0022 Y4.3333
G01 X93.9417 Y4.4343
G01 X93.8913 Y4.5408
G01 X93.8517 Y4.6517
G01 X93.8231 Y4.7659
G01 X93.8058 Y4.8824
G01 X93.8000 Y5.0000
G01 X93.8058 Y5.1176
G01 X93.8231 Y5.2341
G01 X93.8517 Y5.3483
G01 X93.8913 Y5.4592
G01 X93.9417 Y5.5657
G01 X94.0022 Y5.6667
G01 X94.0724 Y5.7613
G01 X94.1515 Y5.8485
G01 X94.2387 Y5.9276
G01 X94.3333 Y5.9978
G01 X94.4343 Y6.0583
G01 X94.5408 Y6.1087
G01 X94.6517 Y6.1483
G01 X94.7659 Y6.1769
G01 X94.8824 Y6.1942
G01 X95.0000 Y6.2000
G01 X95.1176 Y6.1942
G01 X95.2341 Y6.1769
G01 X95.3483 Y6.1483
G01 X95.4592 Y6.1087
G01 X95.5657 Y6.0583
G01 X95.6667 Y5.9978
G01 X95.7613 Y5.9276
G01 X95.8485 Y5.8485
G01 X95.9276 Y5.7613
G01 X95.9978 Y5.6667
G01 X96.0583 Y5.5657
G01 X96.1087 Y5.4592
G01 X96.1483 Y5.3483
G01 X96.1769 Y5.2341
G01 X96.1942 Y5.1176
G01 X96.2000 Y5.0000
G00 Z1.0000
M05
G00 Z1.0000
G00 Z2.00
G00 X0.0 Y0.0

