(G-CODE GENERATED BY FLATCAM v8.992 - www.flatcam.org - Version Date: 2020/05/01)

(Name: hardware-F_Cu.gbr_iso_cnc)
(Type: G-code from Geometry)
(Units: MM)

(Created on Montag, 07 September 2020 at 21:47)

(This preprocessor is the default preprocessor used by FlatCAM.)
(It is made to work with MACH3 compatible motion controllers.)

(TOOL DIAMETER: 0.199 mm)
(Feedrate_XY: 500.0 mm/min)
(Feedrate_Z: 500.0 mm/min)
(Feedrate rapids 1500.0 mm/min)

(Z_Cut: -0.04 mm)
(Z_Move: 1.0 mm)
(Z Start: None mm)
(Z End: 2.0 mm)
(Steps per circle: 64)
(Preprocessor Geometry: default)

(X range:   -0.0495 ...   99.8715  mm)
(Y range:   -0.0495 ...   99.8715  mm)

(Spindle Speed: None RPM)
G21
G90
G94

M3141 ;  Enable RF1000 Z compensation

G01 F500.00
G00 Z1.0000

M03
G00 X8.2994 Y5.0049
G01 F500.00
G01 Z-0.0400
G01 F500.00
G01 X8.2836 Y5.3234
G01 X8.2361 Y5.6437
G01 X8.1574 Y5.9578
G01 X8.0483 Y6.2627
G01 X7.9099 Y6.5554
G01 X7.7434 Y6.8331
G01 X7.5505 Y7.0932
G01 X7.3331 Y7.3331
G01 X7.0932 Y7.5505
G01 X6.8331 Y7.7434
G01 X6.5554 Y7.9099
G01 X6.2627 Y8.0483
G01 X5.9578 Y8.1574
G01 X5.6437 Y8.2361
G01 X5.3234 Y8.2836
G01 X5.0000 Y8.2995
G01 X4.6766 Y8.2836
G01 X4.3563 Y8.2361
G01 X4.0422 Y8.1574
G01 X3.7373 Y8.0483
G01 X3.4446 Y7.9099
G01 X3.1669 Y7.7434
G01 X2.9068 Y7.5505
G01 X2.6669 Y7.3331
G01 X2.4495 Y7.0932
G01 X2.2566 Y6.8331
G01 X2.0901 Y6.5554
G01 X1.9517 Y6.2627
G01 X1.8426 Y5.9578
G01 X1.7639 Y5.6437
G01 X1.7164 Y5.3234
G01 X1.7005 Y5.0000
G01 X1.7164 Y4.6766
G01 X1.7639 Y4.3563
G01 X1.8426 Y4.0422
G01 X1.9517 Y3.7373
G01 X2.0901 Y3.4446
G01 X2.2566 Y3.1669
G01 X2.4495 Y2.9068
G01 X2.6669 Y2.6669
G01 X2.9068 Y2.4495
G01 X3.1669 Y2.2566
G01 X3.4446 Y2.0901
G01 X3.7373 Y1.9517
G01 X4.0422 Y1.8426
G01 X4.3563 Y1.7639
G01 X4.6766 Y1.7164
G01 X5.0000 Y1.7005
G01 X5.3234 Y1.7164
G01 X5.6437 Y1.7639
G01 X5.9578 Y1.8426
G01 X6.2627 Y1.9517
G01 X6.5554 Y2.0901
G01 X6.8331 Y2.2566
G01 X7.0932 Y2.4495
G01 X7.3331 Y2.6669
G01 X7.5505 Y2.9068
G01 X7.7434 Y3.1669
G01 X7.9099 Y3.4446
G01 X8.0483 Y3.7373
G01 X8.1574 Y4.0422
G01 X8.2361 Y4.3563
G01 X8.2836 Y4.6766
G01 X8.2994 Y4.9951
G01 X8.2994 Y5.0049
G00 Z1.0000
G00 X10.3076 Y4.7868
G01 F500.00
G01 Z-0.0400
G01 F500.00
G01 X10.2815 Y4.7947
G01 X10.2543 Y4.7974
G01 X10.2812 Y4.7933
G01 X10.3076 Y4.7868
G00 Z1.0000
G00 X10.3714 Y4.7619
G01 F500.00
G01 Z-0.0400
G01 F500.00
G01 X10.3473 Y4.7747
G01 X10.3212 Y4.7827
G01 X10.3467 Y4.7734
G01 X10.3714 Y4.7619
G00 Z1.0000
G00 X10.4291 Y4.7250
G01 F500.00
G01 Z-0.0400
G01 F500.00
G01 X10.4080 Y4.7423
G01 X10.3839 Y4.7552
G01 X10.4072 Y4.7411
G01 X10.4291 Y4.7250
G00 Z1.0000
G00 X10.4785 Y4.6776
G01 F500.00
G01 Z-0.0400
G01 F500.00
G01 X10.4612 Y4.6987
G01 X10.4401 Y4.7160
G01 X10.4601 Y4.6976
G01 X10.4785 Y4.6776
G00 Z1.0000
G00 X10.5177 Y4.6214
G01 F500.00
G01 Z-0.0400
G01 F500.00
G01 X10.5048 Y4.6455
G01 X10.4875 Y4.6666
G01 X10.5036 Y4.6447
G01 X10.5177 Y4.6214
G00 Z1.0000
G00 X10.5452 Y4.5587
G01 F500.00
G01 Z-0.0400
G01 F500.00
G01 X10.5372 Y4.5848
G01 X10.5244 Y4.6089
G01 X10.5359 Y4.5842
G01 X10.5452 Y4.5587
G00 Z1.0000
G00 X10.5599 Y4.4918
G01 F500.00
G01 Z-0.0400
G01 F500.00
G01 X10.5572 Y4.5190
G01 X10.5493 Y4.5451
G01 X10.5558 Y4.5187
G01 X10.5599 Y4.4918
G00 Z1.0000
G00 X11.2623 Y4.3540
G01 F500.00
G01 Z-0.0400
G01 F500.00
G01 X11.2635 Y4.3540
G01 X11.2636 Y4.4554
G01 X11.2652 Y4.4848
G01 X11.2698 Y4.5163
G01 X11.2772 Y4.5472
G01 X11.2801 Y4.5566
G01 X11.2901 Y4.5842
G01 X11.3048 Y4.6153
G01 X11.3224 Y4.6447
G01 X11.3398 Y4.6684
G01 X11.3460 Y4.6759
G01 X11.3676 Y4.6993
G01 X11.3913 Y4.7207
G01 X11.4148 Y4.7383
G01 X11.4230 Y4.7437
G01 X11.4461 Y4.7576
G01 X11.4526 Y4.7609
G01 X11.4793 Y4.7734
G01 X11.5018 Y4.7816
G01 X11.5018 Y4.8016
G01 X11.3701 Y4.8022
G01 X11.3433 Y4.7995
G01 X11.3244 Y4.7938
G01 X11.3069 Y4.7844
G01 X11.2916 Y4.7719
G01 X11.2791 Y4.7566
G01 X11.2697 Y4.7391
G01 X11.2640 Y4.7202
G01 X11.2613 Y4.6934
G01 X11.2623 Y4.3540
G00 Z1.0000
G00 X10.5613 Y3.5233
G01 F500.00
G01 Z-0.0400
G01 F500.00
G01 X10.5647 Y3.5578
G01 X10.5647 Y4.4432
G01 X10.5613 Y4.4777
G01 X10.5625 Y4.4505
G01 X10.5625 Y3.5505
G01 X10.5613 Y3.5233
G00 Z1.0000
G00 X10.5493 Y3.4559
G01 F500.00
G01 Z-0.0400
G01 F500.00
G01 X10.5572 Y3.4820
G01 X10.5599 Y3.5092
G01 X10.5558 Y3.4823
G01 X10.5493 Y3.4559
G00 Z1.0000
G00 X10.5244 Y3.3921
G01 F500.00
G01 Z-0.0400
G01 F500.00
G01 X10.5372 Y3.4162
G01 X10.5452 Y3.4423
G01 X10.5359 Y3.4168
G01 X10.5244 Y3.3921
G00 Z1.0000
G00 X11.1171 Y6.5912
G01 F500.00
G01 Z-0.0400
G01 F500.00
G01 X11.0974 Y6.4506
G01 X11.1076 Y6.2735
G01 X11.1531 Y6.0977
G01 X11.1627 Y6.0746
G01 X11.1669 Y6.0789
G01 X11.1407 Y6.1524
G01 X11.1198 Y6.2356
G01 X11.1184 Y6.2428
G01 X11.1063 Y6.3253
G01 X11.1021 Y6.4086
G01 X11.1021 Y6.4184
G01 X11.1063 Y6.5017
G01 X11.1193 Y6.5890
G01 X11.1171 Y6.5912
G00 Z1.0000
G00 X11.8240 Y7.2977
G01 F500.00
G01 Z-0.0400
G01 F500.00
G01 X11.8260 Y7.2957
G01 X11.9133 Y7.3087
G01 X11.9966 Y7.3129
G01 X12.0064 Y7.3129
G01 X12.0897 Y7.3087
G01 X12.1722 Y7.2966
G01 X12.1794 Y7.2952
G01 X12.2603 Y7.2749
G01 X12.3361 Y7.2481
G01 X12.3379 Y7.2498
G01 X12.2143 Y7.2930
G01 X12.0386 Y7.3176
G01 X11.8615 Y7.3074
G01 X11.8240 Y7.2977
G00 Z1.0000
G00 X12.8361 Y6.7481
G01 F500.00
G01 Z-0.0400
G01 F500.00
G01 X12.8623 Y6.6746
G01 X12.8837 Y6.5890
G01 X12.8967 Y6.5017
G01 X12.9010 Y6.4135
G01 X12.8967 Y6.3253
G01 X12.8837 Y6.2380
G01 X12.8629 Y6.1547
G01 X12.8361 Y6.0789
G01 X12.8378 Y6.0771
G01 X12.8810 Y6.2007
G01 X12.9056 Y6.3764
G01 X12.8954 Y6.5535
G01 X12.8499 Y6.7293
G01 X12.8403 Y6.7524
G01 X12.8361 Y6.7481
G00 Z1.0000
G00 X13.4100 Y10.0705
G01 F500.00
G01 Z-0.0400
G01 F500.00
G01 X14.4124 Y10.0705
G01 X14.4246 Y10.0716
G01 X14.4342 Y10.0735
G01 X14.4435 Y10.0763
G01 X14.4547 Y10.0811
G01 X14.4632 Y10.0859
G01 X14.4731 Y10.0931
G01 X14.4821 Y10.1014
G01 X14.4884 Y10.1088
G01 X14.4927 Y10.1147
G01 X14.4978 Y10.1231
G01 X14.5010 Y10.1297
G01 X14.5037 Y10.1365
G01 X14.5059 Y10.1435
G01 X14.5076 Y10.1506
G01 X14.5088 Y10.1578
G01 X14.5095 Y10.1676
G01 X14.5095 Y11.3724
G01 X14.5084 Y11.3846
G01 X14.5065 Y11.3942
G01 X14.5028 Y11.4058
G01 X14.4989 Y11.4147
G01 X14.4927 Y11.4253
G01 X14.4869 Y11.4331
G01 X14.4786 Y11.4421
G01 X14.4712 Y11.4484
G01 X14.4653 Y11.4527
G01 X14.4590 Y11.4566
G01 X14.4503 Y11.4610
G01 X14.4435 Y11.4637
G01 X14.4342 Y11.4665
G01 X14.4270 Y11.4680
G01 X14.4198 Y11.4690
G01 X14.4124 Y11.4695
G01 X13.4076 Y11.4695
G01 X13.3954 Y11.4684
G01 X13.3858 Y11.4665
G01 X13.3765 Y11.4637
G01 X13.3653 Y11.4589
G01 X13.3568 Y11.4541
G01 X13.3469 Y11.4469
G01 X13.3396 Y11.4404
G01 X13.3316 Y11.4312
G01 X13.3273 Y11.4253
G01 X13.3234 Y11.4190
G01 X13.3201 Y11.4125
G01 X13.3163 Y11.4035
G01 X13.3141 Y11.3965
G01 X13.3124 Y11.3894
G01 X13.3110 Y11.3798
G01 X13.3105 Y11.3724
G01 X13.3106 Y10.1651
G01 X13.3116 Y10.1554
G01 X13.3135 Y10.1458
G01 X13.3163 Y10.1365
G01 X13.3201 Y10.1275
G01 X13.3247 Y10.1188
G01 X13.3301 Y10.1107
G01 X13.3363 Y10.1032
G01 X13.3414 Y10.0979
G01 X13.3488 Y10.0916
G01 X13.3568 Y10.0859
G01 X13.3653 Y10.0811
G01 X13.3719 Y10.0781
G01 X13.3811 Y10.0748
G01 X13.3906 Y10.0724
G01 X13.4002 Y10.0710
G01 X13.4100 Y10.0705
G00 Z1.0000
G00 X13.3083 Y11.3627
G01 F500.00
G01 Z-0.0400
G01 F500.00
G01 X13.3083 Y10.1773
G01 X13.3110 Y10.1503
G01 X13.3167 Y10.1314
G01 X13.3261 Y10.1139
G01 X13.3386 Y10.0986
G01 X13.3539 Y10.0861
G01 X13.3714 Y10.0767
G01 X13.3903 Y10.0710
G01 X13.4173 Y10.0683
G01 X14.4027 Y10.0683
G01 X14.4297 Y10.0710
G01 X14.4486 Y10.0767
G01 X14.4661 Y10.0861
G01 X14.4814 Y10.0986
G01 X14.4939 Y10.1139
G01 X14.5033 Y10.1314
G01 X14.5090 Y10.1503
G01 X14.5117 Y10.1773
G01 X14.5117 Y11.3627
G01 X14.5090 Y11.3897
G01 X14.5033 Y11.4086
G01 X14.4939 Y11.4261
G01 X14.4814 Y11.4414
G01 X14.4661 Y11.4539
G01 X14.4486 Y11.4633
G01 X14.4297 Y11.4690
G01 X14.4027 Y11.4717
G01 X13.4173 Y11.4717
G01 X13.3903 Y11.4690
G01 X13.3714 Y11.4633
G01 X13.3539 Y11.4539
G01 X13.3386 Y11.4414
G01 X13.3261 Y11.4261
G01 X13.3167 Y11.4086
G01 X13.3110 Y11.3897
G01 X13.3083 Y11.3627
G00 Z1.0000
G00 X14.1094 Y13.9165
G01 F500.00
G01 Z-0.0400
G01 F500.00
G01 X14.1083 Y13.3272
G01 X14.1110 Y13.3003
G01 X14.1167 Y13.2814
G01 X14.1261 Y13.2639
G01 X14.1386 Y13.2486
G01 X14.1539 Y13.2361
G01 X14.1714 Y13.2267
G01 X14.1903 Y13.2210
G01 X14.2171 Y13.2183
G01 X14.5315 Y13.2193
G01 X14.5315 Y13.2205
G01 X14.2100 Y13.2205
G01 X14.1978 Y13.2212
G01 X14.1858 Y13.2235
G01 X14.1742 Y13.2272
G01 X14.1631 Y13.2322
G01 X14.1547 Y13.2373
G01 X14.1450 Y13.2447
G01 X14.1379 Y13.2514
G01 X14.1301 Y13.2607
G01 X14.1247 Y13.2688
G01 X14.1211 Y13.2753
G01 X14.1181 Y13.2819
G01 X14.1141 Y13.2935
G01 X14.1116 Y13.3054
G01 X14.1105 Y13.3176
G01 X14.1105 Y13.9165
G01 X14.1094 Y13.9165
G00 Z1.0000
G00 X14.1094 Y14.6235
G01 F500.00
G01 Z-0.0400
G01 F500.00
G01 X14.1105 Y14.6235
G01 X14.1105 Y15.2224
G01 X14.1116 Y15.2346
G01 X14.1141 Y15.2465
G01 X14.1163 Y15.2535
G01 X14.1190 Y15.2603
G01 X14.1247 Y15.2712
G01 X14.1316 Y15.2812
G01 X14.1379 Y15.2886
G01 X14.1469 Y15.2969
G01 X14.1568 Y15.3041
G01 X14.1675 Y15.3099
G01 X14.1765 Y15.3137
G01 X14.1858 Y15.3165
G01 X14.1978 Y15.3188
G01 X14.2100 Y15.3195
G01 X14.5315 Y15.3195
G01 X14.5315 Y15.3207
G01 X14.2171 Y15.3217
G01 X14.1903 Y15.3190
G01 X14.1714 Y15.3133
G01 X14.1539 Y15.3039
G01 X14.1386 Y15.2914
G01 X14.1261 Y15.2761
G01 X14.1167 Y15.2586
G01 X14.1110 Y15.2397
G01 X14.1083 Y15.2128
G01 X14.1094 Y14.6235
G00 Z1.0000
G00 X15.6595 Y13.3200
G01 F500.00
G01 Z-0.0400
G01 F500.00
G01 X15.6592 Y13.3127
G01 X15.6584 Y13.3054
G01 X15.6571 Y13.2982
G01 X15.6552 Y13.2911
G01 X15.6510 Y13.2797
G01 X15.6478 Y13.2731
G01 X15.6441 Y13.2668
G01 X15.6399 Y13.2607
G01 X15.6353 Y13.2550
G01 X15.6268 Y13.2463
G01 X15.6212 Y13.2416
G01 X15.6153 Y13.2373
G01 X15.6090 Y13.2334
G01 X15.6025 Y13.2301
G01 X15.5958 Y13.2272
G01 X15.5865 Y13.2241
G01 X15.5770 Y13.2220
G01 X15.5673 Y13.2208
G01 X15.5600 Y13.2205
G01 X15.4509 Y13.2205
G01 X15.4509 Y13.2186
G01 X15.5529 Y13.2183
G01 X15.5797 Y13.2210
G01 X15.5986 Y13.2267
G01 X15.6161 Y13.2361
G01 X15.6314 Y13.2486
G01 X15.6439 Y13.2639
G01 X15.6533 Y13.2814
G01 X15.6590 Y13.3003
G01 X15.6617 Y13.3272
G01 X15.6606 Y13.9165
G01 X15.6595 Y13.9165
G01 X15.6595 Y13.3200
G00 Z1.0000
G00 X17.3801 Y13.3372
G01 F500.00
G01 Z-0.0400
G01 F500.00
G01 X17.3828 Y13.3100
G01 X17.3907 Y13.2839
G01 X17.3842 Y13.3103
G01 X17.3801 Y13.3372
G00 Z1.0000
G00 X17.3948 Y13.2703
G01 F500.00
G01 Z-0.0400
G01 F500.00
G01 X17.4028 Y13.2442
G01 X17.4156 Y13.2201
G01 X17.4041 Y13.2448
G01 X17.3948 Y13.2703
G00 Z1.0000
G00 X17.4223 Y13.2076
G01 F500.00
G01 Z-0.0400
G01 F500.00
G01 X17.4352 Y13.1835
G01 X17.4525 Y13.1624
G01 X17.4364 Y13.1843
G01 X17.4223 Y13.2076
G00 Z1.0000
G00 X17.4615 Y13.1514
G01 F500.00
G01 Z-0.0400
G01 F500.00
G01 X17.4788 Y13.1303
G01 X17.4999 Y13.1130
G01 X17.4799 Y13.1314
G01 X17.4615 Y13.1514
G00 Z1.0000
G00 X17.5109 Y13.1040
G01 F500.00
G01 Z-0.0400
G01 F500.00
G01 X17.5320 Y13.0867
G01 X17.5561 Y13.0738
G01 X17.5328 Y13.0879
G01 X17.5109 Y13.1040
G00 Z1.0000
G00 X17.5686 Y13.0671
G01 F500.00
G01 Z-0.0400
G01 F500.00
G01 X17.5927 Y13.0543
G01 X17.6188 Y13.0463
G01 X17.5933 Y13.0556
G01 X17.5686 Y13.0671
G00 Z1.0000
G00 X17.6324 Y13.0422
G01 F500.00
G01 Z-0.0400
G01 F500.00
G01 X17.6585 Y13.0343
G01 X17.6857 Y13.0316
G01 X17.6588 Y13.0357
G01 X17.6324 Y13.0422
G00 Z1.0000
G00 X17.6857 Y12.7254
G01 F500.00
G01 Z-0.0400
G01 F500.00
G01 X17.6585 Y12.7227
G01 X17.6324 Y12.7148
G01 X17.6588 Y12.7213
G01 X17.6857 Y12.7254
G00 Z1.0000
G00 X17.6188 Y12.7107
G01 F500.00
G01 Z-0.0400
G01 F500.00
G01 X17.5927 Y12.7027
G01 X17.5686 Y12.6899
G01 X17.5933 Y12.7014
G01 X17.6188 Y12.7107
G00 Z1.0000
G00 X17.5561 Y12.6832
G01 F500.00
G01 Z-0.0400
G01 F500.00
G01 X17.5320 Y12.6703
G01 X17.5109 Y12.6530
G01 X17.5328 Y12.6691
G01 X17.5561 Y12.6832
G00 Z1.0000
G00 X17.4999 Y12.6440
G01 F500.00
G01 Z-0.0400
G01 F500.00
G01 X17.4788 Y12.6267
G01 X17.4615 Y12.6056
G01 X17.4799 Y12.6256
G01 X17.4999 Y12.6440
G00 Z1.0000
G00 X17.4525 Y12.5946
G01 F500.00
G01 Z-0.0400
G01 F500.00
G01 X17.4352 Y12.5735
G01 X17.4223 Y12.5494
G01 X17.4364 Y12.5727
G01 X17.4525 Y12.5946
G00 Z1.0000
G00 X17.4156 Y12.5369
G01 F500.00
G01 Z-0.0400
G01 F500.00
G01 X17.4028 Y12.5128
G01 X17.3948 Y12.4867
G01 X17.4041 Y12.5122
G01 X17.4156 Y12.5369
G00 Z1.0000
G00 X17.3907 Y12.4731
G01 F500.00
G01 Z-0.0400
G01 F500.00
G01 X17.3828 Y12.4470
G01 X17.3801 Y12.4198
G01 X17.3842 Y12.4467
G01 X17.3907 Y12.4731
G00 Z1.0000
G00 X17.3787 Y12.4057
G01 F500.00
G01 Z-0.0400
G01 F500.00
G01 X17.3753 Y12.3712
G01 X17.3753 Y11.7108
G01 X17.3787 Y11.6763
G01 X17.3775 Y11.7035
G01 X17.3775 Y12.3785
G01 X17.3787 Y12.4057
G00 Z1.0000
G00 X17.3801 Y11.6622
G01 F500.00
G01 Z-0.0400
G01 F500.00
G01 X17.3828 Y11.6350
G01 X17.3907 Y11.6089
G01 X17.3842 Y11.6353
G01 X17.3801 Y11.6622
G00 Z1.0000
G00 X17.3948 Y11.5953
G01 F500.00
G01 Z-0.0400
G01 F500.00
G01 X17.4028 Y11.5692
G01 X17.4156 Y11.5451
G01 X17.4041 Y11.5698
G01 X17.3948 Y11.5953
G00 Z1.0000
G00 X17.4223 Y11.5326
G01 F500.00
G01 Z-0.0400
G01 F500.00
G01 X17.4352 Y11.5085
G01 X17.4525 Y11.4874
G01 X17.4364 Y11.5093
G01 X17.4223 Y11.5326
G00 Z1.0000
G00 X17.4615 Y11.4764
G01 F500.00
G01 Z-0.0400
G01 F500.00
G01 X17.4788 Y11.4553
G01 X17.4999 Y11.4380
G01 X17.4799 Y11.4564
G01 X17.4615 Y11.4764
G00 Z1.0000
G00 X17.5109 Y11.4290
G01 F500.00
G01 Z-0.0400
G01 F500.00
G01 X17.5320 Y11.4117
G01 X17.5561 Y11.3988
G01 X17.5328 Y11.4129
G01 X17.5109 Y11.4290
G00 Z1.0000
G00 X17.5686 Y11.3921
G01 F500.00
G01 Z-0.0400
G01 F500.00
G01 X17.5927 Y11.3793
G01 X17.6188 Y11.3713
G01 X17.5933 Y11.3806
G01 X17.5686 Y11.3921
G00 Z1.0000
G00 X17.6324 Y11.3672
G01 F500.00
G01 Z-0.0400
G01 F500.00
G01 X17.6585 Y11.3593
G01 X17.6857 Y11.3566
G01 X17.6588 Y11.3607
G01 X17.6324 Y11.3672
G00 Z1.0000
G00 X17.6998 Y11.3552
G01 F500.00
G01 Z-0.0400
G01 F500.00
G01 X17.7343 Y11.3518
G01 X20.6197 Y11.3518
G01 X20.6542 Y11.3552
G01 X20.6270 Y11.3540
G01 X17.7270 Y11.3540
G01 X17.6998 Y11.3552
G00 Z1.0000
G00 X17.6998 Y10.3378
G01 F500.00
G01 Z-0.0400
G01 F500.00
G01 X17.7270 Y10.3390
G01 X20.6270 Y10.3390
G01 X20.6542 Y10.3378
G01 X20.6197 Y10.3412
G01 X17.7343 Y10.3412
G01 X17.6998 Y10.3378
G00 Z1.0000
G00 X17.6324 Y10.3258
G01 F500.00
G01 Z-0.0400
G01 F500.00
G01 X17.6588 Y10.3323
G01 X17.6857 Y10.3364
G01 X17.6585 Y10.3337
G01 X17.6324 Y10.3258
G00 Z1.0000
G00 X17.5686 Y10.3009
G01 F500.00
G01 Z-0.0400
G01 F500.00
G01 X17.5933 Y10.3124
G01 X17.6188 Y10.3217
G01 X17.5927 Y10.3137
G01 X17.5686 Y10.3009
G00 Z1.0000
G00 X17.5109 Y10.2640
G01 F500.00
G01 Z-0.0400
G01 F500.00
G01 X17.5328 Y10.2801
G01 X17.5561 Y10.2942
G01 X17.5320 Y10.2813
G01 X17.5109 Y10.2640
G00 Z1.0000
G00 X17.4615 Y10.2166
G01 F500.00
G01 Z-0.0400
G01 F500.00
G01 X17.4799 Y10.2366
G01 X17.4999 Y10.2550
G01 X17.4788 Y10.2377
G01 X17.4615 Y10.2166
G00 Z1.0000
G00 X17.4223 Y10.1604
G01 F500.00
G01 Z-0.0400
G01 F500.00
G01 X17.4364 Y10.1837
G01 X17.4525 Y10.2056
G01 X17.4352 Y10.1845
G01 X17.4223 Y10.1604
G00 Z1.0000
G00 X20.6683 Y10.3364
G01 F500.00
G01 Z-0.0400
G01 F500.00
G01 X20.6952 Y10.3323
G01 X20.7216 Y10.3258
G01 X20.6955 Y10.3337
G01 X20.6683 Y10.3364
G00 Z1.0000
G00 X20.7352 Y10.3217
G01 F500.00
G01 Z-0.0400
G01 F500.00
G01 X20.7607 Y10.3124
G01 X20.7854 Y10.3009
G01 X20.7613 Y10.3137
G01 X20.7352 Y10.3217
G00 Z1.0000
G00 X20.7979 Y10.2942
G01 F500.00
G01 Z-0.0400
G01 F500.00
G01 X20.8212 Y10.2801
G01 X20.8431 Y10.2640
G01 X20.8220 Y10.2813
G01 X20.7979 Y10.2942
G00 Z1.0000
G00 X20.8541 Y10.2550
G01 F500.00
G01 Z-0.0400
G01 F500.00
G01 X20.8741 Y10.2366
G01 X20.8925 Y10.2166
G01 X20.8752 Y10.2377
G01 X20.8541 Y10.2550
G00 Z1.0000
G00 X20.9015 Y10.2056
G01 F500.00
G01 Z-0.0400
G01 F500.00
G01 X20.9176 Y10.1837
G01 X20.9317 Y10.1604
G01 X20.9188 Y10.1845
G01 X20.9015 Y10.2056
G00 Z1.0000
G00 X20.9384 Y10.1479
G01 F500.00
G01 Z-0.0400
G01 F500.00
G01 X20.9499 Y10.1232
G01 X20.9592 Y10.0977
G01 X20.9512 Y10.1238
G01 X20.9384 Y10.1479
G00 Z1.0000
G00 X20.6683 Y11.3566
G01 F500.00
G01 Z-0.0400
G01 F500.00
G01 X20.6955 Y11.3593
G01 X20.7216 Y11.3672
G01 X20.6952 Y11.3607
G01 X20.6683 Y11.3566
G00 Z1.0000
G00 X20.7352 Y11.3713
G01 F500.00
G01 Z-0.0400
G01 F500.00
G01 X20.7613 Y11.3793
G01 X20.7854 Y11.3921
G01 X20.7607 Y11.3806
G01 X20.7352 Y11.3713
G00 Z1.0000
G00 X20.7979 Y11.3988
G01 F500.00
G01 Z-0.0400
G01 F500.00
G01 X20.8220 Y11.4117
G01 X20.8431 Y11.4290
G01 X20.8212 Y11.4129
G01 X20.7979 Y11.3988
G00 Z1.0000
G00 X20.8541 Y11.4380
G01 F500.00
G01 Z-0.0400
G01 F500.00
G01 X20.8752 Y11.4553
G01 X20.8925 Y11.4764
G01 X20.8741 Y11.4564
G01 X20.8541 Y11.4380
G00 Z1.0000
G00 X20.9015 Y11.4874
G01 F500.00
G01 Z-0.0400
G01 F500.00
G01 X20.9188 Y11.5085
G01 X20.9317 Y11.5326
G01 X20.9176 Y11.5093
G01 X20.9015 Y11.4874
G00 Z1.0000
G00 X20.9015 Y18.4091
G01 F500.00
G01 Z-0.0400
G01 F500.00
G01 X20.9176 Y18.3872
G01 X20.9317 Y18.3639
G01 X20.9188 Y18.3880
G01 X20.9015 Y18.4091
G00 Z1.0000
G00 X20.8541 Y18.4585
G01 F500.00
G01 Z-0.0400
G01 F500.00
G01 X20.8741 Y18.4401
G01 X20.8925 Y18.4201
G01 X20.8752 Y18.4412
G01 X20.8541 Y18.4585
G00 Z1.0000
G00 X20.7979 Y18.4977
G01 F500.00
G01 Z-0.0400
G01 F500.00
G01 X20.8212 Y18.4836
G01 X20.8431 Y18.4675
G01 X20.8220 Y18.4848
G01 X20.7979 Y18.4977
G00 Z1.0000
G00 X20.7352 Y18.5252
G01 F500.00
G01 Z-0.0400
G01 F500.00
G01 X20.7607 Y18.5159
G01 X20.7854 Y18.5044
G01 X20.7613 Y18.5172
G01 X20.7352 Y18.5252
G00 Z1.0000
G00 X20.6683 Y18.5399
G01 F500.00
G01 Z-0.0400
G01 F500.00
G01 X20.6952 Y18.5358
G01 X20.7216 Y18.5293
G01 X20.6955 Y18.5372
G01 X20.6683 Y18.5399
G00 Z1.0000
G00 X20.6542 Y19.6342
G01 F500.00
G01 Z-0.0400
G01 F500.00
G01 X20.6270 Y19.6330
G01 X17.7270 Y19.6330
G01 X17.6998 Y19.6342
G01 X17.7343 Y19.6308
G01 X20.6197 Y19.6308
G01 X20.6542 Y19.6342
G00 Z1.0000
G00 X20.7216 Y19.6462
G01 F500.00
G01 Z-0.0400
G01 F500.00
G01 X20.6952 Y19.6397
G01 X20.6683 Y19.6356
G01 X20.6955 Y19.6383
G01 X20.7216 Y19.6462
G00 Z1.0000
G00 X20.7854 Y19.6711
G01 F500.00
G01 Z-0.0400
G01 F500.00
G01 X20.7607 Y19.6596
G01 X20.7352 Y19.6503
G01 X20.7613 Y19.6583
G01 X20.7854 Y19.6711
G00 Z1.0000
G00 X20.8431 Y19.7080
G01 F500.00
G01 Z-0.0400
G01 F500.00
G01 X20.8212 Y19.6919
G01 X20.7979 Y19.6778
G01 X20.8220 Y19.6907
G01 X20.8431 Y19.7080
G00 Z1.0000
G00 X20.8925 Y19.7554
G01 F500.00
G01 Z-0.0400
G01 F500.00
G01 X20.8741 Y19.7354
G01 X20.8541 Y19.7170
G01 X20.8752 Y19.7343
G01 X20.8925 Y19.7554
G00 Z1.0000
G00 X20.9317 Y19.8116
G01 F500.00
G01 Z-0.0400
G01 F500.00
G01 X20.9176 Y19.7883
G01 X20.9015 Y19.7664
G01 X20.9188 Y19.7875
G01 X20.9317 Y19.8116
G00 Z1.0000
G00 X17.6857 Y19.6356
G01 F500.00
G01 Z-0.0400
G01 F500.00
G01 X17.6588 Y19.6397
G01 X17.6324 Y19.6462
G01 X17.6585 Y19.6383
G01 X17.6857 Y19.6356
G00 Z1.0000
G00 X17.6188 Y19.6503
G01 F500.00
G01 Z-0.0400
G01 F500.00
G01 X17.5933 Y19.6596
G01 X17.5686 Y19.6711
G01 X17.5927 Y19.6583
G01 X17.6188 Y19.6503
G00 Z1.0000
G00 X17.5561 Y19.6778
G01 F500.00
G01 Z-0.0400
G01 F500.00
G01 X17.5328 Y19.6919
G01 X17.5109 Y19.7080
G01 X17.5320 Y19.6907
G01 X17.5561 Y19.6778
G00 Z1.0000
G00 X17.4999 Y19.7170
G01 F500.00
G01 Z-0.0400
G01 F500.00
G01 X17.4799 Y19.7354
G01 X17.4615 Y19.7554
G01 X17.4788 Y19.7343
G01 X17.4999 Y19.7170
G00 Z1.0000
G00 X17.4525 Y19.7664
G01 F500.00
G01 Z-0.0400
G01 F500.00
G01 X17.4364 Y19.7883
G01 X17.4223 Y19.8116
G01 X17.4352 Y19.7875
G01 X17.4525 Y19.7664
G00 Z1.0000
G00 X17.4156 Y19.8241
G01 F500.00
G01 Z-0.0400
G01 F500.00
G01 X17.4041 Y19.8488
G01 X17.3948 Y19.8743
G01 X17.4028 Y19.8482
G01 X17.4156 Y19.8241
G00 Z1.0000
G00 X17.3907 Y19.8879
G01 F500.00
G01 Z-0.0400
G01 F500.00
G01 X17.3842 Y19.9143
G01 X17.3801 Y19.9412
G01 X17.3828 Y19.9140
G01 X17.3907 Y19.8879
G00 Z1.0000
G00 X17.3787 Y19.9553
G01 F500.00
G01 Z-0.0400
G01 F500.00
G01 X17.3775 Y19.9825
G01 X17.3775 Y20.6575
G01 X17.3787 Y20.6847
G01 X17.3753 Y20.6502
G01 X17.3753 Y19.9898
G01 X17.3787 Y19.9553
G00 Z1.0000
G00 X17.3801 Y20.6988
G01 F500.00
G01 Z-0.0400
G01 F500.00
G01 X17.3842 Y20.7257
G01 X17.3907 Y20.7521
G01 X17.3828 Y20.7260
G01 X17.3801 Y20.6988
G00 Z1.0000
G00 X17.3948 Y20.7657
G01 F500.00
G01 Z-0.0400
G01 F500.00
G01 X17.4041 Y20.7912
G01 X17.4156 Y20.8159
G01 X17.4028 Y20.7918
G01 X17.3948 Y20.7657
G00 Z1.0000
G00 X17.4223 Y20.8284
G01 F500.00
G01 Z-0.0400
G01 F500.00
G01 X17.4364 Y20.8517
G01 X17.4525 Y20.8736
G01 X17.4352 Y20.8525
G01 X17.4223 Y20.8284
G00 Z1.0000
G00 X17.4615 Y20.8846
G01 F500.00
G01 Z-0.0400
G01 F500.00
G01 X17.4799 Y20.9046
G01 X17.4999 Y20.9230
G01 X17.4788 Y20.9057
G01 X17.4615 Y20.8846
G00 Z1.0000
G00 X17.5109 Y20.9320
G01 F500.00
G01 Z-0.0400
G01 F500.00
G01 X17.5328 Y20.9481
G01 X17.5561 Y20.9622
G01 X17.5320 Y20.9493
G01 X17.5109 Y20.9320
G00 Z1.0000
G00 X17.5686 Y20.9689
G01 F500.00
G01 Z-0.0400
G01 F500.00
G01 X17.5933 Y20.9804
G01 X17.6188 Y20.9897
G01 X17.5927 Y20.9817
G01 X17.5686 Y20.9689
G00 Z1.0000
G00 X17.6324 Y20.9938
G01 F500.00
G01 Z-0.0400
G01 F500.00
G01 X17.6588 Y21.0003
G01 X17.6857 Y21.0044
G01 X17.6585 Y21.0017
G01 X17.6324 Y20.9938
G00 Z1.0000
G00 X17.6857 Y21.3106
G01 F500.00
G01 Z-0.0400
G01 F500.00
G01 X17.6588 Y21.3147
G01 X17.6324 Y21.3212
G01 X17.6585 Y21.3133
G01 X17.6857 Y21.3106
G00 Z1.0000
G00 X17.6188 Y21.3253
G01 F500.00
G01 Z-0.0400
G01 F500.00
G01 X17.5933 Y21.3346
G01 X17.5686 Y21.3461
G01 X17.5927 Y21.3333
G01 X17.6188 Y21.3253
G00 Z1.0000
G00 X17.5561 Y21.3528
G01 F500.00
G01 Z-0.0400
G01 F500.00
G01 X17.5328 Y21.3669
G01 X17.5109 Y21.3830
G01 X17.5320 Y21.3657
G01 X17.5561 Y21.3528
G00 Z1.0000
G00 X17.4999 Y21.3920
G01 F500.00
G01 Z-0.0400
G01 F500.00
G01 X17.4799 Y21.4104
G01 X17.4615 Y21.4304
G01 X17.4788 Y21.4093
G01 X17.4999 Y21.3920
G00 Z1.0000
G00 X17.4525 Y21.4414
G01 F500.00
G01 Z-0.0400
G01 F500.00
G01 X17.4364 Y21.4633
G01 X17.4223 Y21.4866
G01 X17.4352 Y21.4625
G01 X17.4525 Y21.4414
G00 Z1.0000
G00 X17.4156 Y21.4991
G01 F500.00
G01 Z-0.0400
G01 F500.00
G01 X17.4041 Y21.5238
G01 X17.3948 Y21.5493
G01 X17.4028 Y21.5232
G01 X17.4156 Y21.4991
G00 Z1.0000
G00 X15.2385 Y21.2907
G01 F500.00
G01 Z-0.0400
G01 F500.00
G01 X15.2385 Y21.2895
G01 X15.5600 Y21.2895
G01 X15.5722 Y21.2888
G01 X15.5842 Y21.2865
G01 X15.5935 Y21.2837
G01 X15.6047 Y21.2789
G01 X15.6153 Y21.2727
G01 X15.6250 Y21.2653
G01 X15.6321 Y21.2586
G01 X15.6399 Y21.2493
G01 X15.6453 Y21.2412
G01 X15.6510 Y21.2303
G01 X15.6552 Y21.2189
G01 X15.6571 Y21.2118
G01 X15.6584 Y21.2046
G01 X15.6595 Y21.1924
G01 X15.6595 Y20.5935
G01 X15.6606 Y20.5935
G01 X15.6617 Y21.1828
G01 X15.6590 Y21.2097
G01 X15.6533 Y21.2286
G01 X15.6439 Y21.2461
G01 X15.6314 Y21.2614
G01 X15.6161 Y21.2739
G01 X15.5986 Y21.2833
G01 X15.5797 Y21.2890
G01 X15.5529 Y21.2917
G01 X15.2385 Y21.2907
G00 Z1.0000
G00 X14.1094 Y20.5935
G01 F500.00
G01 Z-0.0400
G01 F500.00
G01 X14.1105 Y20.5935
G01 X14.1105 Y21.1924
G01 X14.1116 Y21.2046
G01 X14.1141 Y21.2165
G01 X14.1163 Y21.2235
G01 X14.1190 Y21.2303
G01 X14.1247 Y21.2412
G01 X14.1316 Y21.2512
G01 X14.1396 Y21.2604
G01 X14.1488 Y21.2684
G01 X14.1568 Y21.2741
G01 X14.1653 Y21.2789
G01 X14.1765 Y21.2837
G01 X14.1882 Y21.2871
G01 X14.1978 Y21.2888
G01 X14.2100 Y21.2895
G01 X14.5315 Y21.2895
G01 X14.5315 Y21.2907
G01 X14.2171 Y21.2917
G01 X14.1903 Y21.2890
G01 X14.1714 Y21.2833
G01 X14.1539 Y21.2739
G01 X14.1386 Y21.2614
G01 X14.1261 Y21.2461
G01 X14.1167 Y21.2286
G01 X14.1110 Y21.2097
G01 X14.1083 Y21.1828
G01 X14.1094 Y20.5935
G00 Z1.0000
G00 X14.3991 Y19.1889
G01 F500.00
G01 Z-0.0400
G01 F500.00
G01 X14.5315 Y19.1893
G01 X14.5315 Y19.1905
G01 X14.4007 Y19.1905
G01 X14.3991 Y19.1889
G00 Z1.0000
G00 X15.2385 Y19.1893
G01 F500.00
G01 Z-0.0400
G01 F500.00
G01 X15.5529 Y19.1883
G01 X15.5797 Y19.1910
G01 X15.5986 Y19.1967
G01 X15.6161 Y19.2061
G01 X15.6314 Y19.2186
G01 X15.6439 Y19.2339
G01 X15.6533 Y19.2514
G01 X15.6590 Y19.2703
G01 X15.6617 Y19.2972
G01 X15.6606 Y19.8865
G01 X15.6595 Y19.8865
G01 X15.6595 Y19.2876
G01 X15.6590 Y19.2802
G01 X15.6580 Y19.2730
G01 X15.6552 Y19.2611
G01 X15.6510 Y19.2497
G01 X15.6453 Y19.2388
G01 X15.6399 Y19.2307
G01 X15.6321 Y19.2214
G01 X15.6231 Y19.2131
G01 X15.6132 Y19.2059
G01 X15.6047 Y19.2011
G01 X15.5935 Y19.1963
G01 X15.5842 Y19.1935
G01 X15.5722 Y19.1912
G01 X15.5600 Y19.1905
G01 X15.2385 Y19.1905
G01 X15.2385 Y19.1893
G00 Z1.0000
G00 X17.3948 Y18.3012
G01 F500.00
G01 Z-0.0400
G01 F500.00
G01 X17.4041 Y18.3267
G01 X17.4156 Y18.3514
G01 X17.4028 Y18.3273
G01 X17.3948 Y18.3012
G00 Z1.0000
G00 X17.4223 Y18.3639
G01 F500.00
G01 Z-0.0400
G01 F500.00
G01 X17.4364 Y18.3872
G01 X17.4525 Y18.4091
G01 X17.4352 Y18.3880
G01 X17.4223 Y18.3639
G00 Z1.0000
G00 X17.4615 Y18.4201
G01 F500.00
G01 Z-0.0400
G01 F500.00
G01 X17.4799 Y18.4401
G01 X17.4999 Y18.4585
G01 X17.4788 Y18.4412
G01 X17.4615 Y18.4201
G00 Z1.0000
G00 X17.5109 Y18.4675
G01 F500.00
G01 Z-0.0400
G01 F500.00
G01 X17.5328 Y18.4836
G01 X17.5561 Y18.4977
G01 X17.5320 Y18.4848
G01 X17.5109 Y18.4675
G00 Z1.0000
G00 X17.5686 Y18.5044
G01 F500.00
G01 Z-0.0400
G01 F500.00
G01 X17.5933 Y18.5159
G01 X17.6188 Y18.5252
G01 X17.5927 Y18.5172
G01 X17.5686 Y18.5044
G00 Z1.0000
G00 X17.6324 Y18.5293
G01 F500.00
G01 Z-0.0400
G01 F500.00
G01 X17.6588 Y18.5358
G01 X17.6857 Y18.5399
G01 X17.6585 Y18.5372
G01 X17.6324 Y18.5293
G00 Z1.0000
G00 X17.6998 Y18.5413
G01 F500.00
G01 Z-0.0400
G01 F500.00
G01 X17.7270 Y18.5425
G01 X20.6270 Y18.5425
G01 X20.6542 Y18.5413
G01 X20.6197 Y18.5447
G01 X17.7343 Y18.5447
G01 X17.6998 Y18.5413
G00 Z1.0000
G00 X20.3530 Y27.5124
G01 F500.00
G01 Z-0.0400
G01 F500.00
G01 X22.6908 Y27.5124
G01 X24.4834 Y25.7198
G01 X24.4834 Y22.6610
G01 X24.4849 Y22.6316
G01 X24.4892 Y22.6025
G01 X24.4963 Y22.5740
G01 X24.5062 Y22.5463
G01 X24.5166 Y22.5241
G01 X24.5200 Y22.5176
G01 X24.5313 Y22.4986
G01 X24.5367 Y22.4905
G01 X24.5514 Y22.4709
G01 X24.5712 Y22.4491
G01 X24.6749 Y22.3454
G01 X24.6949 Y22.3274
G01 X24.7186 Y22.3099
G01 X24.7438 Y22.2947
G01 X24.7659 Y22.2842
G01 X24.7749 Y22.2804
G01 X24.7980 Y22.2723
G01 X24.8218 Y22.2662
G01 X24.8290 Y22.2647
G01 X24.8532 Y22.2611
G01 X24.8850 Y22.2594
G01 X24.9144 Y22.2608
G01 X24.9434 Y22.2651
G01 X24.9673 Y22.2710
G01 X24.9743 Y22.2730
G01 X24.9951 Y22.2804
G01 X25.0041 Y22.2842
G01 X25.0284 Y22.2959
G01 X25.0494 Y22.3085
G01 X25.0554 Y22.3127
G01 X25.0751 Y22.3274
G01 X25.0968 Y22.3471
G01 X25.1166 Y22.3689
G01 X25.1341 Y22.3925
G01 X25.1492 Y22.4177
G01 X25.1618 Y22.4443
G01 X25.1717 Y22.4720
G01 X25.1783 Y22.4981
G01 X25.1832 Y22.5296
G01 X25.1846 Y22.5590
G01 X25.1846 Y23.7959
G01 X25.6071 Y24.2184
G01 X47.2279 Y24.2184
G01 X59.7019 Y11.7444
G01 X59.7019 Y2.4166
G01 X59.7033 Y2.3896
G01 X59.7077 Y2.3605
G01 X59.7148 Y2.3320
G01 X59.7229 Y2.3089
G01 X59.7267 Y2.2999
G01 X59.7362 Y2.2799
G01 X59.7397 Y2.2735
G01 X59.7524 Y2.2526
G01 X59.7699 Y2.2289
G01 X59.7897 Y2.2071
G01 X59.9227 Y2.0742
G01 X59.9444 Y2.0544
G01 X59.9681 Y2.0369
G01 X59.9933 Y2.0218
G01 X60.0198 Y2.0092
G01 X60.0429 Y2.0008
G01 X60.0499 Y1.9986
G01 X60.0713 Y1.9932
G01 X60.0809 Y1.9913
G01 X60.1051 Y1.9878
G01 X60.1345 Y1.9864
G01 X82.8040 Y1.9864
G01 X82.8285 Y1.9875
G01 X82.8382 Y1.9884
G01 X82.8600 Y1.9917
G01 X82.8672 Y1.9932
G01 X82.8910 Y1.9993
G01 X82.9187 Y2.0092
G01 X82.9452 Y2.0218
G01 X82.9663 Y2.0343
G01 X82.9725 Y2.0383
G01 X82.9902 Y2.0514
G01 X82.9978 Y2.0576
G01 X83.0158 Y2.0742
G01 X83.8513 Y2.9096
G01 X83.8782 Y2.8973
G01 X83.9521 Y2.8708
G01 X84.0329 Y2.8503
G01 X84.0401 Y2.8490
G01 X84.1177 Y2.8376
G01 X84.1986 Y2.8335
G01 X84.2059 Y2.8336
G01 X84.2843 Y2.8376
G01 X84.3667 Y2.8498
G01 X84.4476 Y2.8701
G01 X84.5261 Y2.8982
G01 X84.6015 Y2.9338
G01 X84.6730 Y2.9767
G01 X84.7399 Y3.0263
G01 X84.7982 Y3.0789
G01 X84.8034 Y3.0841
G01 X84.8577 Y3.1441
G01 X84.9045 Y3.2071
G01 X84.9087 Y3.2131
G01 X84.9513 Y3.2847
G01 X84.9849 Y3.3557
G01 X84.9951 Y3.3834
G01 X87.7594 Y3.3834
G01 X87.7864 Y3.3848
G01 X87.8154 Y3.3892
G01 X87.8440 Y3.3963
G01 X87.8717 Y3.4062
G01 X87.8982 Y3.4188
G01 X87.9234 Y3.4339
G01 X87.9471 Y3.4514
G01 X87.9653 Y3.4678
G01 X98.2558 Y13.7582
G01 X98.2756 Y13.7799
G01 X98.2903 Y13.7996
G01 X98.2957 Y13.8077
G01 X98.3070 Y13.8266
G01 X98.3104 Y13.8331
G01 X98.3208 Y13.8553
G01 X98.3307 Y13.8830
G01 X98.3378 Y13.9116
G01 X98.3419 Y13.9382
G01 X98.3436 Y13.9700
G01 X98.3436 Y45.1990
G01 X98.3422 Y45.2284
G01 X98.3373 Y45.2598
G01 X98.3307 Y45.2860
G01 X98.3226 Y45.3091
G01 X98.3198 Y45.3159
G01 X98.3093 Y45.3381
G01 X98.2931 Y45.3654
G01 X98.2786 Y45.3852
G01 X98.2724 Y45.3928
G01 X98.2558 Y45.4108
G01 X97.8031 Y45.8636
G01 X97.7831 Y45.8816
G01 X97.7594 Y45.8991
G01 X97.7342 Y45.9142
G01 X97.7121 Y45.9248
G01 X97.7031 Y45.9286
G01 X97.6823 Y45.9360
G01 X97.6753 Y45.9380
G01 X97.6514 Y45.9438
G01 X97.6199 Y45.9484
G01 X97.5930 Y45.9496
G01 X88.4946 Y45.9496
G01 X88.4946 Y55.7459
G01 X88.5831 Y55.8344
G01 X97.6630 Y55.8344
G01 X97.6924 Y55.8358
G01 X97.7214 Y55.8402
G01 X97.7500 Y55.8473
G01 X97.7731 Y55.8554
G01 X97.7821 Y55.8592
G01 X97.8021 Y55.8687
G01 X97.8085 Y55.8722
G01 X97.8294 Y55.8849
G01 X97.8549 Y55.9040
G01 X97.8748 Y55.9222
G01 X99.4006 Y57.4479
G01 X99.4186 Y57.4679
G01 X99.4333 Y57.4876
G01 X99.4387 Y57.4957
G01 X99.4512 Y57.5168
G01 X99.4638 Y57.5433
G01 X99.4722 Y57.5664
G01 X99.4750 Y57.5757
G01 X99.4813 Y57.6020
G01 X99.4852 Y57.6286
G01 X99.4866 Y57.6580
G01 X99.4866 Y64.9605
G01 X99.4852 Y64.9899
G01 X99.4803 Y65.0213
G01 X99.4737 Y65.0475
G01 X99.4647 Y65.0729
G01 X99.4534 Y65.0974
G01 X99.4488 Y65.1060
G01 X99.4361 Y65.1269
G01 X99.4186 Y65.1506
G01 X99.3988 Y65.1723
G01 X99.3808 Y65.1889
G01 X99.3732 Y65.1951
G01 X99.3555 Y65.2082
G01 X99.3493 Y65.2122
G01 X99.3282 Y65.2247
G01 X99.3017 Y65.2373
G01 X99.2740 Y65.2472
G01 X99.2502 Y65.2533
G01 X99.2406 Y65.2552
G01 X99.2164 Y65.2587
G01 X99.1870 Y65.2601
G01 X95.7795 Y65.2601
G01 X95.7795 Y65.3124
G01 X95.7778 Y65.3443
G01 X95.7728 Y65.3782
G01 X95.7663 Y65.4046
G01 X95.7784 Y65.3648
G01 X95.7826 Y65.3533
G01 X95.7878 Y65.3422
G01 X95.7938 Y65.3316
G01 X95.7992 Y65.3234
G01 X95.8067 Y65.3138
G01 X95.8150 Y65.3048
G01 X95.8259 Y65.2949
G01 X95.8377 Y65.2862
G01 X95.8503 Y65.2786
G01 X95.8613 Y65.2733
G01 X95.8750 Y65.2682
G01 X95.8868 Y65.2649
G01 X95.8964 Y65.2630
G01 X95.9110 Y65.2613
G01 X95.9208 Y65.2610
G01 X99.1649 Y65.2610
G01 X99.1771 Y65.2615
G01 X99.1870 Y65.2624
G01 X99.2459 Y65.2566
G01 X99.3025 Y65.2394
G01 X99.3547 Y65.2115
G01 X99.4005 Y65.1740
G01 X99.4380 Y65.1282
G01 X99.4659 Y65.0760
G01 X99.4831 Y65.0194
G01 X99.4889 Y64.9605
G01 X99.4880 Y64.9506
G01 X99.4875 Y64.9384
G01 X99.4875 Y57.6801
G01 X99.4880 Y57.6679
G01 X99.4889 Y57.6580
G01 X99.4831 Y57.5991
G01 X99.4659 Y57.5425
G01 X99.4380 Y57.4903
G01 X99.4005 Y57.4445
G01 X99.3928 Y57.4382
G01 X99.3838 Y57.4299
G01 X97.8911 Y55.9372
G01 X97.8828 Y55.9282
G01 X97.8765 Y55.9205
G01 X97.8307 Y55.8830
G01 X97.7785 Y55.8551
G01 X97.7219 Y55.8379
G01 X97.6630 Y55.8321
G01 X97.6531 Y55.8330
G01 X97.6409 Y55.8335
G01 X90.1068 Y55.8335
G01 X90.0922 Y55.8328
G01 X90.0777 Y55.8307
G01 X90.0634 Y55.8271
G01 X90.0496 Y55.8221
G01 X90.0364 Y55.8159
G01 X90.0238 Y55.8083
G01 X90.0120 Y55.7996
G01 X90.0011 Y55.7897
G01 X89.9913 Y55.7789
G01 X89.9825 Y55.7671
G01 X89.9750 Y55.7545
G01 X89.9687 Y55.7412
G01 X89.9638 Y55.7274
G01 X89.9602 Y55.7132
G01 X89.9580 Y55.6987
G01 X89.9573 Y55.6840
G01 X89.9578 Y55.6718
G01 X89.9586 Y55.6645
G01 X89.9602 Y55.6548
G01 X89.9631 Y55.6429
G01 X89.9669 Y55.6313
G01 X89.9707 Y55.6223
G01 X89.9750 Y55.6135
G01 X89.9883 Y55.5886
G01 X89.9940 Y55.5697
G01 X89.9967 Y55.5427
G01 X89.9967 Y54.0073
G01 X89.9940 Y53.9803
G01 X89.9883 Y53.9614
G01 X89.9789 Y53.9439
G01 X89.9664 Y53.9286
G01 X89.9511 Y53.9161
G01 X89.9336 Y53.9067
G01 X89.9147 Y53.9010
G01 X89.8803 Y53.8976
G01 X89.8682 Y53.8959
G01 X89.8539 Y53.8926
G01 X89.8423 Y53.8887
G01 X89.8355 Y53.8860
G01 X89.8267 Y53.8818
G01 X89.8140 Y53.8744
G01 X89.8020 Y53.8659
G01 X89.7928 Y53.8579
G01 X89.7876 Y53.8528
G01 X89.7810 Y53.8455
G01 X89.7721 Y53.8339
G01 X89.7643 Y53.8214
G01 X89.7578 Y53.8083
G01 X89.7527 Y53.7945
G01 X89.7489 Y53.7804
G01 X89.7465 Y53.7659
G01 X89.7455 Y53.7512
G01 X89.7455 Y47.8488
G01 X89.7465 Y47.8341
G01 X89.7479 Y47.8244
G01 X89.7494 Y47.8173
G01 X89.7534 Y47.8032
G01 X89.7569 Y47.7940
G01 X89.7609 Y47.7851
G01 X89.7643 Y47.7786
G01 X89.7693 Y47.7702
G01 X89.7779 Y47.7583
G01 X89.7893 Y47.7455
G01 X89.8001 Y47.7356
G01 X89.8119 Y47.7269
G01 X89.8245 Y47.7193
G01 X89.8378 Y47.7131
G01 X89.8493 Y47.7089
G01 X89.8611 Y47.7056
G01 X89.8706 Y47.7037
G01 X89.8803 Y47.7024
G01 X89.9147 Y47.6990
G01 X89.9336 Y47.6933
G01 X89.9511 Y47.6839
G01 X89.9664 Y47.6714
G01 X89.9789 Y47.6561
G01 X89.9883 Y47.6386
G01 X89.9940 Y47.6197
G01 X89.9967 Y47.5927
G01 X89.9967 Y47.4750
G01 X89.9972 Y47.4628
G01 X89.9991 Y47.4482
G01 X90.0024 Y47.4339
G01 X90.0072 Y47.4200
G01 X90.0121 Y47.4089
G01 X90.0155 Y47.4024
G01 X90.0219 Y47.3919
G01 X90.0322 Y47.3783
G01 X90.0405 Y47.3693
G01 X90.0477 Y47.3626
G01 X90.0533 Y47.3579
G01 X90.0631 Y47.3507
G01 X90.0736 Y47.3443
G01 X90.0801 Y47.3409
G01 X90.0890 Y47.3369
G01 X90.1005 Y47.3327
G01 X90.1170 Y47.3283
G01 X90.1291 Y47.3265
G01 X90.1364 Y47.3258
G01 X90.1462 Y47.3255
G01 X98.6851 Y47.3255
G01 X98.6973 Y47.3260
G01 X98.7170 Y47.3279
G01 X98.8151 Y47.3182
G01 X98.9095 Y47.2896
G01 X98.9964 Y47.2431
G01 X99.0726 Y47.1806
G01 X99.0852 Y47.1653
G01 X99.0935 Y47.1563
G01 X99.4548 Y46.7950
G01 X99.4638 Y46.7867
G01 X99.4791 Y46.7741
G01 X99.5416 Y46.6979
G01 X99.5902 Y46.6071
G01 X99.5991 Y46.5926
G01 X99.6064 Y46.5828
G01 X99.6163 Y46.5719
G01 X99.6271 Y46.5621
G01 X99.6369 Y46.5547
G01 X99.6494 Y46.5470
G01 X99.6625 Y46.5405
G01 X99.6763 Y46.5353
G01 X99.6881 Y46.5321
G01 X99.7025 Y46.5295
G01 X99.7122 Y46.5285
G01 X99.7244 Y46.5282
G01 X99.7342 Y46.5287
G01 X99.7415 Y46.5295
G01 X99.7536 Y46.5315
G01 X99.7677 Y46.5353
G01 X99.7815 Y46.5405
G01 X99.7946 Y46.5470
G01 X99.8051 Y46.5533
G01 X99.8169 Y46.5621
G01 X99.8277 Y46.5719
G01 X99.8376 Y46.5828
G01 X99.8463 Y46.5946
G01 X99.8527 Y46.6051
G01 X99.8582 Y46.6160
G01 X99.8619 Y46.6250
G01 X99.8658 Y46.6366
G01 X99.8691 Y46.6509
G01 X99.8708 Y46.6630
G01 X99.8715 Y46.6776
G01 X99.8715 Y99.7220
G01 X99.8708 Y99.7367
G01 X99.8687 Y99.7512
G01 X99.8651 Y99.7654
G01 X99.8611 Y99.7770
G01 X99.8550 Y99.7903
G01 X99.8477 Y99.8030
G01 X99.8391 Y99.8150
G01 X99.8311 Y99.8242
G01 X99.8260 Y99.8294
G01 X99.8187 Y99.8360
G01 X99.8071 Y99.8449
G01 X99.7946 Y99.8527
G01 X99.7815 Y99.8592
G01 X99.7654 Y99.8651
G01 X99.7512 Y99.8687
G01 X99.7367 Y99.8708
G01 X99.7220 Y99.8715
G01 X66.0900 Y99.8715
G01 X66.0753 Y99.8708
G01 X66.0608 Y99.8687
G01 X66.0466 Y99.8651
G01 X66.0328 Y99.8601
G01 X66.0195 Y99.8539
G01 X66.0069 Y99.8463
G01 X65.9951 Y99.8376
G01 X65.9843 Y99.8277
G01 X65.9744 Y99.8169
G01 X65.9657 Y99.8051
G01 X65.9581 Y99.7925
G01 X65.9519 Y99.7792
G01 X65.9469 Y99.7654
G01 X65.9433 Y99.7512
G01 X65.9412 Y99.7367
G01 X65.9405 Y99.7220
G01 X65.9406 Y69.9946
G01 X65.9415 Y69.9824
G01 X65.9439 Y69.9679
G01 X65.9469 Y69.9560
G01 X65.9519 Y69.9422
G01 X65.9581 Y69.9290
G01 X65.9657 Y69.9164
G01 X65.9744 Y69.9046
G01 X65.9826 Y69.8955
G01 X65.9933 Y69.8854
G01 X66.0029 Y69.8779
G01 X66.0153 Y69.8700
G01 X66.0239 Y69.8654
G01 X66.0350 Y69.8604
G01 X66.0489 Y69.8557
G01 X66.0608 Y69.8528
G01 X66.0753 Y69.8506
G01 X66.0876 Y69.8500
G01 X66.0949 Y69.8500
G01 X66.1253 Y69.8527
G01 X67.3183 Y69.8517
G01 X67.3183 Y69.8505
G01 X66.3680 Y69.8505
G01 X66.3362 Y69.8490
G01 X66.3046 Y69.8446
G01 X66.2951 Y69.8427
G01 X66.2665 Y69.8355
G01 X66.2343 Y69.8239
G01 X66.2032 Y69.8092
G01 X66.1780 Y69.7942
G01 X66.1698 Y69.7888
G01 X66.1463 Y69.7712
G01 X66.1209 Y69.7481
G01 X66.0978 Y69.7227
G01 X66.0774 Y69.6952
G01 X66.0598 Y69.6658
G01 X66.0451 Y69.6347
G01 X66.0335 Y69.6025
G01 X66.0252 Y69.5692
G01 X66.0205 Y69.5377
G01 X66.0185 Y69.5010
G01 X66.0185 Y68.8260
G01 X66.0205 Y68.7893
G01 X66.0252 Y68.7578
G01 X66.0335 Y68.7245
G01 X66.0451 Y68.6923
G01 X66.0576 Y68.6656
G01 X66.0609 Y68.6591
G01 X66.0748 Y68.6360
G01 X66.0802 Y68.6278
G01 X66.0978 Y68.6043
G01 X66.1209 Y68.5789
G01 X66.1463 Y68.5558
G01 X66.1738 Y68.5354
G01 X66.2032 Y68.5178
G01 X66.2298 Y68.5051
G01 X66.2388 Y68.5013
G01 X66.2642 Y68.4923
G01 X66.2713 Y68.4902
G01 X66.2998 Y68.4832
G01 X66.3362 Y68.4780
G01 X66.3680 Y68.4765
G01 X69.2680 Y68.4765
G01 X69.3023 Y68.4782
G01 X69.3362 Y68.4832
G01 X69.3695 Y68.4915
G01 X69.4017 Y68.5031
G01 X69.4284 Y68.5156
G01 X69.4349 Y68.5189
G01 X69.4580 Y68.5328
G01 X69.4662 Y68.5382
G01 X69.4897 Y68.5558
G01 X69.5168 Y68.5806
G01 X69.5382 Y68.6043
G01 X69.5586 Y68.6318
G01 X69.5762 Y68.6612
G01 X69.5899 Y68.6900
G01 X69.6025 Y68.7245
G01 X69.6103 Y68.7554
G01 X69.6155 Y68.7893
G01 X69.6170 Y68.8140
G01 X69.6188 Y68.8140
G01 X69.6197 Y68.5831
G01 X69.6170 Y68.5563
G01 X69.6113 Y68.5374
G01 X69.6019 Y68.5199
G01 X69.5894 Y68.5046
G01 X69.5741 Y68.4921
G01 X69.5566 Y68.4827
G01 X69.5377 Y68.4770
G01 X69.5107 Y68.4743
G01 X69.2907 Y68.4745
G01 X69.2785 Y68.4740
G01 X69.2664 Y68.4725
G01 X69.2520 Y68.4694
G01 X69.2427 Y68.4666
G01 X69.2313 Y68.4622
G01 X69.2181 Y68.4557
G01 X69.2076 Y68.4494
G01 X69.1958 Y68.4406
G01 X69.1850 Y68.4308
G01 X69.1767 Y68.4218
G01 X69.1721 Y68.4161
G01 X69.1650 Y68.4061
G01 X69.1588 Y68.3955
G01 X69.1535 Y68.3845
G01 X69.1491 Y68.3731
G01 X69.1469 Y68.3661
G01 X69.1440 Y68.3542
G01 X69.1421 Y68.3421
G01 X69.1415 Y68.3348
G01 X69.1411 Y68.3226
G01 X69.1418 Y68.3104
G01 X69.1435 Y68.2983
G01 X69.1462 Y68.2863
G01 X69.1483 Y68.2793
G01 X69.1525 Y68.2678
G01 X69.1565 Y68.2589
G01 X69.1599 Y68.2524
G01 X69.1663 Y68.2419
G01 X69.1735 Y68.2321
G01 X69.1782 Y68.2264
G01 X69.1849 Y68.2193
G01 X69.1939 Y68.2110
G01 X69.2035 Y68.2035
G01 X69.2117 Y68.1981
G01 X69.2201 Y68.1931
G01 X69.2311 Y68.1878
G01 X69.2379 Y68.1851
G01 X69.2495 Y68.1812
G01 X69.2591 Y68.1788
G01 X69.2663 Y68.1775
G01 X69.2952 Y68.1743
G01 X69.2680 Y68.1755
G01 X66.3680 Y68.1755
G01 X66.3313 Y68.1735
G01 X66.2998 Y68.1688
G01 X66.2665 Y68.1605
G01 X66.2343 Y68.1489
G01 X66.2032 Y68.1342
G01 X66.1738 Y68.1166
G01 X66.1463 Y68.0962
G01 X66.1209 Y68.0731
G01 X66.0978 Y68.0477
G01 X66.0774 Y68.0202
G01 X66.0598 Y67.9908
G01 X66.0451 Y67.9597
G01 X66.0335 Y67.9275
G01 X66.0252 Y67.8942
G01 X66.0202 Y67.8603
G01 X66.0185 Y67.8284
G01 X66.0185 Y67.7881
G01 X65.4544 Y67.7881
G01 X65.4226 Y67.7864
G01 X65.3959 Y67.7823
G01 X65.3674 Y67.7752
G01 X65.3397 Y67.7653
G01 X65.3175 Y67.7549
G01 X65.3089 Y67.7503
G01 X65.2859 Y67.7362
G01 X65.2643 Y67.7201
G01 X65.2443 Y67.7021
G01 X34.9654 Y37.4232
G01 X34.9474 Y37.4032
G01 X34.9299 Y37.3796
G01 X34.9148 Y37.3543
G01 X34.9032 Y37.3300
G01 X34.8923 Y37.3001
G01 X34.8862 Y37.2763
G01 X34.8843 Y37.2667
G01 X34.8811 Y37.2449
G01 X34.8805 Y37.2376
G01 X34.8794 Y37.2131
G01 X34.8794 Y35.8461
G01 X34.8517 Y35.8359
G01 X34.7807 Y35.8023
G01 X34.7743 Y35.7988
G01 X34.7050 Y35.7570
G01 X34.6401 Y35.7087
G01 X34.5818 Y35.6561
G01 X34.5749 Y35.6492
G01 X34.5208 Y35.5890
G01 X34.4727 Y35.5240
G01 X34.4322 Y35.4567
G01 X34.4276 Y35.4481
G01 X34.3942 Y35.3771
G01 X34.3676 Y35.3032
G01 X34.3648 Y35.2939
G01 X34.3458 Y35.2177
G01 X34.3339 Y35.1377
G01 X34.3296 Y35.0569
G01 X34.3296 Y35.0471
G01 X34.3336 Y34.9687
G01 X34.3458 Y34.8863
G01 X34.3661 Y34.8054
G01 X34.3924 Y34.7315
G01 X34.3961 Y34.7224
G01 X34.4276 Y34.6559
G01 X34.4322 Y34.6473
G01 X34.4727 Y34.5800
G01 X34.5193 Y34.5169
G01 X34.5255 Y34.5094
G01 X34.5749 Y34.4548
G01 X34.5818 Y34.4479
G01 X34.6401 Y34.3953
G01 X34.7070 Y34.3457
G01 X34.7785 Y34.3028
G01 X34.8494 Y34.2691
G01 X34.8585 Y34.2654
G01 X34.9278 Y34.2406
G01 X34.9371 Y34.2378
G01 X35.0133 Y34.2188
G01 X35.0957 Y34.2066
G01 X35.1741 Y34.2026
G01 X35.1839 Y34.2026
G01 X35.2623 Y34.2066
G01 X35.3447 Y34.2188
G01 X35.4256 Y34.2391
G01 X35.4995 Y34.2654
G01 X35.5086 Y34.2691
G01 X35.5795 Y34.3028
G01 X35.6510 Y34.3457
G01 X35.7141 Y34.3923
G01 X35.7216 Y34.3985
G01 X35.7814 Y34.4531
G01 X35.8357 Y34.5131
G01 X35.8825 Y34.5761
G01 X35.8879 Y34.5842
G01 X35.9282 Y34.6515
G01 X35.9619 Y34.7224
G01 X35.9656 Y34.7315
G01 X35.9904 Y34.8008
G01 X35.9932 Y34.8101
G01 X36.0122 Y34.8863
G01 X36.0244 Y34.9687
G01 X36.0285 Y35.0520
G01 X36.0248 Y35.1304
G01 X36.0241 Y35.1377
G01 X36.0122 Y35.2177
G01 X35.9932 Y35.2939
G01 X35.9904 Y35.3032
G01 X35.9638 Y35.3771
G01 X35.9304 Y35.4481
G01 X35.9258 Y35.4567
G01 X35.8853 Y35.5240
G01 X35.8372 Y35.5890
G01 X35.7831 Y35.6492
G01 X35.7762 Y35.6561
G01 X35.7179 Y35.7087
G01 X35.6530 Y35.7570
G01 X35.5837 Y35.7988
G01 X35.5773 Y35.8023
G01 X35.5063 Y35.8359
G01 X35.4786 Y35.8461
G01 X35.4786 Y37.0890
G01 X65.5785 Y67.1889
G01 X66.0185 Y67.1889
G01 X66.0185 Y67.1486
G01 X66.0200 Y67.1192
G01 X66.0252 Y67.0828
G01 X66.0335 Y67.0495
G01 X66.0433 Y67.0218
G01 X66.0471 Y67.0128
G01 X66.0598 Y66.9862
G01 X66.0774 Y66.9568
G01 X66.0948 Y66.9331
G01 X66.1010 Y66.9256
G01 X66.1209 Y66.9039
G01 X66.1426 Y66.8840
G01 X66.1501 Y66.8778
G01 X66.1738 Y66.8604
G01 X66.1971 Y66.8463
G01 X66.1605 Y66.8659
G01 X66.1495 Y66.8712
G01 X66.1334 Y66.8771
G01 X66.1192 Y66.8807
G01 X66.1022 Y66.8830
G01 X66.0900 Y66.8835
G01 X66.0802 Y66.8832
G01 X66.0729 Y66.8826
G01 X66.0632 Y66.8811
G01 X66.0466 Y66.8771
G01 X66.0305 Y66.8712
G01 X66.0195 Y66.8659
G01 X66.0111 Y66.8610
G01 X66.0049 Y66.8570
G01 X65.9951 Y66.8496
G01 X65.9826 Y66.8380
G01 X65.9744 Y66.8289
G01 X65.9685 Y66.8211
G01 X65.9643 Y66.8150
G01 X65.9581 Y66.8045
G01 X65.9510 Y66.7890
G01 X65.9469 Y66.7774
G01 X65.9444 Y66.7680
G01 X65.9429 Y66.7608
G01 X65.9415 Y66.7511
G01 X65.9405 Y66.7340
G01 X65.9406 Y66.0558
G01 X65.9415 Y66.0436
G01 X65.9439 Y66.0292
G01 X65.9469 Y66.0173
G01 X65.9519 Y66.0035
G01 X65.9581 Y65.9902
G01 X65.9657 Y65.9776
G01 X65.9744 Y65.9659
G01 X65.9826 Y65.9567
G01 X79.0003 Y52.9390
G01 X79.0111 Y52.9291
G01 X79.0229 Y52.9204
G01 X79.0355 Y52.9128
G01 X79.0488 Y52.9066
G01 X79.0626 Y52.9016
G01 X79.0768 Y52.8981
G01 X79.0913 Y52.8959
G01 X79.1060 Y52.8952
G01 X79.1207 Y52.8959
G01 X79.1352 Y52.8981
G01 X79.1494 Y52.9016
G01 X79.1632 Y52.9066
G01 X79.1765 Y52.9128
G01 X79.1891 Y52.9204
G01 X79.2009 Y52.9291
G01 X79.2117 Y52.9390
G01 X79.2216 Y52.9499
G01 X79.2303 Y52.9616
G01 X79.2379 Y52.9742
G01 X79.2441 Y52.9875
G01 X79.2491 Y53.0013
G01 X79.2527 Y53.0155
G01 X79.2548 Y53.0301
G01 X79.2555 Y53.0423
G01 X79.2555 Y54.4678
G01 X79.2548 Y54.4824
G01 X79.2527 Y54.4969
G01 X79.2491 Y54.5112
G01 X79.2432 Y54.5272
G01 X79.2379 Y54.5382
G01 X79.2303 Y54.5508
G01 X79.2216 Y54.5626
G01 X79.2117 Y54.5735
G01 X77.9007 Y55.8845
G01 X77.8917 Y55.8928
G01 X77.8764 Y55.9054
G01 X77.8139 Y55.9816
G01 X77.7674 Y56.0686
G01 X77.7388 Y56.1629
G01 X77.7291 Y56.2610
G01 X77.7310 Y56.2807
G01 X77.7315 Y56.2929
G01 X77.7315 Y61.9347
G01 X77.7310 Y61.9469
G01 X77.7302 Y61.9542
G01 X77.7281 Y61.9663
G01 X77.7251 Y61.9781
G01 X77.7210 Y61.9897
G01 X77.7182 Y61.9964
G01 X77.7127 Y62.0073
G01 X77.7063 Y62.0178
G01 X77.6976 Y62.0296
G01 X77.6877 Y62.0404
G01 X74.8674 Y64.8607
G01 X74.8584 Y64.8690
G01 X74.8488 Y64.8765
G01 X74.8407 Y64.8819
G01 X74.8300 Y64.8880
G01 X74.8167 Y64.8940
G01 X74.8074 Y64.8973
G01 X74.8004 Y64.8994
G01 X74.7909 Y64.9017
G01 X74.7812 Y64.9032
G01 X74.7739 Y64.9040
G01 X74.7642 Y64.9045
G01 X74.7321 Y64.9045
G01 X74.7223 Y64.9040
G01 X74.7150 Y64.9032
G01 X74.7053 Y64.9017
G01 X74.6934 Y64.8988
G01 X74.6865 Y64.8966
G01 X74.6750 Y64.8922
G01 X74.6640 Y64.8869
G01 X74.6535 Y64.8807
G01 X74.6474 Y64.8765
G01 X74.6378 Y64.8690
G01 X74.6288 Y64.8607
G01 X74.5513 Y64.7832
G01 X74.4202 Y64.6956
G01 X74.2745 Y64.6353
G01 X74.1198 Y64.6045
G01 X73.9622 Y64.6045
G01 X73.8075 Y64.6353
G01 X73.6618 Y64.6956
G01 X73.5307 Y64.7832
G01 X73.4515 Y64.8624
G01 X73.4424 Y64.8706
G01 X73.4326 Y64.8779
G01 X73.4180 Y64.8869
G01 X73.4025 Y64.8940
G01 X73.3932 Y64.8973
G01 X73.3862 Y64.8994
G01 X73.3767 Y64.9017
G01 X73.3646 Y64.9035
G01 X73.3475 Y64.9045
G01 X71.7869 Y64.9045
G01 X71.7747 Y64.9040
G01 X71.7550 Y64.9021
G01 X71.6569 Y64.9118
G01 X71.5625 Y64.9404
G01 X71.4756 Y64.9869
G01 X71.3994 Y65.0494
G01 X71.3868 Y65.0647
G01 X71.3785 Y65.0737
G01 X71.1287 Y65.3238
G01 X71.0829 Y65.3796
G01 X71.0364 Y65.4665
G01 X71.0078 Y65.5609
G01 X71.0007 Y65.6327
G01 X71.0007 Y79.3750
G01 X71.0005 Y81.3283
G01 X70.9998 Y81.3429
G01 X70.9981 Y81.3550
G01 X70.9954 Y81.3670
G01 X70.9926 Y81.3763
G01 X70.9882 Y81.3877
G01 X70.9829 Y81.3987
G01 X70.9767 Y81.4093
G01 X70.9696 Y81.4193
G01 X70.9634 Y81.4268
G01 X70.9567 Y81.4340
G01 X70.6948 Y81.6959
G01 X70.6857 Y81.7040
G01 X70.6759 Y81.7114
G01 X70.6655 Y81.7179
G01 X70.6569 Y81.7225
G01 X70.6480 Y81.7266
G01 X70.6389 Y81.7300
G01 X70.6319 Y81.7322
G01 X70.6224 Y81.7346
G01 X70.6055 Y81.7373
G01 X70.5933 Y81.7379
G01 X70.5859 Y81.7379
G01 X70.5737 Y81.7370
G01 X70.5616 Y81.7351
G01 X70.4029 Y81.7035
G01 X70.1861 Y81.7035
G01 X69.9735 Y81.7458
G01 X69.7732 Y81.8288
G01 X69.5930 Y81.9492
G01 X69.4397 Y82.1025
G01 X69.3193 Y82.2827
G01 X69.2363 Y82.4830
G01 X69.1940 Y82.6956
G01 X69.1940 Y82.9124
G01 X69.2363 Y83.1250
G01 X69.3193 Y83.3253
G01 X69.4397 Y83.5055
G01 X69.5930 Y83.6588
G01 X69.7732 Y83.7792
G01 X69.9735 Y83.8622
G01 X70.1861 Y83.9045
G01 X70.4029 Y83.9045
G01 X70.6155 Y83.8622
G01 X70.8158 Y83.7792
G01 X70.9960 Y83.6588
G01 X71.1493 Y83.5055
G01 X71.2406 Y83.3689
G01 X71.2480 Y83.3591
G01 X71.2561 Y83.3500
G01 X71.2687 Y83.3384
G01 X71.2785 Y83.3311
G01 X71.2846 Y83.3271
G01 X71.2931 Y83.3221
G01 X71.3041 Y83.3168
G01 X71.3109 Y83.3141
G01 X71.3225 Y83.3102
G01 X71.3344 Y83.3073
G01 X71.3440 Y83.3058
G01 X71.3513 Y83.3050
G01 X71.3635 Y83.3045
G01 X72.6756 Y83.3045
G01 X72.6878 Y83.3050
G01 X72.7075 Y83.3069
G01 X72.8056 Y83.2972
G01 X72.9000 Y83.2686
G01 X72.9869 Y83.2221
G01 X73.0631 Y83.1596
G01 X73.0757 Y83.1443
G01 X73.0840 Y83.1353
G01 X74.9030 Y81.3163
G01 X74.9120 Y81.3080
G01 X74.9177 Y81.3034
G01 X74.9257 Y81.2977
G01 X74.9361 Y81.2913
G01 X74.9515 Y81.2839
G01 X74.9630 Y81.2797
G01 X74.9700 Y81.2776
G01 X74.9796 Y81.2753
G01 X74.9917 Y81.2735
G01 X75.0087 Y81.2725
G01 X78.1968 Y81.2725
G01 X78.2139 Y81.2735
G01 X78.2284 Y81.2759
G01 X78.2379 Y81.2782
G01 X78.2448 Y81.2804
G01 X78.2540 Y81.2839
G01 X78.2629 Y81.2879
G01 X78.2694 Y81.2913
G01 X78.2778 Y81.2963
G01 X78.2916 Y81.3064
G01 X78.3025 Y81.3163
G01 X78.3139 Y81.3290
G01 X78.3197 Y81.3369
G01 X78.3237 Y81.3431
G01 X78.3287 Y81.3515
G01 X78.3330 Y81.3603
G01 X78.3383 Y81.3740
G01 X78.3406 Y81.3809
G01 X78.3429 Y81.3904
G01 X78.3453 Y81.4049
G01 X78.3463 Y81.4220
G01 X78.3463 Y81.5647
G01 X78.3490 Y81.5917
G01 X78.3547 Y81.6106
G01 X78.3641 Y81.6281
G01 X78.3766 Y81.6434
G01 X78.3919 Y81.6559
G01 X78.4094 Y81.6653
G01 X78.4283 Y81.6710
G01 X78.4553 Y81.6737
G01 X80.0407 Y81.6737
G01 X80.0677 Y81.6710
G01 X80.0866 Y81.6653
G01 X80.1041 Y81.6559
G01 X80.1194 Y81.6434
G01 X80.1319 Y81.6281
G01 X80.1413 Y81.6106
G01 X80.1470 Y81.5917
G01 X80.1497 Y81.5647
G01 X80.1497 Y81.4196
G01 X80.1507 Y81.4049
G01 X80.1521 Y81.3952
G01 X80.1536 Y81.3881
G01 X80.1569 Y81.3763
G01 X80.1620 Y81.3625
G01 X80.1685 Y81.3494
G01 X80.1763 Y81.3369
G01 X80.1852 Y81.3253
G01 X80.1952 Y81.3146
G01 X80.2063 Y81.3049
G01 X80.2182 Y81.2963
G01 X80.2287 Y81.2901
G01 X80.2375 Y81.2858
G01 X80.2443 Y81.2830
G01 X80.2558 Y81.2789
G01 X80.2676 Y81.2759
G01 X80.2797 Y81.2738
G01 X80.2870 Y81.2730
G01 X80.2992 Y81.2725
G01 X80.5788 Y81.2725
G01 X80.5885 Y81.2728
G01 X80.5958 Y81.2735
G01 X80.6055 Y81.2749
G01 X80.6222 Y81.2789
G01 X80.6360 Y81.2839
G01 X80.6514 Y81.2913
G01 X80.6618 Y81.2977
G01 X80.6698 Y81.3034
G01 X80.6755 Y81.3080
G01 X80.6845 Y81.3163
G01 X83.2593 Y83.8911
G01 X83.2676 Y83.9001
G01 X83.2801 Y83.9154
G01 X83.2954 Y83.9279
G01 X83.3044 Y83.9362
G01 X84.2712 Y84.9030
G01 X84.2811 Y84.9139
G01 X84.2898 Y84.9257
G01 X84.2985 Y84.9404
G01 X84.3036 Y84.9515
G01 X84.3071 Y84.9607
G01 X84.3093 Y84.9677
G01 X84.3121 Y84.9796
G01 X84.3145 Y84.9965
G01 X84.3150 Y85.0087
G01 X84.3147 Y85.0185
G01 X84.3140 Y85.0258
G01 X84.3121 Y85.0379
G01 X84.3078 Y85.0545
G01 X84.3036 Y85.0660
G01 X84.2996 Y85.0749
G01 X84.2950 Y85.0835
G01 X84.2884 Y85.0938
G01 X84.2811 Y85.1036
G01 X84.2746 Y85.1109
G01 X84.1717 Y85.2140
G01 X84.0513 Y85.3942
G01 X83.9683 Y85.5945
G01 X83.9260 Y85.8071
G01 X83.9260 Y86.0239
G01 X83.9683 Y86.2365
G01 X84.0513 Y86.4368
G01 X84.1717 Y86.6170
G01 X84.3250 Y86.7703
G01 X84.5052 Y86.8907
G01 X84.7055 Y86.9737
G01 X84.9181 Y87.0160
G01 X85.1349 Y87.0160
G01 X85.3475 Y86.9737
G01 X85.5478 Y86.8907
G01 X85.7280 Y86.7703
G01 X85.8813 Y86.6170
G01 X85.8944 Y86.5975
G01 X85.9002 Y86.5896
G01 X85.9049 Y86.5840
G01 X85.9116 Y86.5768
G01 X85.9188 Y86.5702
G01 X85.9244 Y86.5655
G01 X85.9322 Y86.5596
G01 X85.9468 Y86.5507
G01 X85.9601 Y86.5444
G01 X85.9739 Y86.5395
G01 X85.9882 Y86.5359
G01 X86.0027 Y86.5338
G01 X86.0198 Y86.5331
G01 X86.0344 Y86.5340
G01 X86.0441 Y86.5355
G01 X86.0513 Y86.5370
G01 X86.0607 Y86.5395
G01 X86.0723 Y86.5435
G01 X86.0878 Y86.5507
G01 X86.0984 Y86.5569
G01 X86.1044 Y86.5611
G01 X86.1122 Y86.5670
G01 X86.1213 Y86.5751
G01 X86.9432 Y87.3970
G01 X86.9515 Y87.4060
G01 X86.9561 Y87.4117
G01 X86.9618 Y87.4196
G01 X86.9682 Y87.4301
G01 X86.9756 Y87.4455
G01 X86.9798 Y87.4570
G01 X86.9819 Y87.4640
G01 X86.9841 Y87.4735
G01 X86.9860 Y87.4856
G01 X86.9870 Y87.5027
G01 X86.9870 Y90.6940
G01 X86.9865 Y90.7063
G01 X86.9846 Y90.7260
G01 X86.9942 Y90.8241
G01 X87.0229 Y90.9184
G01 X87.0693 Y91.0054
G01 X87.1319 Y91.0816
G01 X87.1472 Y91.0942
G01 X87.1562 Y91.1024
G01 X88.3401 Y92.2864
G01 X88.3500 Y92.2973
G01 X88.3587 Y92.3091
G01 X88.3651 Y92.3195
G01 X88.3706 Y92.3305
G01 X88.3743 Y92.3395
G01 X88.3782 Y92.3511
G01 X88.3811 Y92.3630
G01 X88.3829 Y92.3751
G01 X88.3838 Y92.3873
G01 X88.3838 Y92.3970
G01 X88.3829 Y92.4092
G01 X88.3811 Y92.4213
G01 X88.3345 Y92.6553
G01 X88.3345 Y92.8917
G01 X88.3807 Y93.1237
G01 X88.4712 Y93.3421
G01 X88.6025 Y93.5388
G01 X88.7697 Y93.7060
G01 X88.9681 Y93.8385
G01 X88.9817 Y93.8488
G01 X88.9890 Y93.8554
G01 X88.9941 Y93.8606
G01 X89.0006 Y93.8680
G01 X89.0079 Y93.8777
G01 X89.0169 Y93.8923
G01 X89.0241 Y93.9079
G01 X89.0281 Y93.9194
G01 X89.0317 Y93.9336
G01 X89.0338 Y93.9482
G01 X89.0345 Y93.9628
G01 X89.0345 Y96.2022
G01 X89.0340 Y96.2144
G01 X89.0321 Y96.2341
G01 X89.0418 Y96.3322
G01 X89.0704 Y96.4266
G01 X89.1169 Y96.5135
G01 X89.1794 Y96.5897
G01 X89.1947 Y96.6023
G01 X89.2037 Y96.6106
G01 X91.7244 Y99.1313
G01 X91.7327 Y99.1403
G01 X91.7453 Y99.1556
G01 X91.8215 Y99.2181
G01 X91.9084 Y99.2646
G01 X92.0028 Y99.2932
G01 X92.1009 Y99.3029
G01 X92.1206 Y99.3010
G01 X92.1328 Y99.3005
G01 X96.7921 Y99.3005
G01 X96.8043 Y99.3010
G01 X96.8240 Y99.3029
G01 X96.9221 Y99.2932
G01 X97.0165 Y99.2646
G01 X97.1034 Y99.2181
G01 X97.1796 Y99.1556
G01 X97.1922 Y99.1403
G01 X97.2005 Y99.1313
G01 X99.1313 Y97.2005
G01 X99.1403 Y97.1922
G01 X99.1556 Y97.1796
G01 X99.2181 Y97.1034
G01 X99.2646 Y97.0165
G01 X99.2932 Y96.9221
G01 X99.3029 Y96.8240
G01 X99.3010 Y96.8043
G01 X99.3005 Y96.7921
G01 X99.3005 Y91.9109
G01 X99.3010 Y91.8987
G01 X99.3029 Y91.8790
G01 X99.2932 Y91.7809
G01 X99.2646 Y91.6866
G01 X99.2181 Y91.5996
G01 X99.1556 Y91.5234
G01 X99.1403 Y91.5108
G01 X99.1313 Y91.5025
G01 X98.0151 Y90.3862
G01 X98.0069 Y90.3771
G01 X97.9982 Y90.3653
G01 X97.9906 Y90.3527
G01 X97.9853 Y90.3417
G01 X97.9809 Y90.3303
G01 X97.9781 Y90.3210
G01 X97.9754 Y90.3090
G01 X97.9735 Y90.2945
G01 X97.9730 Y90.2823
G01 X97.9730 Y71.1145
G01 X97.9735 Y71.1023
G01 X97.9754 Y71.0826
G01 X97.9657 Y70.9844
G01 X97.9371 Y70.8901
G01 X97.8906 Y70.8032
G01 X97.8281 Y70.7270
G01 X97.8128 Y70.7144
G01 X97.8038 Y70.7061
G01 X95.3464 Y68.2487
G01 X95.3381 Y68.2397
G01 X95.3256 Y68.2244
G01 X95.2493 Y68.1619
G01 X95.1624 Y68.1154
G01 X95.0681 Y68.0868
G01 X94.9699 Y68.0771
G01 X94.9503 Y68.0790
G01 X94.9380 Y68.0795
G01 X94.6686 Y68.0794
G01 X94.6564 Y68.0785
G01 X94.6443 Y68.0767
G01 X94.6301 Y68.0731
G01 X94.6185 Y68.0690
G01 X94.6052 Y68.0630
G01 X94.5946 Y68.0569
G01 X94.5864 Y68.0515
G01 X94.5768 Y68.0440
G01 X94.5678 Y68.0357
G01 X94.4903 Y67.9582
G01 X94.3592 Y67.8706
G01 X94.2135 Y67.8103
G01 X94.0588 Y67.7795
G01 X93.9492 Y67.7795
G01 X93.9370 Y67.7790
G01 X93.9249 Y67.7775
G01 X93.9153 Y67.7756
G01 X93.9035 Y67.7723
G01 X93.8920 Y67.7681
G01 X93.8788 Y67.7619
G01 X93.8682 Y67.7557
G01 X93.8582 Y67.7486
G01 X93.8507 Y67.7424
G01 X93.8435 Y67.7357
G01 X93.7215 Y67.6137
G01 X93.7132 Y67.6047
G01 X93.7006 Y67.5894
G01 X93.6244 Y67.5269
G01 X93.5375 Y67.4804
G01 X93.4431 Y67.4518
G01 X93.3450 Y67.4421
G01 X93.3253 Y67.4440
G01 X93.3131 Y67.4445
G01 X88.3154 Y67.4445
G01 X88.2419 Y67.4518
G01 X88.1475 Y67.4804
G01 X88.0628 Y67.5257
G01 X88.0540 Y67.5300
G01 X88.0473 Y67.5328
G01 X88.0358 Y67.5369
G01 X88.0191 Y67.5409
G01 X88.0070 Y67.5426
G01 X87.9924 Y67.5433
G01 X87.6973 Y67.5433
G01 X87.6410 Y67.5489
G01 X87.5940 Y67.5631
G01 X87.5506 Y67.5863
G01 X87.5125 Y67.6175
G01 X87.4813 Y67.6556
G01 X87.4581 Y67.6990
G01 X87.4439 Y67.7460
G01 X87.4383 Y67.8023
G01 X87.4383 Y68.0877
G01 X87.4439 Y68.1440
G01 X87.4581 Y68.1910
G01 X87.4813 Y68.2344
G01 X87.5125 Y68.2725
G01 X87.5506 Y68.3037
G01 X87.5940 Y68.3269
G01 X87.6410 Y68.3411
G01 X87.6973 Y68.3467
G01 X87.9972 Y68.3468
G01 X88.0094 Y68.3477
G01 X88.0215 Y68.3496
G01 X88.0334 Y68.3524
G01 X88.0450 Y68.3563
G01 X88.0518 Y68.3590
G01 X88.0628 Y68.3643
G01 X88.1475 Y68.4096
G01 X88.2375 Y68.4369
G01 X88.2468 Y68.4401
G01 X88.2536 Y68.4428
G01 X88.2646 Y68.4481
G01 X88.2752 Y68.4543
G01 X88.2812 Y68.4585
G01 X88.2890 Y68.4644
G01 X88.2963 Y68.4709
G01 X88.3016 Y68.4760
G01 X88.3081 Y68.4833
G01 X88.3185 Y68.4969
G01 X88.3260 Y68.5095
G01 X88.3323 Y68.5228
G01 X88.3379 Y68.5389
G01 X88.3403 Y68.5484
G01 X88.3416 Y68.5556
G01 X88.3429 Y68.5653
G01 X88.3435 Y68.5751
G01 X88.3436 Y68.5824
G01 X88.3431 Y68.5922
G01 X88.3408 Y68.6092
G01 X88.3365 Y68.6257
G01 X88.3332 Y68.6350
G01 X88.3303 Y68.6417
G01 X88.3260 Y68.6505
G01 X88.3211 Y68.6589
G01 X88.3171 Y68.6651
G01 X88.3112 Y68.6730
G01 X88.2999 Y68.6857
G01 X88.2871 Y68.6971
G01 X88.2772 Y68.7043
G01 X88.2668 Y68.7107
G01 X88.2603 Y68.7141
G01 X88.2491 Y68.7190
G01 X88.2375 Y68.7231
G01 X88.1475 Y68.7504
G01 X88.0628 Y68.7957
G01 X88.0473 Y68.8028
G01 X88.0358 Y68.8069
G01 X88.0215 Y68.8104
G01 X88.0094 Y68.8123
G01 X87.9972 Y68.8132
G01 X87.6973 Y68.8133
G01 X87.6410 Y68.8189
G01 X87.5940 Y68.8331
G01 X87.5506 Y68.8563
G01 X87.5125 Y68.8875
G01 X87.4813 Y68.9256
G01 X87.4581 Y68.9690
G01 X87.4439 Y69.0160
G01 X87.4383 Y69.0723
G01 X87.4383 Y69.3577
G01 X87.4439 Y69.4140
G01 X87.4581 Y69.4610
G01 X87.4813 Y69.5044
G01 X87.5125 Y69.5425
G01 X87.5506 Y69.5737
G01 X87.5940 Y69.5969
G01 X87.6410 Y69.6111
G01 X87.6973 Y69.6167
G01 X87.9924 Y69.6167
G01 X88.0046 Y69.6172
G01 X88.0167 Y69.6187
G01 X88.0239 Y69.6201
G01 X88.0358 Y69.6231
G01 X88.0473 Y69.6272
G01 X88.0540 Y69.6300
G01 X88.0628 Y69.6343
G01 X88.1475 Y69.6796
G01 X88.2419 Y69.7082
G01 X88.3154 Y69.7155
G01 X89.7127 Y69.7155
G01 X89.7249 Y69.7162
G01 X89.7394 Y69.7183
G01 X89.7537 Y69.7219
G01 X89.7652 Y69.7260
G01 X89.7786 Y69.7320
G01 X89.7892 Y69.7381
G01 X89.7973 Y69.7435
G01 X89.8070 Y69.7510
G01 X89.8160 Y69.7593
G01 X90.1354 Y70.0788
G01 X90.1420 Y70.0860
G01 X90.1466 Y70.0917
G01 X90.1523 Y70.0997
G01 X90.1575 Y70.1080
G01 X90.1610 Y70.1144
G01 X90.1652 Y70.1233
G01 X90.1711 Y70.1393
G01 X90.1741 Y70.1512
G01 X90.1762 Y70.1632
G01 X90.1770 Y70.1705
G01 X90.1775 Y70.1827
G01 X90.1775 Y70.8976
G01 X90.1770 Y70.9098
G01 X90.1751 Y70.9295
G01 X90.1848 Y71.0276
G01 X90.2134 Y71.1219
G01 X90.2599 Y71.2089
G01 X90.3224 Y71.2851
G01 X90.3377 Y71.2977
G01 X90.3467 Y71.3060
G01 X94.1927 Y75.1520
G01 X94.2026 Y75.1629
G01 X94.2127 Y75.1767
G01 X94.2177 Y75.1851
G01 X94.2211 Y75.1916
G01 X94.2251 Y75.2005
G01 X94.2286 Y75.2097
G01 X94.2314 Y75.2190
G01 X94.2341 Y75.2310
G01 X94.2358 Y75.2431
G01 X94.2365 Y75.2577
G01 X94.2365 Y76.9137
G01 X94.2358 Y76.9283
G01 X94.2337 Y76.9428
G01 X94.2308 Y76.9547
G01 X94.2261 Y76.9686
G01 X94.2211 Y76.9798
G01 X94.2139 Y76.9926
G01 X94.2085 Y77.0007
G01 X94.2010 Y77.0104
G01 X94.1910 Y77.0211
G01 X94.1819 Y77.0292
G01 X94.1701 Y77.0380
G01 X94.1575 Y77.0455
G01 X94.1465 Y77.0508
G01 X94.1328 Y77.0560
G01 X94.1210 Y77.0592
G01 X94.1114 Y77.0611
G01 X94.0968 Y77.0628
G01 X94.0846 Y77.0632
G01 X94.0724 Y77.0625
G01 X94.0579 Y77.0603
G01 X94.0460 Y77.0574
G01 X94.0321 Y77.0527
G01 X94.0209 Y77.0477
G01 X94.0081 Y77.0406
G01 X94.0000 Y77.0352
G01 X93.9903 Y77.0277
G01 X93.9813 Y77.0194
G01 X93.9730 Y77.0104
G01 X93.9655 Y77.0008
G01 X93.9614 Y76.9947
G01 X93.9563 Y76.9863
G01 X93.9349 Y76.9456
G01 X93.9464 Y76.9703
G01 X93.9564 Y76.9979
G01 X93.9586 Y77.0049
G01 X93.9652 Y77.0311
G01 X93.9671 Y77.0406
G01 X93.9713 Y77.0697
G01 X93.9730 Y77.1016
G01 X93.9730 Y78.3464
G01 X93.9713 Y78.3783
G01 X93.9671 Y78.4074
G01 X93.9652 Y78.4169
G01 X93.9580 Y78.4455
G01 X93.9482 Y78.4732
G01 X93.9444 Y78.4822
G01 X93.9317 Y78.5088
G01 X93.9141 Y78.5382
G01 X93.8937 Y78.5657
G01 X93.8740 Y78.5876
G01 X93.8671 Y78.5945
G01 X93.8452 Y78.6142
G01 X93.8217 Y78.6318
G01 X93.8156 Y78.6359
G01 X93.7925 Y78.6498
G01 X93.7839 Y78.6544
G01 X93.7572 Y78.6669
G01 X93.7250 Y78.6785
G01 X93.6917 Y78.6868
G01 X93.6553 Y78.6920
G01 X93.6235 Y78.6935
G01 X91.9235 Y78.6935
G01 X91.8963 Y78.6923
G01 X91.9308 Y78.6957
G01 X93.5666 Y78.6957
G01 X93.5788 Y78.6962
G01 X93.5933 Y78.6981
G01 X93.6053 Y78.7008
G01 X93.6146 Y78.7037
G01 X93.6282 Y78.7090
G01 X93.6392 Y78.7145
G01 X93.6516 Y78.7223
G01 X93.6614 Y78.7296
G01 X93.6723 Y78.7395
G01 X93.6821 Y78.7504
G01 X93.6895 Y78.7601
G01 X93.6972 Y78.7726
G01 X93.7027 Y78.7835
G01 X93.7065 Y78.7925
G01 X93.7103 Y78.8041
G01 X93.7132 Y78.8160
G01 X93.7154 Y78.8306
G01 X93.7161 Y78.8452
G01 X93.7154 Y78.8599
G01 X93.7132 Y78.8744
G01 X93.7096 Y78.8886
G01 X93.7047 Y78.9024
G01 X93.6984 Y78.9157
G01 X93.6909 Y78.9283
G01 X93.6806 Y78.9419
G01 X93.6723 Y78.9509
G01 X93.3489 Y79.2743
G01 X93.3398 Y79.2824
G01 X93.3280 Y79.2912
G01 X93.3154 Y79.2987
G01 X93.3044 Y79.3040
G01 X93.2883 Y79.3099
G01 X93.2741 Y79.3135
G01 X93.2596 Y79.3156
G01 X93.2425 Y79.3163
G01 X93.2303 Y79.3156
G01 X93.2182 Y79.3139
G01 X93.2062 Y79.3112
G01 X93.1937 Y79.3076
G01 X93.0512 Y79.2935
G01 X92.4958 Y79.2935
G01 X92.3533 Y79.3076
G01 X92.1703 Y79.3631
G01 X92.0017 Y79.4532
G01 X91.8540 Y79.5745
G01 X91.7327 Y79.7222
G01 X91.6426 Y79.8908
G01 X91.5871 Y80.0738
G01 X91.5683 Y80.2640
G01 X91.5871 Y80.4542
G01 X91.6426 Y80.6372
G01 X91.7327 Y80.8058
G01 X91.8540 Y80.9535
G01 X92.0017 Y81.0748
G01 X92.1703 Y81.1649
G01 X92.3533 Y81.2204
G01 X92.4958 Y81.2345
G01 X93.0512 Y81.2345
G01 X93.1937 Y81.2204
G01 X93.3767 Y81.1649
G01 X93.5453 Y81.0748
G01 X93.6930 Y80.9535
G01 X93.8143 Y80.8058
G01 X93.9044 Y80.6372
G01 X93.9599 Y80.4542
G01 X93.9787 Y80.2640
G01 X93.9671 Y80.1463
G01 X93.9666 Y80.1341
G01 X93.9671 Y80.1219
G01 X93.9686 Y80.1098
G01 X93.9700 Y80.1026
G01 X93.9730 Y80.0907
G01 X93.9762 Y80.0814
G01 X93.9789 Y80.0746
G01 X93.9843 Y80.0636
G01 X93.9905 Y80.0531
G01 X93.9946 Y80.0470
G01 X94.0021 Y80.0374
G01 X94.0104 Y80.0284
G01 X95.0683 Y78.9705
G01 X95.0773 Y78.9622
G01 X95.0926 Y78.9496
G01 X95.1551 Y78.8734
G01 X95.2016 Y78.7865
G01 X95.2302 Y78.6921
G01 X95.2399 Y78.5940
G01 X95.2380 Y78.5743
G01 X95.2375 Y78.5621
G01 X95.2375 Y75.0204
G01 X95.2380 Y75.0082
G01 X95.2399 Y74.9885
G01 X95.2302 Y74.8904
G01 X95.2016 Y74.7960
G01 X95.1551 Y74.7091
G01 X95.0926 Y74.6329
G01 X95.0773 Y74.6203
G01 X95.0683 Y74.6120
G01 X91.2223 Y70.7660
G01 X91.2124 Y70.7551
G01 X91.2051 Y70.7453
G01 X91.2011 Y70.7392
G01 X91.1950 Y70.7286
G01 X91.1899 Y70.7175
G01 X91.1857 Y70.7060
G01 X91.1824 Y70.6942
G01 X91.1805 Y70.6846
G01 X91.1790 Y70.6725
G01 X91.1785 Y70.6603
G01 X91.1785 Y69.9454
G01 X91.1790 Y69.9332
G01 X91.1809 Y69.9135
G01 X91.1712 Y69.8154
G01 X91.1426 Y69.7210
G01 X91.0961 Y69.6341
G01 X91.0336 Y69.5579
G01 X91.0183 Y69.5453
G01 X91.0093 Y69.5370
G01 X90.3560 Y68.8837
G01 X90.3477 Y68.8747
G01 X90.3351 Y68.8594
G01 X90.2589 Y68.7969
G01 X90.1720 Y68.7504
G01 X90.1291 Y68.7373
G01 X90.1176 Y68.7331
G01 X90.1065 Y68.7280
G01 X90.0938 Y68.7207
G01 X90.0838 Y68.7136
G01 X90.0763 Y68.7074
G01 X90.0657 Y68.6972
G01 X90.0592 Y68.6899
G01 X90.0519 Y68.6801
G01 X90.0454 Y68.6697
G01 X90.0418 Y68.6633
G01 X90.0367 Y68.6522
G01 X90.0325 Y68.6407
G01 X90.0292 Y68.6289
G01 X90.0273 Y68.6194
G01 X90.0258 Y68.6072
G01 X90.0253 Y68.5950
G01 X90.0258 Y68.5828
G01 X90.0273 Y68.5706
G01 X90.0292 Y68.5611
G01 X90.0325 Y68.5493
G01 X90.0367 Y68.5378
G01 X90.0407 Y68.5289
G01 X90.0441 Y68.5224
G01 X90.0505 Y68.5119
G01 X90.0577 Y68.5020
G01 X90.0624 Y68.4964
G01 X90.0691 Y68.4893
G01 X90.0781 Y68.4810
G01 X90.0838 Y68.4764
G01 X90.0938 Y68.4693
G01 X90.1043 Y68.4631
G01 X90.1131 Y68.4588
G01 X90.1199 Y68.4560
G01 X90.1314 Y68.4519
G01 X90.1433 Y68.4489
G01 X90.1505 Y68.4475
G01 X90.1602 Y68.4462
G01 X90.1724 Y68.4455
G01 X93.0300 Y68.4455
G01 X93.0471 Y68.4465
G01 X93.0592 Y68.4483
G01 X93.0687 Y68.4506
G01 X93.0757 Y68.4527
G01 X93.0850 Y68.4560
G01 X93.1005 Y68.4631
G01 X93.1151 Y68.4721
G01 X93.1249 Y68.4794
G01 X93.1322 Y68.4859
G01 X93.1374 Y68.4910
G01 X93.1440 Y68.4983
G01 X93.1543 Y68.5119
G01 X93.1607 Y68.5224
G01 X93.1641 Y68.5289
G01 X93.1681 Y68.5378
G01 X93.1723 Y68.5493
G01 X93.1744 Y68.5563
G01 X93.1771 Y68.5682
G01 X93.1788 Y68.5803
G01 X93.1795 Y68.5926
G01 X93.1795 Y68.6588
G01 X93.2103 Y68.8135
G01 X93.2706 Y68.9592
G01 X93.3582 Y69.0903
G01 X93.4697 Y69.2018
G01 X93.6008 Y69.2894
G01 X93.7465 Y69.3497
G01 X93.9012 Y69.3805
G01 X94.0588 Y69.3805
G01 X94.2135 Y69.3497
G01 X94.3592 Y69.2894
G01 X94.4903 Y69.2018
G01 X94.5678 Y69.1243
G01 X94.5749 Y69.1176
G01 X94.5806 Y69.1129
G01 X94.5904 Y69.1057
G01 X94.6009 Y69.0993
G01 X94.6074 Y69.0959
G01 X94.6163 Y69.0919
G01 X94.6255 Y69.0884
G01 X94.6396 Y69.0844
G01 X94.6467 Y69.0829
G01 X94.6564 Y69.0815
G01 X94.6711 Y69.0805
G01 X94.7032 Y69.0805
G01 X94.7178 Y69.0815
G01 X94.7299 Y69.0833
G01 X94.7394 Y69.0856
G01 X94.7464 Y69.0877
G01 X94.7579 Y69.0919
G01 X94.7712 Y69.0981
G01 X94.7838 Y69.1057
G01 X94.7956 Y69.1144
G01 X94.8064 Y69.1243
G01 X96.9282 Y71.2461
G01 X96.9365 Y71.2551
G01 X96.9411 Y71.2608
G01 X96.9482 Y71.2708
G01 X96.9544 Y71.2813
G01 X96.9597 Y71.2923
G01 X96.9624 Y71.2991
G01 X96.9663 Y71.3107
G01 X96.9692 Y71.3226
G01 X96.9713 Y71.3371
G01 X96.9720 Y71.3518
G01 X96.9720 Y90.5196
G01 X96.9715 Y90.5318
G01 X96.9696 Y90.5515
G01 X96.9793 Y90.6496
G01 X97.0079 Y90.7439
G01 X97.0544 Y90.8309
G01 X97.1169 Y90.9071
G01 X97.1322 Y90.9197
G01 X97.1412 Y90.9280
G01 X98.2557 Y92.0425
G01 X98.2656 Y92.0534
G01 X98.2743 Y92.0652
G01 X98.2819 Y92.0778
G01 X98.2872 Y92.0888
G01 X98.2931 Y92.1048
G01 X98.2967 Y92.1191
G01 X98.2988 Y92.1336
G01 X98.2995 Y92.1482
G01 X98.2995 Y93.5895
G01 X98.2985 Y93.6066
G01 X98.2967 Y93.6187
G01 X98.2944 Y93.6282
G01 X98.2923 Y93.6352
G01 X98.2881 Y93.6467
G01 X98.2830 Y93.6578
G01 X98.2795 Y93.6642
G01 X98.2743 Y93.6726
G01 X98.2671 Y93.6824
G01 X98.2557 Y93.6952
G01 X98.2467 Y93.7035
G01 X98.2410 Y93.7081
G01 X98.2331 Y93.7138
G01 X98.2226 Y93.7202
G01 X98.2161 Y93.7236
G01 X98.2050 Y93.7285
G01 X98.1934 Y93.7326
G01 X98.1839 Y93.7351
G01 X98.1768 Y93.7366
G01 X98.1647 Y93.7383
G01 X98.1524 Y93.7390
G01 X98.1451 Y93.7389
G01 X98.1353 Y93.7383
G01 X98.1232 Y93.7366
G01 X98.1066 Y93.7326
G01 X98.0950 Y93.7285
G01 X98.0883 Y93.7257
G01 X98.0795 Y93.7214
G01 X98.0690 Y93.7151
G01 X98.0629 Y93.7110
G01 X98.0533 Y93.7035
G01 X98.0426 Y93.6935
G01 X98.0329 Y93.6824
G01 X98.0243 Y93.6705
G01 X98.0193 Y93.6621
G01 X98.0159 Y93.6556
G01 X98.0119 Y93.6467
G01 X97.9248 Y93.4366
G01 X97.5636 Y92.8961
G01 X97.1039 Y92.4364
G01 X96.5634 Y92.0752
G01 X95.9627 Y91.8264
G01 X95.3251 Y91.6995
G01 X94.6749 Y91.6995
G01 X94.0373 Y91.8264
G01 X93.4366 Y92.0752
G01 X92.8961 Y92.4364
G01 X92.4364 Y92.8961
G01 X92.0752 Y93.4366
G01 X91.8264 Y94.0373
G01 X91.6995 Y94.6749
G01 X91.6995 Y95.3251
G01 X91.8264 Y95.9627
G01 X92.0752 Y96.5634
G01 X92.4364 Y97.1039
G01 X92.8961 Y97.5636
G01 X93.4366 Y97.9248
G01 X93.6512 Y98.0138
G01 X93.6621 Y98.0193
G01 X93.6726 Y98.0257
G01 X93.6843 Y98.0344
G01 X93.6935 Y98.0426
G01 X93.7051 Y98.0551
G01 X93.7138 Y98.0669
G01 X93.7225 Y98.0817
G01 X93.7267 Y98.0905
G01 X93.7294 Y98.0973
G01 X93.7326 Y98.1066
G01 X93.7351 Y98.1161
G01 X93.7366 Y98.1232
G01 X93.7380 Y98.1329
G01 X93.7390 Y98.1500
G01 X93.7380 Y98.1671
G01 X93.7366 Y98.1768
G01 X93.7351 Y98.1839
G01 X93.7326 Y98.1934
G01 X93.7294 Y98.2027
G01 X93.7267 Y98.2095
G01 X93.7225 Y98.2183
G01 X93.7138 Y98.2331
G01 X93.7051 Y98.2449
G01 X93.6935 Y98.2574
G01 X93.6862 Y98.2640
G01 X93.6805 Y98.2686
G01 X93.6726 Y98.2743
G01 X93.6642 Y98.2795
G01 X93.6578 Y98.2830
G01 X93.6467 Y98.2881
G01 X93.6306 Y98.2938
G01 X93.6187 Y98.2967
G01 X93.6090 Y98.2982
G01 X93.6017 Y98.2990
G01 X93.5919 Y98.2995
G01 X92.3701 Y98.2995
G01 X92.3579 Y98.2990
G01 X92.3457 Y98.2975
G01 X92.3385 Y98.2961
G01 X92.3267 Y98.2931
G01 X92.3152 Y98.2891
G01 X92.3084 Y98.2862
G01 X92.2996 Y98.2819
G01 X92.2891 Y98.2757
G01 X92.2752 Y98.2656
G01 X92.2644 Y98.2557
G01 X90.0793 Y96.0706
G01 X90.0710 Y96.0616
G01 X90.0635 Y96.0520
G01 X90.0581 Y96.0438
G01 X90.0520 Y96.0332
G01 X90.0478 Y96.0244
G01 X90.0451 Y96.0176
G01 X90.0419 Y96.0083
G01 X90.0394 Y95.9988
G01 X90.0379 Y95.9917
G01 X90.0365 Y95.9820
G01 X90.0355 Y95.9649
G01 X90.0355 Y93.9628
G01 X90.0362 Y93.9482
G01 X90.0379 Y93.9360
G01 X90.0406 Y93.9241
G01 X90.0434 Y93.9148
G01 X90.0478 Y93.9033
G01 X90.0531 Y93.8923
G01 X90.0607 Y93.8797
G01 X90.0679 Y93.8699
G01 X90.0759 Y93.8606
G01 X90.0828 Y93.8537
G01 X90.0920 Y93.8457
G01 X90.1019 Y93.8385
G01 X90.3003 Y93.7060
G01 X90.4675 Y93.5388
G01 X90.5988 Y93.3421
G01 X90.6893 Y93.1237
G01 X90.7355 Y92.8917
G01 X90.7355 Y92.6553
G01 X90.6893 Y92.4233
G01 X90.5988 Y92.2049
G01 X90.4675 Y92.0082
G01 X90.3003 Y91.8410
G01 X90.1036 Y91.7097
G01 X89.8852 Y91.6192
G01 X89.6532 Y91.5730
G01 X89.4168 Y91.5730
G01 X89.1828 Y91.6196
G01 X89.1707 Y91.6214
G01 X89.1585 Y91.6223
G01 X89.1488 Y91.6223
G01 X89.1366 Y91.6214
G01 X89.1245 Y91.6196
G01 X89.1102 Y91.6160
G01 X89.0987 Y91.6120
G01 X89.0875 Y91.6070
G01 X89.0789 Y91.6024
G01 X89.0686 Y91.5959
G01 X89.0588 Y91.5885
G01 X89.0479 Y91.5786
G01 X88.0317 Y90.5625
G01 X88.0235 Y90.5535
G01 X88.0160 Y90.5438
G01 X88.0105 Y90.5357
G01 X88.0045 Y90.5250
G01 X88.0003 Y90.5162
G01 X87.9976 Y90.5094
G01 X87.9944 Y90.5001
G01 X87.9919 Y90.4907
G01 X87.9904 Y90.4835
G01 X87.9889 Y90.4738
G01 X87.9879 Y90.4567
G01 X87.9878 Y87.2072
G01 X87.9807 Y87.1354
G01 X87.9521 Y87.0410
G01 X87.9056 Y86.9541
G01 X87.8431 Y86.8779
G01 X87.8278 Y86.8653
G01 X87.8188 Y86.8570
G01 X84.1902 Y83.2284
G01 X84.1819 Y83.2194
G01 X84.1694 Y83.2041
G01 X84.0931 Y83.1416
G01 X84.0062 Y83.0951
G01 X83.9119 Y83.0665
G01 X83.8944 Y83.0648
G01 X83.8823 Y83.0629
G01 X83.8704 Y83.0600
G01 X83.8588 Y83.0561
G01 X83.8520 Y83.0534
G01 X83.8431 Y83.0492
G01 X83.8304 Y83.0419
G01 X83.8166 Y83.0318
G01 X83.8057 Y83.0220
G01 X81.3796 Y80.5959
G01 X81.3682 Y80.5831
G01 X81.3624 Y80.5752
G01 X81.3584 Y80.5691
G01 X81.3535 Y80.5606
G01 X81.3171 Y80.4926
G01 X81.2546 Y80.4164
G01 X81.1784 Y80.3539
G01 X81.0915 Y80.3074
G01 X80.9971 Y80.2788
G01 X80.9236 Y80.2715
G01 X80.8775 Y80.2715
G01 X80.8677 Y80.2710
G01 X80.8480 Y80.2691
G01 X80.8283 Y80.2710
G01 X80.8161 Y80.2715
G01 X80.2968 Y80.2715
G01 X80.2846 Y80.2708
G01 X80.2700 Y80.2687
G01 X80.2558 Y80.2651
G01 X80.2420 Y80.2601
G01 X80.2287 Y80.2539
G01 X80.2141 Y80.2449
G01 X80.2025 Y80.2360
G01 X80.1952 Y80.2294
G01 X80.1901 Y80.2242
G01 X80.1836 Y80.2169
G01 X80.1777 Y80.2091
G01 X80.1736 Y80.2030
G01 X80.1685 Y80.1946
G01 X80.1611 Y80.1792
G01 X80.1561 Y80.1654
G01 X80.1531 Y80.1536
G01 X80.1517 Y80.1464
G01 X80.1504 Y80.1367
G01 X80.1497 Y80.1244
G01 X80.1497 Y79.9793
G01 X80.1470 Y79.9523
G01 X80.1413 Y79.9334
G01 X80.1319 Y79.9159
G01 X80.1194 Y79.9006
G01 X80.1041 Y79.8881
G01 X80.0866 Y79.8787
G01 X80.0677 Y79.8730
G01 X80.0407 Y79.8703
G01 X78.4553 Y79.8703
G01 X78.4283 Y79.8730
G01 X78.4094 Y79.8787
G01 X78.3919 Y79.8881
G01 X78.3766 Y79.9006
G01 X78.3641 Y79.9159
G01 X78.3547 Y79.9334
G01 X78.3490 Y79.9523
G01 X78.3463 Y79.9793
G01 X78.3463 Y80.1220
G01 X78.3456 Y80.1367
G01 X78.3434 Y80.1512
G01 X78.3399 Y80.1654
G01 X78.3349 Y80.1792
G01 X78.3275 Y80.1946
G01 X78.3224 Y80.2030
G01 X78.3183 Y80.2091
G01 X78.3124 Y80.2169
G01 X78.3042 Y80.2260
G01 X78.2916 Y80.2376
G01 X78.2778 Y80.2477
G01 X78.2673 Y80.2539
G01 X78.2585 Y80.2582
G01 X78.2517 Y80.2610
G01 X78.2425 Y80.2643
G01 X78.2260 Y80.2687
G01 X78.2090 Y80.2710
G01 X78.1968 Y80.2715
G01 X74.7714 Y80.2715
G01 X74.7592 Y80.2710
G01 X74.7395 Y80.2691
G01 X74.6414 Y80.2788
G01 X74.5470 Y80.3074
G01 X74.4601 Y80.3539
G01 X74.3839 Y80.4164
G01 X74.3713 Y80.4317
G01 X74.3630 Y80.4407
G01 X72.5440 Y82.2597
G01 X72.5331 Y82.2696
G01 X72.5193 Y82.2797
G01 X72.5087 Y82.2859
G01 X72.4999 Y82.2902
G01 X72.4932 Y82.2930
G01 X72.4817 Y82.2971
G01 X72.4698 Y82.3001
G01 X72.4626 Y82.3015
G01 X72.4529 Y82.3028
G01 X72.4407 Y82.3035
G01 X71.8637 Y82.3035
G01 X71.8467 Y82.3025
G01 X71.8346 Y82.3007
G01 X71.8203 Y82.2971
G01 X71.8088 Y82.2930
G01 X71.7976 Y82.2881
G01 X71.7890 Y82.2835
G01 X71.7787 Y82.2769
G01 X71.7689 Y82.2696
G01 X71.7598 Y82.2614
G01 X71.7513 Y82.2526
G01 X71.7451 Y82.2450
G01 X71.7381 Y82.2350
G01 X71.7319 Y82.2245
G01 X71.7266 Y82.2135
G01 X71.7222 Y82.2020
G01 X71.7193 Y82.1927
G01 X71.7166 Y82.1808
G01 X71.7149 Y82.1687
G01 X71.7142 Y82.1540
G01 X71.7149 Y82.1393
G01 X71.7171 Y82.1248
G01 X71.7207 Y82.1106
G01 X71.7256 Y82.0968
G01 X71.7319 Y82.0835
G01 X71.7381 Y82.0730
G01 X71.7482 Y82.0591
G01 X71.7580 Y82.0483
G01 X71.8341 Y81.9723
G01 X71.8413 Y81.9657
G01 X71.8566 Y81.9531
G01 X71.9191 Y81.8769
G01 X71.9656 Y81.7900
G01 X71.9942 Y81.6956
G01 X72.0039 Y81.5975
G01 X72.0020 Y81.5778
G01 X72.0015 Y81.5656
G01 X72.0015 Y71.3892
G01 X72.0020 Y71.3770
G01 X72.0028 Y71.3697
G01 X72.0049 Y71.3577
G01 X72.0079 Y71.3458
G01 X72.0120 Y71.3343
G01 X72.0169 Y71.3231
G01 X72.0203 Y71.3166
G01 X72.0267 Y71.3062
G01 X72.0354 Y71.2944
G01 X72.0453 Y71.2835
G01 X72.9345 Y70.3943
G01 X72.9473 Y70.3829
G01 X72.9552 Y70.3771
G01 X72.9613 Y70.3731
G01 X72.9698 Y70.3681
G01 X72.9786 Y70.3638
G01 X72.9853 Y70.3610
G01 X72.9945 Y70.3577
G01 X73.0063 Y70.3544
G01 X73.0159 Y70.3525
G01 X73.0280 Y70.3510
G01 X73.0402 Y70.3505
G01 X73.3499 Y70.3505
G01 X73.3622 Y70.3512
G01 X73.3719 Y70.3525
G01 X73.3791 Y70.3539
G01 X73.3909 Y70.3569
G01 X73.4047 Y70.3619
G01 X73.4158 Y70.3670
G01 X73.4285 Y70.3743
G01 X73.4385 Y70.3814
G01 X73.4442 Y70.3860
G01 X73.4532 Y70.3943
G01 X73.5307 Y70.4718
G01 X73.6618 Y70.5594
G01 X73.8075 Y70.6197
G01 X73.9622 Y70.6505
G01 X74.1198 Y70.6505
G01 X74.2745 Y70.6197
G01 X74.4202 Y70.5594
G01 X74.5513 Y70.4718
G01 X74.6628 Y70.3603
G01 X74.7504 Y70.2292
G01 X74.8107 Y70.0835
G01 X74.8415 Y69.9288
G01 X74.8415 Y69.8168
G01 X74.8422 Y69.8046
G01 X74.8439 Y69.7925
G01 X74.8479 Y69.7758
G01 X74.8520 Y69.7643
G01 X74.8548 Y69.7576
G01 X74.8591 Y69.7488
G01 X74.8653 Y69.7382
G01 X74.8754 Y69.7244
G01 X74.8853 Y69.7135
G01 X76.1095 Y68.4893
G01 X76.1223 Y68.4779
G01 X76.1302 Y68.4721
G01 X76.1363 Y68.4681
G01 X76.1448 Y68.4631
G01 X76.1536 Y68.4588
G01 X76.1603 Y68.4560
G01 X76.1695 Y68.4527
G01 X76.1813 Y68.4494
G01 X76.1909 Y68.4475
G01 X76.2030 Y68.4460
G01 X76.2152 Y68.4455
G01 X80.8447 Y68.4455
G01 X80.8569 Y68.4460
G01 X80.8642 Y68.4468
G01 X80.8739 Y68.4483
G01 X80.8857 Y68.4512
G01 X80.9019 Y68.4569
G01 X80.9173 Y68.4643
G01 X80.9278 Y68.4707
G01 X80.9357 Y68.4764
G01 X80.9414 Y68.4810
G01 X80.9487 Y68.4876
G01 X80.9603 Y68.5001
G01 X80.9703 Y68.5140
G01 X80.9754 Y68.5224
G01 X80.9788 Y68.5289
G01 X80.9828 Y68.5378
G01 X80.9870 Y68.5493
G01 X80.9913 Y68.5658
G01 X80.9937 Y68.5828
G01 X80.9942 Y68.5926
G01 X80.9941 Y68.5999
G01 X80.9935 Y68.6097
G01 X80.9918 Y68.6218
G01 X80.9878 Y68.6384
G01 X80.9819 Y68.6545
G01 X80.9777 Y68.6633
G01 X80.9741 Y68.6697
G01 X80.9690 Y68.6781
G01 X80.9633 Y68.6860
G01 X80.9587 Y68.6917
G01 X80.9521 Y68.6990
G01 X80.9414 Y68.7090
G01 X80.9278 Y68.7193
G01 X80.9152 Y68.7269
G01 X80.9042 Y68.7322
G01 X80.8927 Y68.7366
G01 X80.8475 Y68.7504
G01 X80.7606 Y68.7969
G01 X80.6844 Y68.8594
G01 X80.6718 Y68.8747
G01 X80.6635 Y68.8837
G01 X80.1087 Y69.4385
G01 X80.0997 Y69.4468
G01 X80.0844 Y69.4594
G01 X80.0218 Y69.5356
G01 X79.9754 Y69.6226
G01 X79.9468 Y69.7169
G01 X79.9371 Y69.8150
G01 X79.9390 Y69.8347
G01 X79.9395 Y69.8469
G01 X79.9395 Y72.1837
G01 X79.9390 Y72.1960
G01 X79.9371 Y72.2157
G01 X79.9468 Y72.3138
G01 X79.9754 Y72.4081
G01 X80.0218 Y72.4951
G01 X80.0844 Y72.5713
G01 X80.0997 Y72.5839
G01 X80.1087 Y72.5921
G01 X82.4187 Y74.9022
G01 X82.4286 Y74.9130
G01 X82.4359 Y74.9228
G01 X82.4437 Y74.9353
G01 X82.4491 Y74.9462
G01 X82.4520 Y74.9529
G01 X82.4553 Y74.9622
G01 X82.4591 Y74.9763
G01 X82.4618 Y74.9932
G01 X82.4625 Y75.0079
G01 X82.4625 Y77.6265
G01 X82.4620 Y77.6387
G01 X82.4601 Y77.6584
G01 X82.4697 Y77.7565
G01 X82.4984 Y77.8509
G01 X82.5448 Y77.9378
G01 X82.5906 Y77.9936
G01 X88.8408 Y84.2438
G01 X88.9449 Y84.3482
G01 X88.9515 Y84.3555
G01 X88.9561 Y84.3612
G01 X88.9618 Y84.3691
G01 X88.9682 Y84.3796
G01 X88.9756 Y84.3950
G01 X88.9798 Y84.4064
G01 X88.9819 Y84.4135
G01 X88.9841 Y84.4230
G01 X88.9860 Y84.4351
G01 X88.9870 Y84.4522
G01 X88.9872 Y87.9385
G01 X88.9943 Y88.0103
G01 X89.0229 Y88.1047
G01 X89.0693 Y88.1916
G01 X89.1151 Y88.2474
G01 X90.5941 Y89.7264
G01 X90.6499 Y89.7722
G01 X90.7368 Y89.8186
G01 X90.8312 Y89.8472
G01 X90.9030 Y89.8543
G01 X93.7022 Y89.8543
G01 X93.7740 Y89.8472
G01 X93.8683 Y89.8186
G01 X93.9553 Y89.7722
G01 X94.0111 Y89.7264
G01 X94.9094 Y88.8281
G01 X94.9552 Y88.7723
G01 X95.0016 Y88.6853
G01 X95.0302 Y88.5910
G01 X95.0373 Y88.5192
G01 X95.0373 Y87.2488
G01 X95.0302 Y87.1770
G01 X95.0016 Y87.0827
G01 X94.9552 Y86.9957
G01 X94.8926 Y86.9195
G01 X94.8773 Y86.9069
G01 X94.8683 Y86.8986
G01 X93.9071 Y85.9374
G01 X93.8957 Y85.9246
G01 X93.8899 Y85.9167
G01 X93.8859 Y85.9106
G01 X93.8798 Y85.9000
G01 X93.8737 Y85.8866
G01 X93.8697 Y85.8751
G01 X93.8661 Y85.8608
G01 X93.8640 Y85.8463
G01 X93.8633 Y85.8317
G01 X93.8640 Y85.8170
G01 X93.8657 Y85.8049
G01 X93.8697 Y85.7882
G01 X93.8756 Y85.7722
G01 X93.8809 Y85.7612
G01 X93.9044 Y85.7172
G01 X93.9599 Y85.5342
G01 X93.9787 Y85.3440
G01 X93.9599 Y85.1538
G01 X93.9044 Y84.9708
G01 X93.8143 Y84.8022
G01 X93.6930 Y84.6545
G01 X93.5453 Y84.5332
G01 X93.3767 Y84.4431
G01 X93.1937 Y84.3876
G01 X93.0512 Y84.3735
G01 X92.4958 Y84.3735
G01 X92.3533 Y84.3876
G01 X92.1703 Y84.4431
G01 X92.0017 Y84.5332
G01 X91.8540 Y84.6545
G01 X91.7327 Y84.8022
G01 X91.6426 Y84.9708
G01 X91.5871 Y85.1538
G01 X91.5683 Y85.3440
G01 X91.5871 Y85.5342
G01 X91.6426 Y85.7172
G01 X91.7327 Y85.8858
G01 X91.8540 Y86.0335
G01 X92.0017 Y86.1548
G01 X92.1703 Y86.2449
G01 X92.3533 Y86.3004
G01 X92.4958 Y86.3145
G01 X92.8067 Y86.3145
G01 X92.8189 Y86.3150
G01 X92.8358 Y86.3173
G01 X92.8524 Y86.3217
G01 X92.8616 Y86.3250
G01 X92.8684 Y86.3278
G01 X92.8772 Y86.3321
G01 X92.8856 Y86.3371
G01 X92.8918 Y86.3411
G01 X92.8996 Y86.3469
G01 X92.9124 Y86.3583
G01 X93.2177 Y86.6635
G01 X93.2275 Y86.6744
G01 X93.2376 Y86.6882
G01 X93.2438 Y86.6988
G01 X93.2491 Y86.7098
G01 X93.2535 Y86.7212
G01 X93.2563 Y86.7306
G01 X93.2590 Y86.7425
G01 X93.2607 Y86.7546
G01 X93.2614 Y86.7668
G01 X93.2611 Y86.7790
G01 X93.2601 Y86.7888
G01 X93.2581 Y86.8008
G01 X93.2550 Y86.8127
G01 X93.2510 Y86.8242
G01 X93.2460 Y86.8354
G01 X93.2414 Y86.8440
G01 X93.2349 Y86.8543
G01 X93.2275 Y86.8641
G01 X93.2177 Y86.8750
G01 X93.2068 Y86.8848
G01 X93.1950 Y86.8936
G01 X93.1824 Y86.9011
G01 X93.1692 Y86.9074
G01 X93.1553 Y86.9123
G01 X93.1411 Y86.9159
G01 X93.1290 Y86.9178
G01 X93.1144 Y86.9188
G01 X93.1021 Y86.9184
G01 X93.0512 Y86.9135
G01 X92.4958 Y86.9135
G01 X92.3533 Y86.9276
G01 X92.1703 Y86.9831
G01 X92.0017 Y87.0732
G01 X91.8540 Y87.1945
G01 X91.7436 Y87.3289
G01 X91.7355 Y87.3380
G01 X91.7266 Y87.3464
G01 X91.7210 Y87.3511
G01 X91.7111 Y87.3583
G01 X91.6964 Y87.3670
G01 X91.6853 Y87.3721
G01 X91.6761 Y87.3756
G01 X91.6691 Y87.3778
G01 X91.6572 Y87.3807
G01 X91.6427 Y87.3828
G01 X91.6281 Y87.3835
G01 X91.1427 Y87.3835
G01 X91.1281 Y87.3828
G01 X91.1136 Y87.3807
G01 X91.0993 Y87.3771
G01 X91.0855 Y87.3721
G01 X91.0701 Y87.3647
G01 X91.0577 Y87.3569
G01 X91.0460 Y87.3480
G01 X91.0318 Y87.3345
G01 X91.0219 Y87.3236
G01 X91.0132 Y87.3118
G01 X91.0068 Y87.3014
G01 X91.0003 Y87.2882
G01 X90.9959 Y87.2768
G01 X90.9931 Y87.2675
G01 X90.9904 Y87.2555
G01 X90.9887 Y87.2434
G01 X90.9880 Y87.2288
G01 X90.9880 Y83.8007
G01 X90.9885 Y83.7884
G01 X90.9904 Y83.7687
G01 X90.9807 Y83.6706
G01 X90.9521 Y83.5763
G01 X90.9056 Y83.4893
G01 X90.8431 Y83.4131
G01 X90.8278 Y83.4005
G01 X90.8188 Y83.3923
G01 X90.5837 Y83.1573
G01 X84.5073 Y77.0807
G01 X84.4974 Y77.0698
G01 X84.4887 Y77.0581
G01 X84.4811 Y77.0455
G01 X84.4758 Y77.0344
G01 X84.4699 Y77.0184
G01 X84.4663 Y77.0041
G01 X84.4642 Y76.9896
G01 X84.4635 Y76.9750
G01 X84.4633 Y72.8242
G01 X84.4562 Y72.7524
G01 X84.4276 Y72.6580
G01 X84.3811 Y72.5711
G01 X84.3186 Y72.4949
G01 X84.3033 Y72.4823
G01 X84.2943 Y72.4740
G01 X83.2440 Y71.4237
G01 X83.2357 Y71.4147
G01 X83.2231 Y71.3994
G01 X83.1469 Y71.3369
G01 X83.0600 Y71.2904
G01 X82.9656 Y71.2618
G01 X82.8675 Y71.2521
G01 X82.8478 Y71.2540
G01 X82.8356 Y71.2545
G01 X81.8154 Y71.2545
G01 X81.7419 Y71.2618
G01 X81.6475 Y71.2904
G01 X81.5628 Y71.3357
G01 X81.5540 Y71.3400
G01 X81.5473 Y71.3428
G01 X81.5358 Y71.3469
G01 X81.5239 Y71.3499
G01 X81.5167 Y71.3513
G01 X81.5046 Y71.3528
G01 X81.4924 Y71.3533
G01 X81.1973 Y71.3533
G01 X81.1410 Y71.3589
G01 X81.1287 Y71.3625
G01 X81.1168 Y71.3652
G01 X81.1046 Y71.3669
G01 X81.0900 Y71.3676
G01 X81.0729 Y71.3666
G01 X81.0608 Y71.3647
G01 X81.0513 Y71.3625
G01 X81.0443 Y71.3604
G01 X81.0328 Y71.3562
G01 X81.0174 Y71.3488
G01 X81.0069 Y71.3424
G01 X80.9990 Y71.3367
G01 X80.9933 Y71.3321
G01 X80.9843 Y71.3238
G01 X80.9729 Y71.3110
G01 X80.9657 Y71.3012
G01 X80.9605 Y71.2928
G01 X80.9570 Y71.2864
G01 X80.9528 Y71.2776
G01 X80.9469 Y71.2615
G01 X80.9433 Y71.2473
G01 X80.9410 Y71.2303
G01 X80.9405 Y71.2181
G01 X80.9405 Y71.0361
G01 X80.9412 Y71.0215
G01 X80.9433 Y71.0070
G01 X80.9469 Y70.9928
G01 X80.9518 Y70.9790
G01 X80.9581 Y70.9657
G01 X80.9656 Y70.9531
G01 X80.9743 Y70.9414
G01 X80.9841 Y70.9305
G01 X80.9969 Y70.9191
G01 X81.0067 Y70.9119
G01 X81.0172 Y70.9055
G01 X81.0281 Y70.9000
G01 X81.0348 Y70.8971
G01 X81.0463 Y70.8931
G01 X81.0581 Y70.8900
G01 X81.0653 Y70.8887
G01 X81.0774 Y70.8871
G01 X81.0897 Y70.8866
G01 X81.4905 Y70.8857
G01 X81.4905 Y70.8845
G01 X81.1876 Y70.8845
G01 X81.1655 Y70.8833
G01 X81.1461 Y70.8805
G01 X81.1366 Y70.8786
G01 X81.1152 Y70.8730
G01 X81.0968 Y70.8664
G01 X81.0901 Y70.8635
G01 X81.0724 Y70.8550
G01 X81.0555 Y70.8451
G01 X81.0474 Y70.8396
G01 X81.0317 Y70.8279
G01 X81.0136 Y70.8114
G01 X80.9971 Y70.7933
G01 X80.9854 Y70.7776
G01 X80.9799 Y70.7695
G01 X80.9700 Y70.7526
G01 X80.9615 Y70.7349
G01 X80.9586 Y70.7282
G01 X80.9520 Y70.7098
G01 X80.9464 Y70.6884
G01 X80.9445 Y70.6789
G01 X80.9417 Y70.6595
G01 X80.9405 Y70.6374
G01 X80.9405 Y70.3350
G01 X80.9417 Y70.3105
G01 X80.9445 Y70.2911
G01 X80.9464 Y70.2816
G01 X80.9512 Y70.2626
G01 X80.9595 Y70.2395
G01 X80.9700 Y70.2174
G01 X80.9799 Y70.2005
G01 X80.9854 Y70.1924
G01 X80.9987 Y70.1748
G01 X81.0136 Y70.1586
G01 X81.0317 Y70.1421
G01 X81.0514 Y70.1275
G01 X81.0681 Y70.1174
G01 X81.0746 Y70.1138
G01 X81.0901 Y70.1065
G01 X81.0991 Y70.1027
G01 X81.1199 Y70.0956
G01 X81.1437 Y70.0898
G01 X81.1655 Y70.0867
G01 X81.1876 Y70.0855
G01 X81.4905 Y70.0855
G01 X81.4905 Y70.0843
G01 X81.2397 Y70.0838
G01 X81.2275 Y70.0832
G01 X81.2105 Y70.0808
G01 X81.1987 Y70.0779
G01 X81.1917 Y70.0757
G01 X81.1825 Y70.0723
G01 X81.1714 Y70.0671
G01 X81.1650 Y70.0636
G01 X81.1547 Y70.0570
G01 X81.1431 Y70.0481
G01 X81.1359 Y70.0415
G01 X81.1307 Y70.0363
G01 X81.1213 Y70.0251
G01 X81.1156 Y70.0171
G01 X81.1104 Y70.0088
G01 X81.1069 Y70.0024
G01 X81.1027 Y69.9935
G01 X81.0976 Y69.9798
G01 X81.0933 Y69.9633
G01 X81.0912 Y69.9488
G01 X81.0905 Y69.9341
G01 X81.0915 Y69.9171
G01 X81.0939 Y69.9026
G01 X81.0963 Y69.8931
G01 X81.0985 Y69.8861
G01 X81.1019 Y69.8770
G01 X81.1060 Y69.8681
G01 X81.1131 Y69.8553
G01 X81.1171 Y69.8491
G01 X81.1229 Y69.8413
G01 X81.1326 Y69.8303
G01 X81.2053 Y69.7576
G01 X81.2144 Y69.7494
G01 X81.2222 Y69.7435
G01 X81.2282 Y69.7393
G01 X81.2366 Y69.7343
G01 X81.2520 Y69.7269
G01 X81.2682 Y69.7212
G01 X81.2777 Y69.7189
G01 X81.2849 Y69.7175
G01 X81.2970 Y69.7160
G01 X81.3092 Y69.7155
G01 X81.8646 Y69.7155
G01 X81.9381 Y69.7082
G01 X82.0325 Y69.6796
G01 X82.1172 Y69.6343
G01 X82.1260 Y69.6300
G01 X82.1327 Y69.6272
G01 X82.1442 Y69.6231
G01 X82.1561 Y69.6201
G01 X82.1633 Y69.6187
G01 X82.1754 Y69.6172
G01 X82.1876 Y69.6167
G01 X82.4827 Y69.6167
G01 X82.5390 Y69.6111
G01 X82.5860 Y69.5969
G01 X82.6294 Y69.5737
G01 X82.6675 Y69.5425
G01 X82.6987 Y69.5044
G01 X82.7219 Y69.4610
G01 X82.7361 Y69.4140
G01 X82.7417 Y69.3577
G01 X82.7417 Y69.0723
G01 X82.7361 Y69.0160
G01 X82.7219 Y68.9690
G01 X82.6987 Y68.9256
G01 X82.6675 Y68.8875
G01 X82.6294 Y68.8563
G01 X82.5860 Y68.8331
G01 X82.5390 Y68.8189
G01 X82.4827 Y68.8133
G01 X82.1828 Y68.8132
G01 X82.1706 Y68.8123
G01 X82.1585 Y68.8104
G01 X82.1466 Y68.8076
G01 X82.1350 Y68.8037
G01 X82.1282 Y68.8010
G01 X82.1172 Y68.7957
G01 X82.0325 Y68.7504
G01 X81.9425 Y68.7231
G01 X81.9332 Y68.7199
G01 X81.9264 Y68.7172
G01 X81.9154 Y68.7119
G01 X81.9048 Y68.7057
G01 X81.8988 Y68.7015
G01 X81.8910 Y68.6956
G01 X81.8837 Y68.6891
G01 X81.8784 Y68.6840
G01 X81.8719 Y68.6767
G01 X81.8615 Y68.6631
G01 X81.8540 Y68.6505
G01 X81.8468 Y68.6350
G01 X81.8435 Y68.6257
G01 X81.8415 Y68.6187
G01 X81.8392 Y68.6092
G01 X81.8377 Y68.5995
G01 X81.8369 Y68.5922
G01 X81.8364 Y68.5824
G01 X81.8371 Y68.5653
G01 X81.8397 Y68.5484
G01 X81.8421 Y68.5389
G01 X81.8443 Y68.5320
G01 X81.8477 Y68.5228
G01 X81.8518 Y68.5139
G01 X81.8552 Y68.5074
G01 X81.8602 Y68.4990
G01 X81.8703 Y68.4851
G01 X81.8819 Y68.4726
G01 X81.8891 Y68.4660
G01 X81.8949 Y68.4614
G01 X81.9028 Y68.4557
G01 X81.9132 Y68.4493
G01 X81.9197 Y68.4459
G01 X81.9309 Y68.4410
G01 X81.9425 Y68.4369
G01 X82.0325 Y68.4096
G01 X82.1172 Y68.3643
G01 X82.1327 Y68.3572
G01 X82.1442 Y68.3531
G01 X82.1585 Y68.3496
G01 X82.1706 Y68.3477
G01 X82.1828 Y68.3468
G01 X82.4827 Y68.3467
G01 X82.5390 Y68.3411
G01 X82.5860 Y68.3269
G01 X82.6294 Y68.3037
G01 X82.6675 Y68.2725
G01 X82.6987 Y68.2344
G01 X82.7219 Y68.1910
G01 X82.7361 Y68.1440
G01 X82.7417 Y68.0877
G01 X82.7417 Y67.8023
G01 X82.7361 Y67.7460
G01 X82.7219 Y67.6990
G01 X82.6987 Y67.6556
G01 X82.6675 Y67.6175
G01 X82.6294 Y67.5863
G01 X82.5860 Y67.5631
G01 X82.5390 Y67.5489
G01 X82.4827 Y67.5433
G01 X82.1876 Y67.5433
G01 X82.1754 Y67.5428
G01 X82.1633 Y67.5413
G01 X82.1561 Y67.5399
G01 X82.1442 Y67.5369
G01 X82.1327 Y67.5328
G01 X82.1260 Y67.5300
G01 X82.1172 Y67.5257
G01 X82.0325 Y67.4804
G01 X81.9381 Y67.4518
G01 X81.8646 Y67.4445
G01 X75.9779 Y67.4445
G01 X75.9657 Y67.4440
G01 X75.9460 Y67.4421
G01 X75.8479 Y67.4518
G01 X75.7535 Y67.4804
G01 X75.6666 Y67.5269
G01 X75.5904 Y67.5894
G01 X75.5778 Y67.6047
G01 X75.5695 Y67.6137
G01 X74.1775 Y69.0057
G01 X74.1685 Y69.0140
G01 X74.1628 Y69.0186
G01 X74.1548 Y69.0243
G01 X74.1444 Y69.0307
G01 X74.1312 Y69.0372
G01 X74.1175 Y69.0423
G01 X74.1033 Y69.0461
G01 X74.0913 Y69.0482
G01 X74.0840 Y69.0490
G01 X74.0718 Y69.0495
G01 X73.9622 Y69.0495
G01 X73.8075 Y69.0803
G01 X73.6618 Y69.1406
G01 X73.5307 Y69.2282
G01 X73.4515 Y69.3074
G01 X73.4424 Y69.3156
G01 X73.4346 Y69.3215
G01 X73.4285 Y69.3257
G01 X73.4201 Y69.3307
G01 X73.4070 Y69.3372
G01 X73.3932 Y69.3423
G01 X73.3791 Y69.3461
G01 X73.3622 Y69.3488
G01 X73.3475 Y69.3495
G01 X72.8029 Y69.3495
G01 X72.7907 Y69.3490
G01 X72.7710 Y69.3471
G01 X72.6729 Y69.3568
G01 X72.5785 Y69.3854
G01 X72.4916 Y69.4319
G01 X72.4154 Y69.4944
G01 X72.4028 Y69.5097
G01 X72.3945 Y69.5187
G01 X72.2567 Y69.6565
G01 X72.2477 Y69.6648
G01 X72.2341 Y69.6751
G01 X72.2215 Y69.6826
G01 X72.2060 Y69.6898
G01 X72.1967 Y69.6931
G01 X72.1897 Y69.6951
G01 X72.1802 Y69.6974
G01 X72.1705 Y69.6990
G01 X72.1559 Y69.7002
G01 X72.1486 Y69.7003
G01 X72.1388 Y69.6998
G01 X72.1266 Y69.6982
G01 X72.1194 Y69.6969
G01 X72.1099 Y69.6945
G01 X72.0960 Y69.6898
G01 X72.0827 Y69.6838
G01 X72.0700 Y69.6764
G01 X72.0561 Y69.6663
G01 X72.0453 Y69.6565
G01 X72.0354 Y69.6456
G01 X72.0267 Y69.6338
G01 X72.0191 Y69.6212
G01 X72.0120 Y69.6057
G01 X72.0072 Y69.5918
G01 X72.0049 Y69.5823
G01 X72.0035 Y69.5751
G01 X72.0020 Y69.5630
G01 X72.0015 Y69.5508
G01 X72.0015 Y66.0526
G01 X72.0022 Y66.0403
G01 X72.0039 Y66.0282
G01 X72.0066 Y66.0163
G01 X72.0087 Y66.0093
G01 X72.0129 Y65.9978
G01 X72.0180 Y65.9867
G01 X72.0241 Y65.9761
G01 X72.0281 Y65.9699
G01 X72.0354 Y65.9601
G01 X72.0436 Y65.9510
G01 X72.0488 Y65.9459
G01 X72.0580 Y65.9379
G01 X72.0679 Y65.9307
G01 X72.0784 Y65.9243
G01 X72.0893 Y65.9188
G01 X72.0983 Y65.9151
G01 X72.1099 Y65.9112
G01 X72.1242 Y65.9079
G01 X72.1363 Y65.9062
G01 X72.1510 Y65.9055
G01 X73.3475 Y65.9055
G01 X73.3597 Y65.9060
G01 X73.3670 Y65.9068
G01 X73.3767 Y65.9083
G01 X73.3862 Y65.9106
G01 X73.3932 Y65.9127
G01 X73.4025 Y65.9160
G01 X73.4180 Y65.9231
G01 X73.4326 Y65.9321
G01 X73.4424 Y65.9394
G01 X73.4515 Y65.9476
G01 X73.5307 Y66.0268
G01 X73.6618 Y66.1144
G01 X73.8075 Y66.1747
G01 X73.9622 Y66.2055
G01 X74.1198 Y66.2055
G01 X74.2745 Y66.1747
G01 X74.4202 Y66.1144
G01 X74.5513 Y66.0268
G01 X74.6305 Y65.9476
G01 X74.6396 Y65.9394
G01 X74.6494 Y65.9321
G01 X74.6640 Y65.9231
G01 X74.6750 Y65.9178
G01 X74.6818 Y65.9151
G01 X74.6911 Y65.9119
G01 X74.7029 Y65.9089
G01 X74.7150 Y65.9068
G01 X74.7223 Y65.9060
G01 X74.7345 Y65.9055
G01 X74.9990 Y65.9055
G01 X75.0113 Y65.9060
G01 X75.0309 Y65.9079
G01 X75.0506 Y65.9060
G01 X75.0629 Y65.9055
G01 X81.8646 Y65.9055
G01 X81.9381 Y65.8982
G01 X82.0325 Y65.8696
G01 X82.1172 Y65.8243
G01 X82.1260 Y65.8200
G01 X82.1327 Y65.8172
G01 X82.1442 Y65.8131
G01 X82.1609 Y65.8091
G01 X82.1730 Y65.8074
G01 X82.1876 Y65.8067
G01 X82.4827 Y65.8067
G01 X82.5390 Y65.8011
G01 X82.5860 Y65.7869
G01 X82.6294 Y65.7637
G01 X82.6675 Y65.7325
G01 X82.6987 Y65.6944
G01 X82.7219 Y65.6510
G01 X82.7361 Y65.6040
G01 X82.7417 Y65.5477
G01 X82.7417 Y65.2623
G01 X82.7361 Y65.2060
G01 X82.7219 Y65.1590
G01 X82.6987 Y65.1156
G01 X82.6675 Y65.0775
G01 X82.6294 Y65.0463
G01 X82.5860 Y65.0231
G01 X82.5390 Y65.0089
G01 X82.4827 Y65.0033
G01 X82.1876 Y65.0033
G01 X82.1730 Y65.0026
G01 X82.1609 Y65.0009
G01 X82.1442 Y64.9969
G01 X82.1327 Y64.9928
G01 X82.1260 Y64.9900
G01 X82.1172 Y64.9857
G01 X82.0325 Y64.9404
G01 X81.9381 Y64.9118
G01 X81.8646 Y64.9045
G01 X76.5977 Y64.9045
G01 X76.5855 Y64.9038
G01 X76.5710 Y64.9017
G01 X76.5591 Y64.8988
G01 X76.5475 Y64.8949
G01 X76.5385 Y64.8912
G01 X76.5276 Y64.8857
G01 X76.5171 Y64.8793
G01 X76.5053 Y64.8706
G01 X76.4945 Y64.8607
G01 X76.4862 Y64.8517
G01 X76.4787 Y64.8421
G01 X76.4732 Y64.8339
G01 X76.4672 Y64.8233
G01 X76.4620 Y64.8122
G01 X76.4571 Y64.7984
G01 X76.4540 Y64.7866
G01 X76.4514 Y64.7697
G01 X76.4507 Y64.7526
G01 X76.4512 Y64.7428
G01 X76.4520 Y64.7355
G01 X76.4535 Y64.7258
G01 X76.4564 Y64.7139
G01 X76.4620 Y64.6978
G01 X76.4695 Y64.6824
G01 X76.4745 Y64.6740
G01 X76.4787 Y64.6679
G01 X76.4846 Y64.6601
G01 X76.4928 Y64.6510
G01 X78.5633 Y62.5804
G01 X78.5723 Y62.5721
G01 X78.5876 Y62.5596
G01 X78.6501 Y62.4833
G01 X78.6966 Y62.3964
G01 X78.7252 Y62.3021
G01 X78.7349 Y62.2039
G01 X78.7330 Y62.1842
G01 X78.7325 Y62.1720
G01 X78.7325 Y56.5302
G01 X78.7332 Y56.5156
G01 X78.7353 Y56.5011
G01 X78.7382 Y56.4892
G01 X78.7404 Y56.4822
G01 X78.7448 Y56.4708
G01 X78.7501 Y56.4598
G01 X78.7563 Y56.4492
G01 X78.7605 Y56.4432
G01 X78.7680 Y56.4335
G01 X78.7763 Y56.4245
G01 X80.0873 Y55.1135
G01 X80.0963 Y55.1052
G01 X80.1116 Y55.0926
G01 X80.1741 Y55.0164
G01 X80.2206 Y54.9295
G01 X80.2492 Y54.8351
G01 X80.2589 Y54.7370
G01 X80.2570 Y54.7173
G01 X80.2565 Y54.7051
G01 X80.2565 Y44.9899
G01 X80.2570 Y44.9777
G01 X80.2589 Y44.9580
G01 X80.2492 Y44.8599
G01 X80.2206 Y44.7655
G01 X80.1741 Y44.6786
G01 X80.1116 Y44.6024
G01 X80.0963 Y44.5898
G01 X80.0873 Y44.5815
G01 X73.7703 Y38.2645
G01 X73.7604 Y38.2536
G01 X73.7503 Y38.2398
G01 X73.7453 Y38.2314
G01 X73.7419 Y38.2249
G01 X73.7379 Y38.2160
G01 X73.7344 Y38.2068
G01 X73.7316 Y38.1975
G01 X73.7289 Y38.1855
G01 X73.7272 Y38.1734
G01 X73.7265 Y38.1588
G01 X73.7265 Y28.6602
G01 X73.7272 Y28.6456
G01 X73.7293 Y28.6310
G01 X73.7322 Y28.6191
G01 X73.7361 Y28.6075
G01 X73.7398 Y28.5985
G01 X73.7453 Y28.5876
G01 X73.7517 Y28.5771
G01 X73.7589 Y28.5673
G01 X73.7669 Y28.5580
G01 X73.7738 Y28.5511
G01 X73.7830 Y28.5431
G01 X73.7929 Y28.5359
G01 X73.8034 Y28.5295
G01 X73.8143 Y28.5240
G01 X73.8233 Y28.5203
G01 X73.8349 Y28.5164
G01 X73.8468 Y28.5136
G01 X73.8589 Y28.5117
G01 X73.8760 Y28.5107
G01 X75.5187 Y28.5107
G01 X75.5457 Y28.5080
G01 X75.5646 Y28.5023
G01 X75.5821 Y28.4929
G01 X75.5974 Y28.4804
G01 X75.6099 Y28.4651
G01 X75.6193 Y28.4476
G01 X75.6250 Y28.4287
G01 X75.6277 Y28.4017
G01 X75.6277 Y26.7163
G01 X75.6250 Y26.6893
G01 X75.6193 Y26.6704
G01 X75.6099 Y26.6529
G01 X75.5974 Y26.6376
G01 X75.5821 Y26.6251
G01 X75.5646 Y26.6157
G01 X75.5457 Y26.6100
G01 X75.5187 Y26.6073
G01 X73.9164 Y26.6073
G01 X73.9018 Y26.6066
G01 X73.8873 Y26.6044
G01 X73.8730 Y26.6009
G01 X73.8592 Y26.5959
G01 X73.8481 Y26.5908
G01 X73.8354 Y26.5834
G01 X73.8235 Y26.5749
G01 X73.8125 Y26.5652
G01 X73.8041 Y26.5563
G01 X73.7949 Y26.5449
G01 X73.7895 Y26.5367
G01 X73.7835 Y26.5261
G01 X73.7793 Y26.5173
G01 X73.7765 Y26.5105
G01 X73.7727 Y26.4989
G01 X73.7693 Y26.4846
G01 X73.7674 Y26.4700
G01 X73.7670 Y26.4553
G01 X73.7676 Y26.4431
G01 X73.7698 Y26.4286
G01 X73.7734 Y26.4144
G01 X73.7783 Y26.4006
G01 X73.7846 Y26.3873
G01 X73.7921 Y26.3747
G01 X73.8009 Y26.3629
G01 X73.8090 Y26.3538
G01 X74.0210 Y26.1418
G01 X74.0319 Y26.1319
G01 X74.0417 Y26.1246
G01 X74.0478 Y26.1206
G01 X74.0584 Y26.1145
G01 X74.0695 Y26.1094
G01 X74.0810 Y26.1052
G01 X74.0928 Y26.1019
G01 X74.1024 Y26.1000
G01 X74.1145 Y26.0985
G01 X74.1267 Y26.0980
G01 X79.0186 Y26.0980
G01 X79.0308 Y26.0985
G01 X79.0505 Y26.1004
G01 X79.1486 Y26.0907
G01 X79.2430 Y26.0621
G01 X79.3299 Y26.0156
G01 X79.4061 Y25.9531
G01 X79.4187 Y25.9378
G01 X79.4270 Y25.9288
G01 X82.7830 Y22.5728
G01 X82.7938 Y22.5630
G01 X82.8056 Y22.5542
G01 X82.8161 Y22.5479
G01 X82.8270 Y22.5424
G01 X82.8360 Y22.5386
G01 X82.8476 Y22.5348
G01 X82.8619 Y22.5315
G01 X82.8740 Y22.5297
G01 X82.8887 Y22.5290
G01 X82.9033 Y22.5297
G01 X82.9155 Y22.5315
G01 X83.0766 Y22.5635
G01 X83.2934 Y22.5635
G01 X83.5060 Y22.5212
G01 X83.7063 Y22.4382
G01 X83.8865 Y22.3178
G01 X84.0398 Y22.1645
G01 X84.1602 Y21.9843
G01 X84.2432 Y21.7840
G01 X84.2855 Y21.5714
G01 X84.2855 Y21.3546
G01 X84.2432 Y21.1420
G01 X84.1602 Y20.9417
G01 X84.0398 Y20.7615
G01 X83.8865 Y20.6082
G01 X83.7063 Y20.4878
G01 X83.5060 Y20.4048
G01 X83.2934 Y20.3625
G01 X83.0766 Y20.3625
G01 X82.8640 Y20.4048
G01 X82.6637 Y20.4878
G01 X82.4835 Y20.6082
G01 X82.3302 Y20.7615
G01 X82.2098 Y20.9417
G01 X82.1268 Y21.1420
G01 X82.0845 Y21.3546
G01 X82.0845 Y21.5714
G01 X82.1165 Y21.7325
G01 X82.1183 Y21.7447
G01 X82.1190 Y21.7593
G01 X82.1183 Y21.7740
G01 X82.1165 Y21.7861
G01 X82.1132 Y21.8004
G01 X82.1094 Y21.8120
G01 X82.1056 Y21.8210
G01 X82.1001 Y21.8319
G01 X82.0938 Y21.8424
G01 X82.0850 Y21.8542
G01 X82.0752 Y21.8650
G01 X78.8870 Y25.0532
G01 X78.8761 Y25.0631
G01 X78.8643 Y25.0718
G01 X78.8517 Y25.0794
G01 X78.8407 Y25.0847
G01 X78.8247 Y25.0906
G01 X78.8104 Y25.0942
G01 X78.7959 Y25.0963
G01 X78.7813 Y25.0970
G01 X73.8894 Y25.0970
G01 X73.8772 Y25.0965
G01 X73.8575 Y25.0946
G01 X73.7594 Y25.1043
G01 X73.6650 Y25.1329
G01 X73.5781 Y25.1794
G01 X73.5019 Y25.2419
G01 X73.4893 Y25.2572
G01 X73.4810 Y25.2662
G01 X72.8947 Y25.8525
G01 X72.8857 Y25.8608
G01 X72.8704 Y25.8734
G01 X72.8079 Y25.9496
G01 X72.7614 Y26.0365
G01 X72.7328 Y26.1309
G01 X72.7231 Y26.2290
G01 X72.7250 Y26.2487
G01 X72.7255 Y26.2609
G01 X72.7255 Y38.3961
G01 X72.7250 Y38.4083
G01 X72.7231 Y38.4280
G01 X72.7328 Y38.5261
G01 X72.7614 Y38.6204
G01 X72.8079 Y38.7074
G01 X72.8704 Y38.7836
G01 X72.8857 Y38.7962
G01 X72.8947 Y38.8045
G01 X79.2117 Y45.1215
G01 X79.2200 Y45.1305
G01 X79.2275 Y45.1402
G01 X79.2329 Y45.1483
G01 X79.2390 Y45.1589
G01 X79.2432 Y45.1678
G01 X79.2459 Y45.1746
G01 X79.2491 Y45.1838
G01 X79.2516 Y45.1933
G01 X79.2531 Y45.2005
G01 X79.2545 Y45.2102
G01 X79.2555 Y45.2272
G01 X79.2555 Y51.0953
G01 X79.2550 Y51.1075
G01 X79.2542 Y51.1148
G01 X79.2527 Y51.1245
G01 X79.2498 Y51.1364
G01 X79.2476 Y51.1433
G01 X79.2432 Y51.1548
G01 X79.2379 Y51.1658
G01 X79.2329 Y51.1742
G01 X79.2289 Y51.1804
G01 X79.2216 Y51.1901
G01 X79.2134 Y51.1993
G01 X79.2082 Y51.2044
G01 X79.2009 Y51.2109
G01 X79.1911 Y51.2182
G01 X79.1849 Y51.2222
G01 X79.1743 Y51.2283
G01 X79.1632 Y51.2334
G01 X79.1517 Y51.2376
G01 X79.1399 Y51.2409
G01 X79.1304 Y51.2428
G01 X79.1182 Y51.2443
G01 X79.1060 Y51.2448
G01 X79.0938 Y51.2443
G01 X79.0816 Y51.2428
G01 X79.0721 Y51.2409
G01 X79.0603 Y51.2376
G01 X79.0488 Y51.2334
G01 X79.0377 Y51.2283
G01 X79.0271 Y51.2222
G01 X79.0189 Y51.2168
G01 X79.0093 Y51.2093
G01 X79.0003 Y51.2010
G01 X60.9043 Y33.1050
G01 X60.8944 Y33.0941
G01 X60.8871 Y33.0844
G01 X60.8805 Y33.0740
G01 X60.8759 Y33.0654
G01 X60.8710 Y33.0542
G01 X60.8662 Y33.0403
G01 X60.8633 Y33.0285
G01 X60.8612 Y33.0139
G01 X60.8605 Y32.9993
G01 X60.8605 Y27.9876
G01 X60.8612 Y27.9753
G01 X60.8625 Y27.9656
G01 X60.8639 Y27.9584
G01 X60.8669 Y27.9466
G01 X60.8710 Y27.9350
G01 X60.8738 Y27.9283
G01 X60.8781 Y27.9195
G01 X60.8843 Y27.9090
G01 X60.8944 Y27.8951
G01 X60.9026 Y27.8860
G01 X60.9078 Y27.8809
G01 X60.9151 Y27.8744
G01 X60.9249 Y27.8671
G01 X60.9311 Y27.8631
G01 X60.9417 Y27.8570
G01 X60.9505 Y27.8528
G01 X60.9573 Y27.8501
G01 X60.9666 Y27.8469
G01 X60.9761 Y27.8444
G01 X60.9832 Y27.8429
G01 X60.9929 Y27.8415
G01 X61.0100 Y27.8405
G01 X67.3498 Y27.8405
G01 X67.3620 Y27.8410
G01 X67.3693 Y27.8418
G01 X67.3789 Y27.8433
G01 X67.3908 Y27.8462
G01 X67.3978 Y27.8484
G01 X67.4092 Y27.8528
G01 X67.4181 Y27.8570
G01 X67.4374 Y27.8673
G01 X67.4563 Y27.8730
G01 X67.4833 Y27.8757
G01 X69.1687 Y27.8757
G01 X69.1957 Y27.8730
G01 X69.2146 Y27.8673
G01 X69.2339 Y27.8570
G01 X69.2428 Y27.8528
G01 X69.2496 Y27.8501
G01 X69.2612 Y27.8462
G01 X69.2731 Y27.8433
G01 X69.2827 Y27.8418
G01 X69.2900 Y27.8410
G01 X69.2998 Y27.8405
G01 X71.0205 Y27.8405
G01 X71.0205 Y19.2765
G01 X69.4123 Y19.2765
G01 X69.3977 Y19.2758
G01 X69.3856 Y19.2741
G01 X69.3736 Y19.2714
G01 X69.3643 Y19.2686
G01 X69.3529 Y19.2642
G01 X69.3440 Y19.2600
G01 X69.3376 Y19.2565
G01 X69.3293 Y19.2513
G01 X69.3213 Y19.2456
G01 X69.3102 Y19.2361
G01 X69.3049 Y19.2310
G01 X69.2983 Y19.2237
G01 X69.2894 Y19.2121
G01 X69.2817 Y19.1996
G01 X69.2762 Y19.1887
G01 X69.2733 Y19.1820
G01 X69.2700 Y19.1727
G01 X69.2662 Y19.1586
G01 X69.2399 Y19.0268
G01 X69.1683 Y18.8538
G01 X69.0643 Y18.6981
G01 X68.9319 Y18.5657
G01 X68.7762 Y18.4617
G01 X68.6032 Y18.3901
G01 X68.4196 Y18.3535
G01 X68.2324 Y18.3535
G01 X68.0488 Y18.3901
G01 X67.8758 Y18.4617
G01 X67.7201 Y18.5657
G01 X67.5877 Y18.6981
G01 X67.4837 Y18.8538
G01 X67.4121 Y19.0268
G01 X67.3863 Y19.1562
G01 X67.3840 Y19.1657
G01 X67.3812 Y19.1750
G01 X67.3768 Y19.1865
G01 X67.3715 Y19.1975
G01 X67.3640 Y19.2101
G01 X67.3552 Y19.2219
G01 X67.3436 Y19.2344
G01 X67.3364 Y19.2410
G01 X67.3307 Y19.2456
G01 X67.3227 Y19.2513
G01 X67.3144 Y19.2565
G01 X67.3080 Y19.2600
G01 X67.2991 Y19.2642
G01 X67.2854 Y19.2693
G01 X67.2688 Y19.2737
G01 X67.2543 Y19.2758
G01 X67.2397 Y19.2765
G01 X61.0076 Y19.2765
G01 X60.9953 Y19.2758
G01 X60.9856 Y19.2745
G01 X60.9784 Y19.2731
G01 X60.9666 Y19.2701
G01 X60.9550 Y19.2660
G01 X60.9439 Y19.2611
G01 X60.9374 Y19.2577
G01 X60.9269 Y19.2513
G01 X60.9170 Y19.2441
G01 X60.9078 Y19.2361
G01 X60.9026 Y19.2310
G01 X60.8944 Y19.2219
G01 X60.8871 Y19.2121
G01 X60.8831 Y19.2059
G01 X60.8770 Y19.1953
G01 X60.8719 Y19.1842
G01 X60.8669 Y19.1704
G01 X60.8633 Y19.1562
G01 X60.8612 Y19.1417
G01 X60.8605 Y19.1270
G01 X60.8605 Y12.3074
G01 X60.8610 Y12.2952
G01 X60.8618 Y12.2879
G01 X60.8633 Y12.2782
G01 X60.8662 Y12.2664
G01 X60.8719 Y12.2502
G01 X60.8805 Y12.2326
G01 X60.8976 Y12.1759
G01 X60.9034 Y12.1170
G01 X60.9025 Y12.1072
G01 X60.9020 Y12.0949
G01 X60.9020 Y3.3360
G01 X60.9027 Y3.3214
G01 X60.9049 Y3.3068
G01 X60.9084 Y3.2926
G01 X60.9134 Y3.2788
G01 X60.9196 Y3.2655
G01 X60.9272 Y3.2529
G01 X60.9359 Y3.2412
G01 X60.9441 Y3.2320
G01 X60.9567 Y3.2204
G01 X60.9684 Y3.2117
G01 X60.9810 Y3.2041
G01 X60.9943 Y3.1979
G01 X61.0081 Y3.1929
G01 X61.0223 Y3.1894
G01 X61.0369 Y3.1872
G01 X61.0515 Y3.1865
G01 X82.1000 Y3.1865
G01 X82.1122 Y3.1870
G01 X82.1244 Y3.1885
G01 X82.1339 Y3.1904
G01 X82.1457 Y3.1937
G01 X82.1572 Y3.1979
G01 X82.1683 Y3.2030
G01 X82.1789 Y3.2091
G01 X82.1851 Y3.2131
G01 X82.1949 Y3.2204
G01 X82.2040 Y3.2286
G01 X82.2124 Y3.2375
G01 X82.2186 Y3.2450
G01 X82.2257 Y3.2550
G01 X82.2319 Y3.2655
G01 X82.2372 Y3.2765
G01 X82.2416 Y3.2880
G01 X82.2444 Y3.2973
G01 X82.2467 Y3.3068
G01 X82.2485 Y3.3189
G01 X82.2495 Y3.3360
G01 X82.2495 Y3.7244
G01 X82.2490 Y3.7366
G01 X82.2481 Y3.7465
G01 X82.2539 Y3.8054
G01 X82.2711 Y3.8620
G01 X82.2990 Y3.9142
G01 X82.3365 Y3.9600
G01 X82.3442 Y3.9663
G01 X82.3532 Y3.9746
G01 X83.4084 Y5.0298
G01 X83.4167 Y5.0388
G01 X83.4230 Y5.0465
G01 X83.4688 Y5.0840
G01 X83.5210 Y5.1119
G01 X83.5776 Y5.1291
G01 X83.6365 Y5.1349
G01 X83.6464 Y5.1340
G01 X83.6586 Y5.1335
G01 X87.8745 Y5.1335
G01 X87.8867 Y5.1342
G01 X87.9012 Y5.1363
G01 X87.9131 Y5.1392
G01 X87.9247 Y5.1431
G01 X87.9337 Y5.1468
G01 X87.9447 Y5.1523
G01 X87.9551 Y5.1587
G01 X87.9669 Y5.1674
G01 X87.9778 Y5.1773
G01 X97.0647 Y14.2642
G01 X97.0730 Y14.2732
G01 X97.0776 Y14.2789
G01 X97.0847 Y14.2889
G01 X97.0909 Y14.2995
G01 X97.0962 Y14.3105
G01 X97.0989 Y14.3173
G01 X97.1021 Y14.3265
G01 X97.1051 Y14.3384
G01 X97.1078 Y14.3553
G01 X97.1085 Y14.3699
G01 X97.1085 Y44.6000
G01 X97.1080 Y44.6122
G01 X97.1061 Y44.6268
G01 X97.1028 Y44.6410
G01 X97.0980 Y44.6549
G01 X97.0931 Y44.6661
G01 X97.0859 Y44.6789
G01 X97.0805 Y44.6871
G01 X97.0730 Y44.6967
G01 X97.0630 Y44.7074
G01 X97.0539 Y44.7156
G01 X97.0421 Y44.7243
G01 X97.0295 Y44.7319
G01 X97.0162 Y44.7381
G01 X97.0024 Y44.7431
G01 X96.9882 Y44.7466
G01 X96.9737 Y44.7488
G01 X96.9614 Y44.7495
G01 X87.4046 Y44.7495
G01 X87.3924 Y44.7490
G01 X87.3826 Y44.7481
G01 X87.3236 Y44.7539
G01 X87.2670 Y44.7710
G01 X87.2148 Y44.7989
G01 X87.1691 Y44.8365
G01 X87.1627 Y44.8441
G01 X87.1545 Y44.8531
G01 X86.8293 Y45.1781
G01 X86.8220 Y45.1846
G01 X86.8122 Y45.1920
G01 X86.8019 Y45.1985
G01 X86.7954 Y45.2020
G01 X86.7843 Y45.2072
G01 X86.7752 Y45.2106
G01 X86.7682 Y45.2128
G01 X86.7563 Y45.2157
G01 X86.7418 Y45.2178
G01 X86.7271 Y45.2185
G01 X84.8595 Y45.2187
G01 X84.8171 Y45.2229
G01 X84.7604 Y45.2401
G01 X84.7082 Y45.2680
G01 X84.6753 Y45.2950
G01 X84.5210 Y45.4493
G01 X84.4940 Y45.4823
G01 X84.4661 Y45.5345
G01 X84.4489 Y45.5911
G01 X84.4431 Y45.6500
G01 X84.4440 Y45.6599
G01 X84.4445 Y45.6721
G01 X84.4445 Y45.7988
G01 X84.4438 Y45.8134
G01 X84.4421 Y45.8256
G01 X84.4394 Y45.8375
G01 X84.4373 Y45.8445
G01 X84.4331 Y45.8560
G01 X84.4280 Y45.8671
G01 X84.4219 Y45.8777
G01 X84.4179 Y45.8839
G01 X84.4106 Y45.8936
G01 X84.4041 Y45.9010
G01 X84.3972 Y45.9079
G01 X84.3880 Y45.9159
G01 X84.3781 Y45.9231
G01 X84.3655 Y45.9307
G01 X84.3522 Y45.9369
G01 X84.3407 Y45.9411
G01 X84.3289 Y45.9444
G01 X84.3194 Y45.9463
G01 X84.3072 Y45.9478
G01 X84.2950 Y45.9483
G01 X84.1023 Y45.9483
G01 X84.0753 Y45.9510
G01 X84.0564 Y45.9567
G01 X84.0389 Y45.9661
G01 X84.0236 Y45.9786
G01 X84.0111 Y45.9939
G01 X84.0017 Y46.0114
G01 X83.9960 Y46.0303
G01 X83.9947 Y46.0433
G01 X83.9947 Y47.6067
G01 X83.9960 Y47.6197
G01 X84.0017 Y47.6386
G01 X84.0111 Y47.6561
G01 X84.0236 Y47.6714
G01 X84.0389 Y47.6839
G01 X84.0564 Y47.6933
G01 X84.0753 Y47.6990
G01 X84.1023 Y47.7017
G01 X84.2950 Y47.7017
G01 X84.3072 Y47.7022
G01 X84.3218 Y47.7041
G01 X84.3361 Y47.7074
G01 X84.3500 Y47.7122
G01 X84.3633 Y47.7182
G01 X84.3697 Y47.7217
G01 X84.3801 Y47.7283
G01 X84.3899 Y47.7356
G01 X84.3972 Y47.7421
G01 X84.4024 Y47.7472
G01 X84.4106 Y47.7564
G01 X84.4179 Y47.7661
G01 X84.4219 Y47.7723
G01 X84.4269 Y47.7807
G01 X84.4322 Y47.7917
G01 X84.4366 Y47.8032
G01 X84.4388 Y47.8101
G01 X84.4417 Y47.8220
G01 X84.4432 Y47.8317
G01 X84.4440 Y47.8390
G01 X84.4445 Y47.8512
G01 X84.4445 Y53.7488
G01 X84.4442 Y53.7586
G01 X84.4435 Y53.7659
G01 X84.4417 Y53.7780
G01 X84.4373 Y53.7945
G01 X84.4331 Y53.8060
G01 X84.4291 Y53.8149
G01 X84.4257 Y53.8214
G01 X84.4193 Y53.8319
G01 X84.4090 Y53.8455
G01 X84.4007 Y53.8545
G01 X84.3936 Y53.8612
G01 X84.3880 Y53.8659
G01 X84.3781 Y53.8731
G01 X84.3633 Y53.8818
G01 X84.3500 Y53.8878
G01 X84.3361 Y53.8926
G01 X84.3218 Y53.8959
G01 X84.3072 Y53.8978
G01 X84.2950 Y53.8983
G01 X84.1023 Y53.8983
G01 X84.0753 Y53.9010
G01 X84.0564 Y53.9067
G01 X84.0389 Y53.9161
G01 X84.0236 Y53.9286
G01 X84.0111 Y53.9439
G01 X84.0017 Y53.9614
