(G-CODE GENERATED BY FLATCAM v8.992 - www.flatcam.org - Version Date: 2020/05/01)

(Name: hardware-B_Cu.gbr_iso_cnc)
(Type: G-code from Geometry)
(Units: MM)

(Created on Montag, 07 September 2020 at 21:48)

(This preprocessor is the default preprocessor used by FlatCAM.)
(It is made to work with MACH3 compatible motion controllers.)

(TOOL DIAMETER: 0.199 mm)
(Feedrate_XY: 500.0 mm/min)
(Feedrate_Z: 500.0 mm/min)
(Feedrate rapids 1500.0 mm/min)

(Z_Cut: -0.04 mm)
(Z_Move: 1.0 mm)
(Z Start: None mm)
(Z End: 2.0 mm)
(Steps per circle: 64)
(Preprocessor Geometry: default)

(X range:  -99.8715 ...    0.0495  mm)
(Y range:   -0.0495 ...   99.8715  mm)

(Spindle Speed: None RPM)
G21
G90
G94

M3141 ;  Enable RF1000 Z compensation

G01 F500.00
G00 Z1.0000

M03
G00 X-1.7170 Y4.6717
G01 F500.00
G01 Z-0.0400
G01 F500.00
G01 X-1.7160 Y4.6815
G01 X-1.7005 Y5.0000
G01 X-1.7164 Y5.3234
G01 X-1.7639 Y5.6437
G01 X-1.8426 Y5.9578
G01 X-1.9517 Y6.2627
G01 X-2.0901 Y6.5554
G01 X-2.2566 Y6.8331
G01 X-2.4495 Y7.0932
G01 X-2.6669 Y7.3331
G01 X-2.9068 Y7.5505
G01 X-3.1669 Y7.7434
G01 X-3.4446 Y7.9099
G01 X-3.7373 Y8.0483
G01 X-4.0422 Y8.1574
G01 X-4.3563 Y8.2361
G01 X-4.6766 Y8.2836
G01 X-5.0000 Y8.2995
G01 X-5.3234 Y8.2836
G01 X-5.6437 Y8.2361
G01 X-5.9578 Y8.1574
G01 X-6.2627 Y8.0483
G01 X-6.5554 Y7.9099
G01 X-6.8331 Y7.7434
G01 X-7.0932 Y7.5505
G01 X-7.3331 Y7.3331
G01 X-7.5505 Y7.0932
G01 X-7.7434 Y6.8331
G01 X-7.9099 Y6.5554
G01 X-8.0483 Y6.2627
G01 X-8.1574 Y5.9578
G01 X-8.2361 Y5.6437
G01 X-8.2836 Y5.3234
G01 X-8.2995 Y5.0000
G01 X-8.2836 Y4.6766
G01 X-8.2361 Y4.3563
G01 X-8.1574 Y4.0422
G01 X-8.0483 Y3.7373
G01 X-7.9099 Y3.4446
G01 X-7.7434 Y3.1669
G01 X-7.5505 Y2.9068
G01 X-7.3331 Y2.6669
G01 X-7.0932 Y2.4495
G01 X-6.8331 Y2.2566
G01 X-6.5554 Y2.0901
G01 X-6.2627 Y1.9517
G01 X-5.9578 Y1.8426
G01 X-5.6437 Y1.7639
G01 X-5.3234 Y1.7164
G01 X-5.0000 Y1.7005
G01 X-4.6766 Y1.7164
G01 X-4.3563 Y1.7639
G01 X-4.0422 Y1.8426
G01 X-3.7373 Y1.9517
G01 X-3.4446 Y2.0901
G01 X-3.1669 Y2.2566
G01 X-2.9068 Y2.4495
G01 X-2.6669 Y2.6669
G01 X-2.4495 Y2.9068
G01 X-2.2566 Y3.1669
G01 X-2.0901 Y3.4446
G01 X-1.9517 Y3.7373
G01 X-1.8426 Y4.0422
G01 X-1.7639 Y4.3563
G01 X-1.7170 Y4.6717
G00 Z1.0000
G00 X-7.9678 Y6.4597
G01 F500.00
G01 Z-0.0400
G01 F500.00
G01 X-8.1736 Y5.9627
G01 X-8.3005 Y5.3251
G01 X-8.3005 Y4.6749
G01 X-8.1736 Y4.0373
G01 X-7.9248 Y3.4366
G01 X-7.5636 Y2.8961
G01 X-7.1039 Y2.4364
G01 X-6.5634 Y2.0752
G01 X-5.9627 Y1.8264
G01 X-5.3251 Y1.6995
G01 X-4.6749 Y1.6995
G01 X-4.0373 Y1.8264
G01 X-3.4366 Y2.0752
G01 X-2.8961 Y2.4364
G01 X-2.4364 Y2.8961
G01 X-2.0752 Y3.4366
G01 X-1.8264 Y4.0373
G01 X-1.6995 Y4.6749
G01 X-1.6995 Y5.3251
G01 X-1.8264 Y5.9627
G01 X-2.0752 Y6.5634
G01 X-2.4364 Y7.1039
G01 X-2.8961 Y7.5636
G01 X-3.4366 Y7.9248
G01 X-4.0373 Y8.1736
G01 X-4.6749 Y8.3005
G01 X-5.3251 Y8.3005
G01 X-5.9627 Y8.1736
G01 X-6.5634 Y7.9248
G01 X-7.1039 Y7.5636
G01 X-7.5636 Y7.1039
G01 X-7.9248 Y6.5634
G01 X-7.9678 Y6.4597
G00 Z1.0000
G00 X-8.6069 Y6.3205
G01 F500.00
G01 Z-0.0400
G01 F500.00
G01 X-8.6060 Y6.3302
G01 X-8.6020 Y6.4135
G01 X-8.6063 Y6.5017
G01 X-8.6193 Y6.5890
G01 X-8.6407 Y6.6746
G01 X-8.6705 Y6.7577
G01 X-8.7082 Y6.8375
G01 X-8.7536 Y6.9132
G01 X-8.8062 Y6.9841
G01 X-8.8655 Y7.0495
G01 X-8.9309 Y7.1088
G01 X-9.0018 Y7.1614
G01 X-9.0775 Y7.2068
G01 X-9.1573 Y7.2445
G01 X-9.2404 Y7.2743
G01 X-9.3260 Y7.2957
G01 X-9.4133 Y7.3087
G01 X-9.5015 Y7.3130
G01 X-9.5897 Y7.3087
G01 X-9.6770 Y7.2957
G01 X-9.7626 Y7.2743
G01 X-9.8457 Y7.2445
G01 X-9.9255 Y7.2068
G01 X-10.0012 Y7.1614
G01 X-10.0721 Y7.1088
G01 X-10.1375 Y7.0495
G01 X-10.1968 Y6.9841
G01 X-10.2494 Y6.9132
G01 X-10.2948 Y6.8375
G01 X-10.3325 Y6.7577
G01 X-10.3623 Y6.6746
G01 X-10.3837 Y6.5890
G01 X-10.3967 Y6.5017
G01 X-10.4010 Y6.4135
G01 X-10.3967 Y6.3253
G01 X-10.3837 Y6.2380
G01 X-10.3623 Y6.1524
G01 X-10.3325 Y6.0693
G01 X-10.2948 Y5.9895
G01 X-10.2494 Y5.9138
G01 X-10.1968 Y5.8429
G01 X-10.1375 Y5.7775
G01 X-10.0721 Y5.7182
G01 X-10.0012 Y5.6656
G01 X-9.9255 Y5.6202
G01 X-9.8457 Y5.5825
G01 X-9.7626 Y5.5527
G01 X-9.6770 Y5.5313
G01 X-9.5897 Y5.5183
G01 X-9.5015 Y5.5140
G01 X-9.4133 Y5.5183
G01 X-9.3260 Y5.5313
G01 X-9.2404 Y5.5527
G01 X-9.1573 Y5.5825
G01 X-9.0775 Y5.6202
G01 X-9.0018 Y5.6656
G01 X-8.9309 Y5.7182
G01 X-8.8655 Y5.7775
G01 X-8.8062 Y5.8429
G01 X-8.7536 Y5.9138
G01 X-8.7082 Y5.9895
G01 X-8.6705 Y6.0693
G01 X-8.6407 Y6.1524
G01 X-8.6193 Y6.2380
G01 X-8.6069 Y6.3205
G00 Z1.0000
G00 X-10.0679 Y5.7089
G01 F500.00
G01 Z-0.0400
G01 F500.00
G01 X-9.9280 Y5.6155
G01 X-9.7642 Y5.5476
G01 X-9.5902 Y5.5130
G01 X-9.4128 Y5.5130
G01 X-9.2388 Y5.5476
G01 X-9.0750 Y5.6155
G01 X-8.9275 Y5.7141
G01 X-8.8021 Y5.8395
G01 X-8.7035 Y5.9870
G01 X-8.6356 Y6.1508
G01 X-8.6010 Y6.3248
G01 X-8.6010 Y6.5022
G01 X-8.6356 Y6.6762
G01 X-8.7035 Y6.8400
G01 X-8.8021 Y6.9875
G01 X-8.9275 Y7.1129
G01 X-9.0750 Y7.2115
G01 X-9.2388 Y7.2794
G01 X-9.4128 Y7.3140
G01 X-9.5902 Y7.3140
G01 X-9.7642 Y7.2794
G01 X-9.9280 Y7.2115
G01 X-10.0755 Y7.1129
G01 X-10.2009 Y6.9875
G01 X-10.2995 Y6.8400
G01 X-10.3674 Y6.6762
G01 X-10.4020 Y6.5022
G01 X-10.4020 Y6.3248
G01 X-10.3674 Y6.1508
G01 X-10.2995 Y5.9870
G01 X-10.2009 Y5.8395
G01 X-10.0755 Y5.7141
G01 X-10.0679 Y5.7089
G00 Z1.0000
G00 X-11.1684 Y6.0747
G01 F500.00
G01 Z-0.0400
G01 F500.00
G01 X-11.1645 Y6.0708
G01 X-11.1518 Y6.1012
G01 X-11.1070 Y6.2770
G01 X-11.0976 Y6.4541
G01 X-11.1229 Y6.6297
G01 X-11.1667 Y6.7539
G01 X-11.1684 Y6.7523
G01 X-11.1401 Y6.6723
G01 X-11.1193 Y6.5890
G01 X-11.1063 Y6.5017
G01 X-11.1020 Y6.4135
G01 X-11.1063 Y6.3253
G01 X-11.1193 Y6.2380
G01 X-11.1407 Y6.1524
G01 X-11.1684 Y6.0747
G00 Z1.0000
G00 X-12.3442 Y5.5765
G01 F500.00
G01 Z-0.0400
G01 F500.00
G01 X-12.3138 Y5.5638
G01 X-12.1380 Y5.5190
G01 X-11.9609 Y5.5096
G01 X-11.7853 Y5.5349
G01 X-11.6611 Y5.5787
G01 X-11.6627 Y5.5804
G01 X-11.7427 Y5.5521
G01 X-11.8260 Y5.5313
G01 X-11.9133 Y5.5183
G01 X-12.0015 Y5.5140
G01 X-12.0897 Y5.5183
G01 X-12.1746 Y5.5308
G01 X-12.1817 Y5.5324
G01 X-12.2626 Y5.5527
G01 X-12.3403 Y5.5804
G01 X-12.3442 Y5.5765
G00 Z1.0000
G00 X-12.8385 Y6.7562
G01 F500.00
G01 Z-0.0400
G01 F500.00
G01 X-12.8512 Y6.7258
G01 X-12.8960 Y6.5500
G01 X-12.9054 Y6.3729
G01 X-12.8801 Y6.1973
G01 X-12.8363 Y6.0731
G01 X-12.8346 Y6.0747
G01 X-12.8629 Y6.1547
G01 X-12.8837 Y6.2380
G01 X-12.8967 Y6.3253
G01 X-12.9010 Y6.4135
G01 X-12.8967 Y6.5017
G01 X-12.8842 Y6.5866
G01 X-12.8826 Y6.5937
G01 X-12.8623 Y6.6746
G01 X-12.8346 Y6.7523
G01 X-12.8385 Y6.7562
G00 Z1.0000
G00 X-12.3419 Y7.2483
G01 F500.00
G01 Z-0.0400
G01 F500.00
G01 X-12.3403 Y7.2466
G01 X-12.2603 Y7.2749
G01 X-12.1770 Y7.2957
G01 X-12.0897 Y7.3087
G01 X-12.0015 Y7.3130
G01 X-11.9133 Y7.3087
G01 X-11.8284 Y7.2962
G01 X-11.8213 Y7.2946
G01 X-11.7404 Y7.2743
G01 X-11.6627 Y7.2466
G01 X-11.6588 Y7.2505
G01 X-11.6892 Y7.2632
G01 X-11.8650 Y7.3080
G01 X-12.0421 Y7.3174
G01 X-12.2177 Y7.2921
G01 X-12.3419 Y7.2483
G00 Z1.0000
G00 X-23.1227 Y10.4639
G01 F500.00
G01 Z-0.0400
G01 F500.00
G01 X-23.1081 Y10.4698
G01 X-22.9438 Y10.5025
G01 X-22.7762 Y10.5025
G01 X-22.6119 Y10.4698
G01 X-22.4571 Y10.4057
G01 X-22.3179 Y10.3126
G01 X-22.1994 Y10.1941
G01 X-22.1063 Y10.0549
G01 X-22.0422 Y9.9001
G01 X-22.0095 Y9.7358
G01 X-22.0095 Y9.5682
G01 X-22.0363 Y9.4333
G01 X-22.0380 Y9.4212
G01 X-22.0387 Y9.4090
G01 X-22.0380 Y9.3919
G01 X-22.0354 Y9.3750
G01 X-22.0323 Y9.3632
G01 X-22.0292 Y9.3539
G01 X-22.0264 Y9.3471
G01 X-22.0223 Y9.3383
G01 X-22.0136 Y9.3236
G01 X-22.0049 Y9.3118
G01 X-21.9933 Y9.2992
G01 X-21.9860 Y9.2926
G01 X-21.9803 Y9.2880
G01 X-21.9724 Y9.2823
G01 X-21.9641 Y9.2772
G01 X-21.9577 Y9.2736
G01 X-21.9488 Y9.2694
G01 X-21.9328 Y9.2635
G01 X-21.9186 Y9.2599
G01 X-21.9041 Y9.2578
G01 X-21.8870 Y9.2571
G01 X-21.8772 Y9.2575
G01 X-21.8699 Y9.2583
G01 X-21.8603 Y9.2599
G01 X-21.8508 Y9.2621
G01 X-21.8437 Y9.2641
G01 X-21.8345 Y9.2674
G01 X-21.8190 Y9.2746
G01 X-21.8064 Y9.2821
G01 X-21.7927 Y9.2924
G01 X-21.7837 Y9.3006
G01 X-7.9595 Y23.0724
G01 X-2.7782 Y28.2537
G01 X-2.7669 Y28.2665
G01 X-2.7597 Y28.2763
G01 X-2.7545 Y28.2847
G01 X-2.7510 Y28.2911
G01 X-2.7458 Y28.3022
G01 X-2.7402 Y28.3184
G01 X-2.7373 Y28.3302
G01 X-2.7358 Y28.3399
G01 X-2.7350 Y28.3472
G01 X-2.7345 Y28.3594
G01 X-2.7345 Y44.7396
G01 X-2.7354 Y44.7567
G01 X-2.7373 Y44.7688
G01 X-2.7396 Y44.7783
G01 X-2.7416 Y44.7854
G01 X-2.7458 Y44.7968
G01 X-2.7533 Y44.8123
G01 X-2.7597 Y44.8227
G01 X-2.7654 Y44.8306
G01 X-2.7700 Y44.8364
G01 X-2.7782 Y44.8454
G01 X-2.7910 Y44.8567
G01 X-2.8009 Y44.8640
G01 X-2.8092 Y44.8691
G01 X-2.8179 Y44.8737
G01 X-2.8290 Y44.8787
G01 X-2.8406 Y44.8827
G01 X-2.8548 Y44.8863
G01 X-2.8669 Y44.8882
G01 X-2.8791 Y44.8890
G01 X-2.8889 Y44.8890
G01 X-2.9011 Y44.8882
G01 X-2.9131 Y44.8863
G01 X-2.9274 Y44.8827
G01 X-2.9389 Y44.8787
G01 X-2.9501 Y44.8737
G01 X-2.9587 Y44.8691
G01 X-2.9691 Y44.8626
G01 X-2.9788 Y44.8552
G01 X-2.9897 Y44.8454
G01 X-5.7564 Y42.0786
G01 X-16.7686 Y30.9532
G01 X-16.7783 Y30.9423
G01 X-16.7883 Y30.9284
G01 X-16.7945 Y30.9179
G01 X-16.8007 Y30.9046
G01 X-16.8048 Y30.8931
G01 X-16.8080 Y30.8814
G01 X-16.8099 Y30.8718
G01 X-16.8114 Y30.8597
G01 X-16.8118 Y30.8475
G01 X-16.8113 Y30.8353
G01 X-16.8097 Y30.8232
G01 X-16.8078 Y30.8136
G01 X-16.8045 Y30.8019
G01 X-16.8003 Y30.7904
G01 X-16.7951 Y30.7794
G01 X-16.7891 Y30.7688
G01 X-16.7836 Y30.7607
G01 X-16.7761 Y30.7511
G01 X-16.7661 Y30.7404
G01 X-16.7551 Y30.7308
G01 X-16.7432 Y30.7222
G01 X-16.7305 Y30.7149
G01 X-16.7194 Y30.7098
G01 X-16.7056 Y30.7049
G01 X-16.6914 Y30.7013
G01 X-16.6753 Y30.6990
G01 X-16.6564 Y30.6933
G01 X-16.6389 Y30.6839
G01 X-16.6233 Y30.6712
G01 X-16.6140 Y30.6612
G01 X-16.6030 Y30.6515
G01 X-16.5910 Y30.6430
G01 X-16.5783 Y30.6357
G01 X-16.5650 Y30.6296
G01 X-16.5511 Y30.6249
G01 X-16.5368 Y30.6216
G01 X-16.5222 Y30.6196
G01 X-16.5124 Y30.6192
G01 X-16.5051 Y30.6192
G01 X-16.4953 Y30.6198
G01 X-16.4856 Y30.6212
G01 X-16.4784 Y30.6225
G01 X-16.4689 Y30.6249
G01 X-16.4528 Y30.6305
G01 X-16.4395 Y30.6368
G01 X-16.4249 Y30.6457
G01 X-16.4133 Y30.6546
G01 X-16.4043 Y30.6629
G01 X-16.3967 Y30.6712
G01 X-16.3811 Y30.6839
G01 X-16.3636 Y30.6933
G01 X-16.3447 Y30.6990
G01 X-16.3177 Y30.7017
G01 X-15.4323 Y30.7017
G01 X-15.4053 Y30.6990
G01 X-15.3864 Y30.6933
G01 X-15.3689 Y30.6839
G01 X-15.3533 Y30.6712
G01 X-15.3457 Y30.6629
G01 X-15.3367 Y30.6546
G01 X-15.3251 Y30.6457
G01 X-15.3126 Y30.6380
G01 X-15.2995 Y30.6315
G01 X-15.2834 Y30.6256
G01 X-15.2692 Y30.6220
G01 X-15.2547 Y30.6198
G01 X-15.2400 Y30.6191
G01 X-15.2253 Y30.6198
G01 X-15.2108 Y30.6220
G01 X-15.1966 Y30.6256
G01 X-15.1805 Y30.6315
G01 X-15.1674 Y30.6380
G01 X-15.1549 Y30.6457
G01 X-15.1433 Y30.6546
G01 X-15.1343 Y30.6629
G01 X-15.1267 Y30.6712
G01 X-15.1111 Y30.6839
G01 X-15.0936 Y30.6933
G01 X-15.0747 Y30.6990
G01 X-15.0477 Y30.7017
G01 X-14.1623 Y30.7017
G01 X-14.1353 Y30.6990
G01 X-14.1164 Y30.6933
G01 X-14.0989 Y30.6839
G01 X-14.0833 Y30.6712
G01 X-14.0757 Y30.6629
G01 X-14.0667 Y30.6546
G01 X-14.0551 Y30.6457
G01 X-14.0426 Y30.6380
G01 X-14.0295 Y30.6315
G01 X-14.0134 Y30.6256
G01 X-13.9992 Y30.6220
G01 X-13.9847 Y30.6198
G01 X-13.9700 Y30.6191
G01 X-13.9553 Y30.6198
G01 X-13.9384 Y30.6225
G01 X-13.9289 Y30.6249
G01 X-13.9220 Y30.6271
G01 X-13.9128 Y30.6305
G01 X-13.9039 Y30.6346
G01 X-13.8974 Y30.6380
G01 X-13.8890 Y30.6430
G01 X-13.8770 Y30.6515
G01 X-13.8660 Y30.6612
G01 X-13.8567 Y30.6712
G01 X-13.8411 Y30.6839
G01 X-13.8236 Y30.6933
G01 X-13.8047 Y30.6990
G01 X-13.7781 Y30.7016
G01 X-13.6845 Y30.7010
G01 X-13.6845 Y30.6995
G01 X-13.7850 Y30.6995
G01 X-13.7923 Y30.6992
G01 X-13.7996 Y30.6984
G01 X-13.8092 Y30.6965
G01 X-13.8185 Y30.6937
G01 X-13.8275 Y30.6899
G01 X-13.8340 Y30.6866
G01 X-13.8403 Y30.6827
G01 X-13.8500 Y30.6753
G01 X-13.8554 Y30.6704
G01 X-13.8603 Y30.6650
G01 X-13.8677 Y30.6553
G01 X-13.8739 Y30.6447
G01 X-13.8787 Y30.6335
G01 X-13.8821 Y30.6218
G01 X-13.8834 Y30.6146
G01 X-13.8842 Y30.6073
G01 X-13.8845 Y30.6000
G01 X-13.8845 Y28.5976
G01 X-13.8834 Y28.5854
G01 X-13.8821 Y28.5782
G01 X-13.8802 Y28.5711
G01 X-13.8760 Y28.5597
G01 X-13.8703 Y28.5488
G01 X-13.8634 Y28.5388
G01 X-13.8554 Y28.5296
G01 X-13.8462 Y28.5216
G01 X-13.8347 Y28.5138
G01 X-13.8347 Y28.5126
G01 X-13.8411 Y28.5161
G01 X-13.8567 Y28.5288
G01 X-13.8643 Y28.5371
G01 X-13.8714 Y28.5437
G01 X-13.8770 Y28.5485
G01 X-13.8849 Y28.5543
G01 X-13.8995 Y28.5632
G01 X-13.9105 Y28.5685
G01 X-13.9173 Y28.5712
G01 X-13.9289 Y28.5751
G01 X-13.9408 Y28.5780
G01 X-13.9529 Y28.5799
G01 X-13.9651 Y28.5808
G01 X-13.9749 Y28.5808
G01 X-13.9871 Y28.5799
G01 X-13.9992 Y28.5780
G01 X-14.0087 Y28.5757
G01 X-14.0180 Y28.5729
G01 X-14.0295 Y28.5685
G01 X-14.0405 Y28.5632
G01 X-14.0510 Y28.5570
G01 X-14.0571 Y28.5529
G01 X-14.0667 Y28.5454
G01 X-14.0757 Y28.5371
G01 X-14.0833 Y28.5288
G01 X-14.0989 Y28.5161
G01 X-14.1164 Y28.5067
G01 X-14.1353 Y28.5010
G01 X-14.1745 Y28.4970
G01 X-14.1842 Y28.4954
G01 X-14.1961 Y28.4926
G01 X-14.2077 Y28.4887
G01 X-14.2145 Y28.4860
G01 X-14.2255 Y28.4807
G01 X-14.2360 Y28.4744
G01 X-14.2480 Y28.4659
G01 X-14.2572 Y28.4579
G01 X-14.2641 Y28.4510
G01 X-14.2736 Y28.4398
G01 X-14.2807 Y28.4298
G01 X-14.2880 Y28.4171
G01 X-14.2931 Y28.4060
G01 X-14.2981 Y28.3922
G01 X-14.3011 Y28.3804
G01 X-14.3025 Y28.3731
G01 X-14.3040 Y28.3610
G01 X-14.3045 Y28.3488
G01 X-14.3045 Y26.8826
G01 X-14.3040 Y26.8704
G01 X-14.3031 Y26.8605
G01 X-14.3089 Y26.8016
G01 X-14.3261 Y26.7450
G01 X-14.3540 Y26.6928
G01 X-14.3915 Y26.6470
G01 X-14.3992 Y26.6407
G01 X-14.4082 Y26.6324
G01 X-15.2024 Y25.8382
G01 X-15.2107 Y25.8292
G01 X-15.2170 Y25.8215
G01 X-15.2628 Y25.7840
G01 X-15.3150 Y25.7561
G01 X-15.3716 Y25.7389
G01 X-15.4305 Y25.7331
G01 X-15.4404 Y25.7340
G01 X-15.4526 Y25.7345
G01 X-20.2606 Y25.7345
G01 X-20.2777 Y25.7335
G01 X-20.2898 Y25.7317
G01 X-20.3040 Y25.7281
G01 X-20.3156 Y25.7240
G01 X-20.3267 Y25.7191
G01 X-20.3353 Y25.7145
G01 X-20.3457 Y25.7079
G01 X-20.3555 Y25.7006
G01 X-20.3646 Y25.6924
G01 X-21.0552 Y25.0018
G01 X-21.0666 Y24.9891
G01 X-21.0738 Y24.9792
G01 X-21.0790 Y24.9708
G01 X-21.0825 Y24.9644
G01 X-21.0876 Y24.9533
G01 X-21.0933 Y24.9372
G01 X-21.0962 Y24.9253
G01 X-21.0977 Y24.9156
G01 X-21.0985 Y24.9083
G01 X-21.0990 Y24.8961
G01 X-21.0990 Y17.8146
G01 X-21.0985 Y17.8024
G01 X-21.0976 Y17.7925
G01 X-21.1034 Y17.7336
G01 X-21.1206 Y17.6770
G01 X-21.1485 Y17.6248
G01 X-21.1860 Y17.5790
G01 X-21.1937 Y17.5727
G01 X-21.2027 Y17.5644
G01 X-22.2069 Y16.5602
G01 X-22.2152 Y16.5512
G01 X-22.2215 Y16.5435
G01 X-22.2673 Y16.5060
G01 X-22.3195 Y16.4781
G01 X-22.3761 Y16.4609
G01 X-22.4350 Y16.4551
G01 X-22.4449 Y16.4560
G01 X-22.4571 Y16.4565
G01 X-22.5370 Y16.4565
G01 X-22.5492 Y16.4560
G01 X-22.5614 Y16.4545
G01 X-22.5709 Y16.4526
G01 X-22.5827 Y16.4493
G01 X-22.5942 Y16.4451
G01 X-22.6075 Y16.4389
G01 X-22.6221 Y16.4299
G01 X-22.6337 Y16.4210
G01 X-22.6410 Y16.4144
G01 X-22.6461 Y16.4092
G01 X-22.6526 Y16.4019
G01 X-22.6585 Y16.3941
G01 X-22.6665 Y16.3817
G01 X-22.6700 Y16.3753
G01 X-22.6742 Y16.3665
G01 X-22.6793 Y16.3527
G01 X-22.6826 Y16.3409
G01 X-22.6845 Y16.3314
G01 X-22.6860 Y16.3192
G01 X-22.6865 Y16.3070
G01 X-22.6865 Y14.6120
G01 X-22.6858 Y14.5973
G01 X-22.6837 Y14.5828
G01 X-22.6808 Y14.5709
G01 X-22.6769 Y14.5593
G01 X-22.6732 Y14.5503
G01 X-22.6677 Y14.5394
G01 X-22.6613 Y14.5289
G01 X-22.6541 Y14.5190
G01 X-22.6461 Y14.5098
G01 X-22.6392 Y14.5029
G01 X-22.6300 Y14.4949
G01 X-22.6180 Y14.4863
G01 X-22.6053 Y14.4790
G01 X-22.5965 Y14.4748
G01 X-22.5841 Y14.4697
G01 X-22.4449 Y14.3766
G01 X-22.3264 Y14.2581
G01 X-22.2333 Y14.1189
G01 X-22.1692 Y13.9641
G01 X-22.1365 Y13.7998
G01 X-22.1365 Y13.6322
G01 X-22.1692 Y13.4679
G01 X-22.2333 Y13.3131
G01 X-22.3264 Y13.1739
G01 X-22.4449 Y13.0554
G01 X-22.5841 Y12.9623
G01 X-22.7389 Y12.8982
G01 X-22.9032 Y12.8655
G01 X-23.0708 Y12.8655
G01 X-23.2351 Y12.8982
G01 X-23.3899 Y12.9623
G01 X-23.5291 Y13.0554
G01 X-23.6476 Y13.1739
G01 X-23.7407 Y13.3131
G01 X-23.8048 Y13.4679
G01 X-23.8375 Y13.6322
G01 X-23.8375 Y13.7998
G01 X-23.8048 Y13.9641
G01 X-23.7407 Y14.1189
G01 X-23.6476 Y14.2581
G01 X-23.5291 Y14.3766
G01 X-23.3899 Y14.4697
G01 X-23.3775 Y14.4748
G01 X-23.3687 Y14.4790
G01 X-23.3560 Y14.4863
G01 X-23.3440 Y14.4949
G01 X-23.3348 Y14.5029
G01 X-23.3279 Y14.5098
G01 X-23.3199 Y14.5190
G01 X-23.3127 Y14.5289
G01 X-23.3051 Y14.5415
G01 X-23.2998 Y14.5525
G01 X-23.2954 Y14.5640
G01 X-23.2926 Y14.5733
G01 X-23.2899 Y14.5852
G01 X-23.2882 Y14.5973
G01 X-23.2875 Y14.6120
G01 X-23.2875 Y16.6784
G01 X-23.2880 Y16.6906
G01 X-23.2889 Y16.7005
G01 X-23.2831 Y16.7594
G01 X-23.2659 Y16.8160
G01 X-23.2380 Y16.8682
G01 X-23.2239 Y16.8860
G01 X-23.2198 Y16.8921
G01 X-23.2147 Y16.9005
G01 X-23.2083 Y16.9136
G01 X-23.2031 Y16.9273
G01 X-23.1988 Y16.9439
G01 X-23.1966 Y16.9584
G01 X-23.1959 Y16.9731
G01 X-23.1969 Y16.9902
G01 X-23.1993 Y17.0046
G01 X-23.2031 Y17.0188
G01 X-23.2083 Y17.0325
G01 X-23.2147 Y17.0457
G01 X-23.2225 Y17.0582
G01 X-23.2314 Y17.0698
G01 X-23.2415 Y17.0805
G01 X-23.2525 Y17.0902
G01 X-23.2604 Y17.0960
G01 X-23.2665 Y17.1000
G01 X-23.2750 Y17.1049
G01 X-23.2838 Y17.1092
G01 X-23.3899 Y17.1533
G01 X-23.5291 Y17.2464
G01 X-23.6476 Y17.3649
G01 X-23.7407 Y17.5041
G01 X-23.8048 Y17.6589
G01 X-23.8375 Y17.8232
G01 X-23.8375 Y17.9908
G01 X-23.8048 Y18.1551
G01 X-23.7997 Y18.1674
G01 X-23.7964 Y18.1766
G01 X-23.7921 Y18.1932
G01 X-23.7900 Y18.2077
G01 X-23.7893 Y18.2199
G01 X-23.7897 Y18.2346
G01 X-23.7913 Y18.2467
G01 X-23.7932 Y18.2563
G01 X-23.7964 Y18.2681
G01 X-23.8006 Y18.2796
G01 X-23.8069 Y18.2929
G01 X-23.8144 Y18.3054
G01 X-23.8217 Y18.3153
G01 X-23.8330 Y18.3281
G01 X-24.1798 Y18.6749
G01 X-24.1888 Y18.6832
G01 X-24.1965 Y18.6895
G01 X-24.2026 Y18.6968
G01 X-24.2110 Y18.7056
G01 X-24.2201 Y18.7138
G01 X-24.2319 Y18.7225
G01 X-24.2424 Y18.7289
G01 X-24.2533 Y18.7344
G01 X-24.2600 Y18.7373
G01 X-24.2693 Y18.7406
G01 X-24.2858 Y18.7449
G01 X-24.3028 Y18.7472
G01 X-24.3126 Y18.7477
G01 X-24.3199 Y18.7476
G01 X-24.3297 Y18.7470
G01 X-24.3394 Y18.7457
G01 X-24.3466 Y18.7444
G01 X-24.3561 Y18.7420
G01 X-24.3722 Y18.7363
G01 X-24.3876 Y18.7289
G01 X-24.3960 Y18.7239
G01 X-24.4021 Y18.7197
G01 X-24.4099 Y18.7138
G01 X-24.4172 Y18.7073
G01 X-24.4224 Y18.7022
G01 X-24.4290 Y18.6949
G01 X-24.4393 Y18.6813
G01 X-24.4469 Y18.6687
G01 X-24.4541 Y18.6532
G01 X-24.4574 Y18.6439
G01 X-24.4594 Y18.6369
G01 X-24.4617 Y18.6274
G01 X-24.4632 Y18.6177
G01 X-24.4640 Y18.6104
G01 X-24.4645 Y18.5982
G01 X-24.4645 Y11.7434
G01 X-24.4638 Y11.7287
G01 X-24.4621 Y11.7166
G01 X-24.4594 Y11.7047
G01 X-24.4573 Y11.6977
G01 X-24.4531 Y11.6862
G01 X-24.4480 Y11.6751
G01 X-24.4445 Y11.6687
G01 X-24.4379 Y11.6583
G01 X-24.4306 Y11.6485
G01 X-24.4224 Y11.6394
G01 X-23.2794 Y10.4963
G01 X-23.2702 Y10.4882
G01 X-23.2624 Y10.4822
G01 X-23.2564 Y10.4781
G01 X-23.2459 Y10.4719
G01 X-23.2348 Y10.4666
G01 X-23.2234 Y10.4622
G01 X-23.2164 Y10.4600
G01 X-23.2045 Y10.4571
G01 X-23.1925 Y10.4552
G01 X-23.1852 Y10.4546
G01 X-23.1754 Y10.4542
G01 X-23.1631 Y10.4547
G01 X-23.1559 Y10.4556
G01 X-23.1438 Y10.4576
G01 X-23.1320 Y10.4607
G01 X-23.1227 Y10.4639
G00 Z1.0000
G00 X-23.6334 Y10.0017
G01 F500.00
G01 Z-0.0400
G01 F500.00
G01 X-23.6457 Y9.9748
G01 X-23.6722 Y9.9009
G01 X-23.6927 Y9.8201
G01 X-23.6940 Y9.8129
G01 X-23.7054 Y9.7353
G01 X-23.7095 Y9.6544
G01 X-23.7094 Y9.6471
G01 X-23.7054 Y9.5687
G01 X-23.6932 Y9.4863
G01 X-23.6729 Y9.4054
G01 X-23.6457 Y9.3292
G01 X-23.6429 Y9.3224
G01 X-23.6092 Y9.2515
G01 X-23.5663 Y9.1800
G01 X-23.5167 Y9.1131
G01 X-23.4607 Y9.0513
G01 X-23.3989 Y8.9953
G01 X-23.3320 Y8.9457
G01 X-23.2605 Y8.9028
G01 X-23.1873 Y8.8681
G01 X-23.1805 Y8.8654
G01 X-23.1066 Y8.8391
G01 X-23.0257 Y8.8188
G01 X-22.9433 Y8.8066
G01 X-22.8600 Y8.8025
G01 X-22.7767 Y8.8066
G01 X-22.6943 Y8.8188
G01 X-22.6134 Y8.8391
G01 X-22.5349 Y8.8672
G01 X-22.4595 Y8.9028
G01 X-22.3880 Y8.9457
G01 X-22.3211 Y8.9953
G01 X-22.2593 Y9.0513
G01 X-22.2033 Y9.1131
G01 X-22.1537 Y9.1800
G01 X-22.1108 Y9.2515
G01 X-22.0761 Y9.3247
G01 X-22.0486 Y9.4008
G01 X-22.0458 Y9.4101
G01 X-22.0268 Y9.4863
G01 X-22.0146 Y9.5687
G01 X-22.0105 Y9.6520
G01 X-22.0142 Y9.7304
G01 X-22.0152 Y9.7401
G01 X-22.0268 Y9.8177
G01 X-22.0458 Y9.8939
G01 X-22.0486 Y9.9032
G01 X-22.0752 Y9.9771
G01 X-22.1108 Y10.0525
G01 X-22.1537 Y10.1240
G01 X-22.2003 Y10.1871
G01 X-22.2065 Y10.1946
G01 X-22.2593 Y10.2527
G01 X-22.3211 Y10.3087
G01 X-22.3841 Y10.3555
G01 X-22.3922 Y10.3609
G01 X-22.4595 Y10.4012
G01 X-22.5349 Y10.4368
G01 X-22.6088 Y10.4634
G01 X-22.6181 Y10.4662
G01 X-22.6967 Y10.4856
G01 X-22.7767 Y10.4974
G01 X-22.8551 Y10.5014
G01 X-22.8649 Y10.5014
G01 X-22.9457 Y10.4971
G01 X-23.0257 Y10.4852
G01 X-23.1043 Y10.4656
G01 X-23.1828 Y10.4377
G01 X-23.2097 Y10.4254
G01 X-24.4654 Y11.6811
G01 X-24.4654 Y28.5005
G01 X-24.3126 Y28.5005
G01 X-24.3052 Y28.5010
G01 X-24.2980 Y28.5020
G01 X-24.2908 Y28.5035
G01 X-24.2815 Y28.5063
G01 X-24.2747 Y28.5090
G01 X-24.2681 Y28.5122
G01 X-24.2577 Y28.5187
G01 X-24.2482 Y28.5263
G01 X-24.2429 Y28.5314
G01 X-24.2381 Y28.5369
G01 X-24.2337 Y28.5427
G01 X-24.2297 Y28.5488
G01 X-24.2240 Y28.5597
G01 X-24.2213 Y28.5665
G01 X-24.2191 Y28.5735
G01 X-24.2174 Y28.5806
G01 X-24.2162 Y28.5878
G01 X-24.2155 Y28.6000
G01 X-24.2156 Y30.6049
G01 X-24.2166 Y30.6146
G01 X-24.2179 Y30.6218
G01 X-24.2198 Y30.6289
G01 X-24.2231 Y30.6381
G01 X-24.2272 Y30.6469
G01 X-24.2323 Y30.6553
G01 X-24.2366 Y30.6612
G01 X-24.2429 Y30.6686
G01 X-24.2482 Y30.6737
G01 X-24.2557 Y30.6799
G01 X-24.2638 Y30.6853
G01 X-24.2703 Y30.6889
G01 X-24.2769 Y30.6919
G01 X-24.2861 Y30.6952
G01 X-24.2956 Y30.6976
G01 X-24.3052 Y30.6990
G01 X-24.3150 Y30.6995
G01 X-25.2150 Y30.6995
G01 X-25.2223 Y30.6992
G01 X-25.2296 Y30.6984
G01 X-25.2392 Y30.6965
G01 X-25.2462 Y30.6945
G01 X-25.2553 Y30.6910
G01 X-25.2619 Y30.6878
G01 X-25.2703 Y30.6827
G01 X-25.2781 Y30.6769
G01 X-25.2854 Y30.6704
G01 X-25.2919 Y30.6631
G01 X-25.2963 Y30.6573
G01 X-25.3016 Y30.6490
G01 X-25.3060 Y30.6403
G01 X-25.3095 Y30.6312
G01 X-25.3121 Y30.6218
G01 X-25.3138 Y30.6122
G01 X-25.3144 Y30.6049
G01 X-25.3145 Y28.6000
G01 X-25.3142 Y28.5927
G01 X-25.3134 Y28.5854
G01 X-25.3121 Y28.5782
G01 X-25.3102 Y28.5711
G01 X-25.3078 Y28.5642
G01 X-25.3049 Y28.5575
G01 X-25.3016 Y28.5510
G01 X-25.2949 Y28.5407
G01 X-25.2903 Y28.5350
G01 X-25.2854 Y28.5296
G01 X-25.2800 Y28.5247
G01 X-25.2743 Y28.5201
G01 X-25.2682 Y28.5159
G01 X-25.2619 Y28.5122
G01 X-25.2553 Y28.5090
G01 X-25.2485 Y28.5063
G01 X-25.2415 Y28.5041
G01 X-25.2320 Y28.5020
G01 X-25.2248 Y28.5010
G01 X-25.2174 Y28.5005
G01 X-25.0646 Y28.5005
G01 X-25.0646 Y11.5570
G01 X-25.0634 Y11.5301
G01 X-25.0588 Y11.4986
G01 X-25.0530 Y11.4747
G01 X-25.0510 Y11.4677
G01 X-25.0436 Y11.4469
G01 X-25.0398 Y11.4379
G01 X-25.0292 Y11.4158
G01 X-25.0141 Y11.3906
G01 X-24.9966 Y11.3669
G01 X-24.9786 Y11.3469
G01 X-23.6334 Y10.0017
G00 Z1.0000
G00 X-23.2866 Y14.5101
G01 F500.00
G01 Z-0.0400
G01 F500.00
G01 X-23.3143 Y14.4999
G01 X-23.3853 Y14.4663
G01 X-23.4569 Y14.4237
G01 X-23.4629 Y14.4195
G01 X-23.5259 Y14.3727
G01 X-23.5859 Y14.3184
G01 X-23.5911 Y14.3132
G01 X-23.6437 Y14.2549
G01 X-23.6933 Y14.1880
G01 X-23.7362 Y14.1165
G01 X-23.7709 Y14.0433
G01 X-23.7736 Y14.0365
G01 X-23.7999 Y13.9626
G01 X-23.8202 Y13.8817
G01 X-23.8324 Y13.7993
G01 X-23.8365 Y13.7160
G01 X-23.8324 Y13.6327
G01 X-23.8202 Y13.5503
G01 X-23.7999 Y13.4694
G01 X-23.7727 Y13.3932
G01 X-23.7699 Y13.3864
G01 X-23.7362 Y13.3155
G01 X-23.6933 Y13.2440
G01 X-23.6437 Y13.1771
G01 X-23.5877 Y13.1153
G01 X-23.5259 Y13.0593
G01 X-23.4590 Y13.0097
G01 X-23.3875 Y12.9668
G01 X-23.3121 Y12.9312
G01 X-23.2336 Y12.9031
G01 X-23.1527 Y12.8828
G01 X-23.0703 Y12.8706
G01 X-22.9870 Y12.8665
G01 X-22.9037 Y12.8706
G01 X-22.8213 Y12.8828
G01 X-22.7404 Y12.9031
G01 X-22.6642 Y12.9303
G01 X-22.5909 Y12.9646
G01 X-22.5823 Y12.9692
G01 X-22.5150 Y13.0097
G01 X-22.4481 Y13.0593
G01 X-22.3898 Y13.1119
G01 X-22.3829 Y13.1188
G01 X-22.3303 Y13.1771
G01 X-22.2807 Y13.2440
G01 X-22.2402 Y13.3113
G01 X-22.2356 Y13.3199
G01 X-22.2022 Y13.3909
G01 X-22.1741 Y13.4694
G01 X-22.1538 Y13.5503
G01 X-22.1422 Y13.6279
G01 X-22.1412 Y13.6376
G01 X-22.1375 Y13.7160
G01 X-22.1412 Y13.7944
G01 X-22.1422 Y13.8041
G01 X-22.1538 Y13.8817
G01 X-22.1741 Y13.9626
G01 X-22.2022 Y14.0411
G01 X-22.2356 Y14.1121
G01 X-22.2402 Y14.1207
G01 X-22.2820 Y14.1900
G01 X-22.3303 Y14.2549
G01 X-22.3829 Y14.3132
G01 X-22.3898 Y14.3201
G01 X-22.4500 Y14.3742
G01 X-22.5150 Y14.4223
G01 X-22.5844 Y14.4640
G01 X-22.6597 Y14.4999
G01 X-22.6874 Y14.5101
G01 X-22.6874 Y16.4574
G01 X-22.4326 Y16.4574
G01 X-22.4056 Y16.4588
G01 X-22.3814 Y16.4623
G01 X-22.3718 Y16.4642
G01 X-22.3480 Y16.4703
G01 X-22.3249 Y16.4784
G01 X-22.3159 Y16.4822
G01 X-22.2938 Y16.4928
G01 X-22.2727 Y16.5053
G01 X-22.2646 Y16.5107
G01 X-22.2449 Y16.5254
G01 X-22.2231 Y16.5451
G01 X-21.1843 Y17.5842
G01 X-21.1679 Y17.6024
G01 X-21.1504 Y17.6260
G01 X-21.1353 Y17.6513
G01 X-21.1247 Y17.6734
G01 X-21.1209 Y17.6824
G01 X-21.1121 Y17.7079
G01 X-21.1057 Y17.7340
G01 X-21.1016 Y17.7607
G01 X-21.0999 Y17.7925
G01 X-21.0999 Y24.9584
G01 X-20.3229 Y25.7354
G01 X-15.4281 Y25.7354
G01 X-15.4011 Y25.7368
G01 X-15.3721 Y25.7412
G01 X-15.3435 Y25.7483
G01 X-15.3204 Y25.7564
G01 X-15.3114 Y25.7602
G01 X-15.2914 Y25.7697
G01 X-15.2850 Y25.7732
G01 X-15.2641 Y25.7859
G01 X-15.2404 Y25.8034
G01 X-15.2187 Y25.8232
G01 X-14.3914 Y26.6504
G01 X-14.3734 Y26.6704
G01 X-14.3587 Y26.6901
G01 X-14.3533 Y26.6982
G01 X-14.3408 Y26.7193
G01 X-14.3302 Y26.7414
G01 X-14.3264 Y26.7504
G01 X-14.3183 Y26.7735
G01 X-14.3117 Y26.7997
G01 X-14.3068 Y26.8311
G01 X-14.3054 Y26.8605
G01 X-14.3054 Y28.5005
G01 X-14.1526 Y28.5005
G01 X-14.1428 Y28.5012
G01 X-14.1356 Y28.5024
G01 X-14.1261 Y28.5048
G01 X-14.1192 Y28.5072
G01 X-14.1125 Y28.5101
G01 X-14.1060 Y28.5134
G01 X-14.0997 Y28.5173
G01 X-14.0938 Y28.5216
G01 X-14.0882 Y28.5263
G01 X-14.0829 Y28.5314
G01 X-14.0781 Y28.5369
G01 X-14.0737 Y28.5427
G01 X-14.0697 Y28.5488
G01 X-14.0661 Y28.5553
G01 X-14.0613 Y28.5665
G01 X-14.0591 Y28.5735
G01 X-14.0574 Y28.5806
G01 X-14.0562 Y28.5878
G01 X-14.0556 Y28.5951
G01 X-14.0555 Y30.6024
G01 X-14.0566 Y30.6146
G01 X-14.0591 Y30.6265
G01 X-14.0613 Y30.6335
G01 X-14.0640 Y30.6403
G01 X-14.0697 Y30.6512
G01 X-14.0766 Y30.6612
G01 X-14.0813 Y30.6668
G01 X-14.0864 Y30.6721
G01 X-14.0957 Y30.6799
G01 X-14.1060 Y30.6866
G01 X-14.1169 Y30.6919
G01 X-14.1285 Y30.6959
G01 X-14.1404 Y30.6984
G01 X-14.1526 Y30.6995
G01 X-15.0599 Y30.6994
G01 X-15.0672 Y30.6988
G01 X-15.0744 Y30.6976
G01 X-15.0815 Y30.6959
G01 X-15.0885 Y30.6937
G01 X-15.0953 Y30.6910
G01 X-15.1019 Y30.6878
G01 X-15.1103 Y30.6827
G01 X-15.1162 Y30.6784
G01 X-15.1218 Y30.6737
G01 X-15.1271 Y30.6686
G01 X-15.1319 Y30.6631
G01 X-15.1363 Y30.6573
G01 X-15.1403 Y30.6512
G01 X-15.1439 Y30.6447
G01 X-15.1469 Y30.6381
G01 X-15.1495 Y30.6312
G01 X-15.1515 Y30.6242
G01 X-15.1534 Y30.6146
G01 X-15.1542 Y30.6073
G01 X-15.1545 Y30.6000
G01 X-15.1545 Y28.6000
G01 X-15.1542 Y28.5927
G01 X-15.1534 Y28.5854
G01 X-15.1521 Y28.5782
G01 X-15.1502 Y28.5711
G01 X-15.1478 Y28.5642
G01 X-15.1428 Y28.5531
G01 X-15.1391 Y28.5468
G01 X-15.1349 Y28.5407
G01 X-15.1303 Y28.5350
G01 X-15.1254 Y28.5296
G01 X-15.1200 Y28.5247
G01 X-15.1143 Y28.5201
G01 X-15.1082 Y28.5159
G01 X-15.1019 Y28.5122
G01 X-15.0953 Y28.5090
G01 X-15.0885 Y28.5063
G01 X-15.0815 Y28.5041
G01 X-15.0720 Y28.5020
G01 X-15.0648 Y28.5010
G01 X-15.0574 Y28.5005
G01 X-14.9046 Y28.5005
G01 X-14.9046 Y26.9846
G01 X-15.5546 Y26.3346
G01 X-20.4470 Y26.3346
G01 X-20.4764 Y26.3332
G01 X-20.5030 Y26.3293
G01 X-20.5293 Y26.3230
G01 X-20.5386 Y26.3202
G01 X-20.5617 Y26.3118
G01 X-20.5882 Y26.2992
G01 X-20.6093 Y26.2867
G01 X-20.6174 Y26.2813
G01 X-20.6371 Y26.2666
G01 X-20.6571 Y26.2486
G01 X-21.6113 Y25.2943
G01 X-21.6279 Y25.2763
G01 X-21.6341 Y25.2687
G01 X-21.6486 Y25.2489
G01 X-21.6625 Y25.2259
G01 X-21.6763 Y25.1972
G01 X-21.6847 Y25.1741
G01 X-21.6875 Y25.1648
G01 X-21.6933 Y25.1409
G01 X-21.6971 Y25.1167
G01 X-21.6980 Y25.1070
G01 X-21.6991 Y25.0825
G01 X-21.6991 Y17.9166
G01 X-22.5591 Y17.0566
G01 X-22.9329 Y17.0566
G01 X-22.9599 Y17.0552
G01 X-22.9841 Y17.0517
G01 X-22.9937 Y17.0498
G01 X-23.0198 Y17.0430
G01 X-23.0474 Y17.0328
G01 X-23.0696 Y17.0223
G01 X-23.0760 Y17.0188
G01 X-23.0969 Y17.0061
G01 X-23.1167 Y16.9916
G01 X-23.1224 Y16.9870
G01 X-23.1388 Y16.9722
G01 X-23.1988 Y16.9123
G01 X-23.2186 Y16.8906
G01 X-23.2333 Y16.8709
G01 X-23.2387 Y16.8628
G01 X-23.2512 Y16.8417
G01 X-23.2618 Y16.8196
G01 X-23.2656 Y16.8106
G01 X-23.2737 Y16.7875
G01 X-23.2808 Y16.7589
G01 X-23.2852 Y16.7299
G01 X-23.2866 Y16.7005
G01 X-23.2866 Y14.5101
G00 Z1.0000
G00 X-23.7604 Y18.2567
G01 F500.00
G01 Z-0.0400
G01 F500.00
G01 X-23.7727 Y18.2298
G01 X-23.7992 Y18.1559
G01 X-23.8197 Y18.0751
G01 X-23.8210 Y18.0679
G01 X-23.8324 Y17.9903
G01 X-23.8365 Y17.9094
G01 X-23.8364 Y17.9021
G01 X-23.8324 Y17.8237
G01 X-23.8202 Y17.7413
G01 X-23.7999 Y17.6604
G01 X-23.7727 Y17.5842
G01 X-23.7699 Y17.5774
G01 X-23.7362 Y17.5065
G01 X-23.6933 Y17.4350
G01 X-23.6437 Y17.3681
G01 X-23.5877 Y17.3063
G01 X-23.5259 Y17.2503
G01 X-23.4590 Y17.2007
G01 X-23.3875 Y17.1578
G01 X-23.3143 Y17.1231
G01 X-23.3075 Y17.1204
G01 X-23.2336 Y17.0941
G01 X-23.1527 Y17.0738
G01 X-23.0703 Y17.0616
G01 X-22.9870 Y17.0575
G01 X-22.9037 Y17.0616
G01 X-22.8213 Y17.0738
G01 X-22.7404 Y17.0941
G01 X-22.6619 Y17.1222
G01 X-22.5865 Y17.1578
G01 X-22.5150 Y17.2007
G01 X-22.4481 Y17.2503
G01 X-22.3863 Y17.3063
G01 X-22.3303 Y17.3681
G01 X-22.2807 Y17.4350
G01 X-22.2378 Y17.5065
G01 X-22.2031 Y17.5797
G01 X-22.1756 Y17.6558
G01 X-22.1728 Y17.6651
G01 X-22.1538 Y17.7413
G01 X-22.1416 Y17.8237
G01 X-22.1375 Y17.9070
G01 X-22.1412 Y17.9854
G01 X-22.1422 Y17.9951
G01 X-22.1538 Y18.0727
G01 X-22.1728 Y18.1489
G01 X-22.1756 Y18.1582
G01 X-22.2022 Y18.2321
G01 X-22.2378 Y18.3075
G01 X-22.2781 Y18.3748
G01 X-22.2835 Y18.3829
G01 X-22.3303 Y18.4459
G01 X-22.3863 Y18.5077
G01 X-22.4481 Y18.5637
G01 X-22.5111 Y18.6105
G01 X-22.5192 Y18.6159
G01 X-22.5865 Y18.6562
G01 X-22.6619 Y18.6918
G01 X-22.7358 Y18.7184
G01 X-22.7451 Y18.7212
G01 X-22.8237 Y18.7406
G01 X-22.9037 Y18.7524
G01 X-22.9821 Y18.7564
G01 X-22.9919 Y18.7564
G01 X-23.0727 Y18.7521
G01 X-23.1527 Y18.7402
G01 X-23.2313 Y18.7206
G01 X-23.3098 Y18.6927
G01 X-23.3367 Y18.6804
G01 X-23.6834 Y19.0271
G01 X-23.6834 Y22.4469
G01 X-23.2832 Y22.8472
G01 X-23.2634 Y22.8689
G01 X-23.2459 Y22.8926
G01 X-23.2332 Y22.9135
G01 X-23.2286 Y22.9221
G01 X-23.2182 Y22.9444
G01 X-23.2083 Y22.9720
G01 X-23.2022 Y22.9958
G01 X-23.2003 Y23.0054
G01 X-23.1971 Y23.0272
G01 X-23.1965 Y23.0345
G01 X-23.1954 Y23.0590
G01 X-23.1954 Y28.5005
G01 X-23.0426 Y28.5005
G01 X-23.0352 Y28.5010
G01 X-23.0256 Y28.5024
G01 X-23.0161 Y28.5048
G01 X-23.0092 Y28.5072
G01 X-23.0025 Y28.5101
G01 X-22.9960 Y28.5134
G01 X-22.9897 Y28.5173
G01 X-22.9838 Y28.5216
G01 X-22.9782 Y28.5263
G01 X-22.9729 Y28.5314
G01 X-22.9681 Y28.5369
G01 X-22.9637 Y28.5427
G01 X-22.9597 Y28.5488
G01 X-22.9561 Y28.5553
G01 X-22.9531 Y28.5619
G01 X-22.9505 Y28.5688
G01 X-22.9485 Y28.5758
G01 X-22.9470 Y28.5830
G01 X-22.9460 Y28.5902
G01 X-22.9455 Y28.5976
G01 X-22.9456 Y30.6049
G01 X-22.9466 Y30.6146
G01 X-22.9485 Y30.6242
G01 X-22.9505 Y30.6312
G01 X-22.9540 Y30.6403
G01 X-22.9584 Y30.6490
G01 X-22.9637 Y30.6573
G01 X-22.9681 Y30.6631
G01 X-22.9746 Y30.6704
G01 X-22.9819 Y30.6769
G01 X-22.9897 Y30.6827
G01 X-22.9960 Y30.6866
G01 X-23.0047 Y30.6910
G01 X-23.0115 Y30.6937
G01 X-23.0208 Y30.6965
G01 X-23.0304 Y30.6984
G01 X-23.0401 Y30.6994
G01 X-23.9450 Y30.6995
G01 X-23.9548 Y30.6990
G01 X-23.9620 Y30.6980
G01 X-23.9715 Y30.6959
G01 X-23.9785 Y30.6937
G01 X-23.9875 Y30.6899
G01 X-23.9962 Y30.6853
G01 X-24.0023 Y30.6813
G01 X-24.0100 Y30.6753
G01 X-24.0171 Y30.6686
G01 X-24.0234 Y30.6612
G01 X-24.0291 Y30.6532
G01 X-24.0328 Y30.6469
G01 X-24.0369 Y30.6381
G01 X-24.0395 Y30.6312
G01 X-24.0421 Y30.6218
G01 X-24.0438 Y30.6122
G01 X-24.0444 Y30.6049
G01 X-24.0445 Y28.6000
G01 X-24.0438 Y28.5878
G01 X-24.0426 Y28.5806
G01 X-24.0409 Y28.5735
G01 X-24.0369 Y28.5619
G01 X-24.0316 Y28.5510
G01 X-24.0277 Y28.5447
G01 X-24.0234 Y28.5388
G01 X-24.0154 Y28.5296
G01 X-24.0100 Y28.5247
G01 X-24.0043 Y28.5201
G01 X-23.9982 Y28.5159
G01 X-23.9919 Y28.5122
G01 X-23.9853 Y28.5090
G01 X-23.9785 Y28.5063
G01 X-23.9715 Y28.5041
G01 X-23.9620 Y28.5020
G01 X-23.9548 Y28.5010
G01 X-23.9474 Y28.5005
G01 X-23.7946 Y28.5005
G01 X-23.7946 Y23.1831
G01 X-24.1949 Y22.7829
G01 X-24.2146 Y22.7611
G01 X-24.2321 Y22.7374
G01 X-24.2448 Y22.7165
G01 X-24.2494 Y22.7079
G01 X-24.2598 Y22.6857
G01 X-24.2682 Y22.6626
G01 X-24.2710 Y22.6533
G01 X-24.2768 Y22.6295
G01 X-24.2809 Y22.6028
G01 X-24.2826 Y22.5710
G01 X-24.2826 Y18.9006
G01 X-24.2812 Y18.8736
G01 X-24.2768 Y18.8446
G01 X-24.2697 Y18.8160
G01 X-24.2616 Y18.7929
G01 X-24.2578 Y18.7839
G01 X-24.2483 Y18.7639
G01 X-24.2448 Y18.7575
G01 X-24.2321 Y18.7366
G01 X-24.2146 Y18.7129
G01 X-24.1949 Y18.6912
G01 X-23.7604 Y18.2567
G00 Z1.0000
G00 X-22.5246 Y22.7936
G01 F500.00
G01 Z-0.0400
G01 F500.00
G01 X-22.5697 Y22.8046
G01 X-22.6522 Y22.8166
G01 X-22.7330 Y22.8205
G01 X-22.8114 Y22.8168
G01 X-22.8187 Y22.8161
G01 X-22.8987 Y22.8042
G01 X-22.9796 Y22.7839
G01 X-23.0581 Y22.7558
G01 X-23.1291 Y22.7224
G01 X-23.1356 Y22.7190
G01 X-23.2050 Y22.6773
G01 X-23.2719 Y22.6277
G01 X-23.3337 Y22.5717
G01 X-23.3897 Y22.5099
G01 X-23.4393 Y22.4430
G01 X-23.4822 Y22.3715
G01 X-23.5178 Y22.2961
G01 X-23.5444 Y22.2222
G01 X-23.5466 Y22.2153
G01 X-23.5662 Y22.1367
G01 X-23.5784 Y22.0543
G01 X-23.5825 Y21.9710
G01 X-23.5784 Y21.8877
G01 X-23.5662 Y21.8053
G01 X-23.5459 Y21.7244
G01 X-23.5178 Y21.6459
G01 X-23.4822 Y21.5705
G01 X-23.4393 Y21.4990
G01 X-23.3897 Y21.4321
G01 X-23.3337 Y21.3703
G01 X-23.2719 Y21.3143
G01 X-23.2050 Y21.2647
G01 X-23.1335 Y21.2218
G01 X-23.0581 Y21.1862
G01 X-22.9842 Y21.1596
G01 X-22.9773 Y21.1574
G01 X-22.8987 Y21.1378
G01 X-22.8211 Y21.1262
G01 X-22.8114 Y21.1252
G01 X-22.7330 Y21.1215
G01 X-22.6546 Y21.1252
G01 X-22.6449 Y21.1262
G01 X-22.5721 Y21.1370
G01 X-22.5625 Y21.1389
G01 X-22.4864 Y21.1581
G01 X-22.4079 Y21.1862
G01 X-22.3325 Y21.2218
G01 X-22.2610 Y21.2647
G01 X-22.1941 Y21.3143
G01 X-22.1323 Y21.3703
G01 X-22.0763 Y21.4321
G01 X-22.0295 Y21.4951
G01 X-22.0241 Y21.5032
G01 X-21.9862 Y21.5663
G01 X-21.9816 Y21.5749
G01 X-21.9482 Y21.6459
G01 X-21.9216 Y21.7198
G01 X-21.9188 Y21.7291
G01 X-21.8998 Y21.8053
G01 X-21.8879 Y21.8853
G01 X-21.8836 Y21.9661
G01 X-21.8836 Y21.9759
G01 X-21.8876 Y22.0543
G01 X-21.8994 Y22.1343
G01 X-21.9188 Y22.2129
G01 X-21.9208 Y22.2199
G01 X-21.9473 Y22.2938
G01 X-21.9646 Y22.3311
G01 X-21.9597 Y22.3399
G01 X-21.9482 Y22.3643
G01 X-21.9376 Y22.3944
G01 X-21.9312 Y22.4206
G01 X-21.9274 Y22.4448
G01 X-21.9265 Y22.4545
G01 X-21.9254 Y22.4790
G01 X-21.9254 Y28.5005
G01 X-21.7726 Y28.5005
G01 X-21.7652 Y28.5010
G01 X-21.7580 Y28.5020
G01 X-21.7485 Y28.5041
G01 X-21.7415 Y28.5063
G01 X-21.7347 Y28.5090
G01 X-21.7281 Y28.5122
G01 X-21.7218 Y28.5159
G01 X-21.7157 Y28.5201
G01 X-21.7100 Y28.5247
G01 X-21.7046 Y28.5296
G01 X-21.6997 Y28.5350
G01 X-21.6951 Y28.5407
G01 X-21.6909 Y28.5468
G01 X-21.6872 Y28.5531
G01 X-21.6840 Y28.5597
G01 X-21.6813 Y28.5665
G01 X-21.6779 Y28.5782
G01 X-21.6766 Y28.5854
G01 X-21.6758 Y28.5927
G01 X-21.6755 Y28.6000
G01 X-21.6756 Y30.6049
G01 X-21.6762 Y30.6122
G01 X-21.6779 Y30.6218
G01 X-21.6798 Y30.6289
G01 X-21.6831 Y30.6381
G01 X-21.6872 Y30.6469
G01 X-21.6923 Y30.6553
G01 X-21.6966 Y30.6612
G01 X-21.7029 Y30.6686
G01 X-21.7082 Y30.6737
G01 X-21.7157 Y30.6799
G01 X-21.7238 Y30.6853
G01 X-21.7325 Y30.6899
G01 X-21.7392 Y30.6928
G01 X-21.7485 Y30.6959
G01 X-21.7556 Y30.6976
G01 X-21.7652 Y30.6990
G01 X-21.7750 Y30.6995
G01 X-22.6750 Y30.6995
G01 X-22.6848 Y30.6990
G01 X-22.6920 Y30.6980
G01 X-22.7015 Y30.6959
G01 X-22.7085 Y30.6937
G01 X-22.7175 Y30.6899
G01 X-22.7262 Y30.6853
G01 X-22.7323 Y30.6813
G01 X-22.7381 Y30.6769
G01 X-22.7454 Y30.6704
G01 X-22.7519 Y30.6631
G01 X-22.7563 Y30.6573
G01 X-22.7616 Y30.6490
G01 X-22.7649 Y30.6425
G01 X-22.7678 Y30.6358
G01 X-22.7709 Y30.6265
G01 X-22.7726 Y30.6194
G01 X-22.7740 Y30.6098
G01 X-22.7745 Y30.6000
G01 X-22.7745 Y28.6000
G01 X-22.7738 Y28.5878
G01 X-22.7726 Y28.5806
G01 X-22.7709 Y28.5735
G01 X-22.7669 Y28.5619
G01 X-22.7616 Y28.5510
G01 X-22.7577 Y28.5447
G01 X-22.7534 Y28.5388
G01 X-22.7454 Y28.5296
G01 X-22.7400 Y28.5247
G01 X-22.7343 Y28.5201
G01 X-22.7282 Y28.5159
G01 X-22.7219 Y28.5122
G01 X-22.7153 Y28.5090
G01 X-22.7085 Y28.5063
G01 X-22.7015 Y28.5041
G01 X-22.6920 Y28.5020
G01 X-22.6848 Y28.5010
G01 X-22.6774 Y28.5005
G01 X-22.5246 Y28.5005
G01 X-22.5246 Y22.7936
G00 Z1.0000
G00 X-26.3346 Y24.1621
G01 F500.00
G01 Z-0.0400
G01 F500.00
G01 X-26.3623 Y24.1519
G01 X-26.4333 Y24.1183
G01 X-26.5049 Y24.0757
G01 X-26.5109 Y24.0715
G01 X-26.5739 Y24.0247
G01 X-26.6339 Y23.9704
G01 X-26.6391 Y23.9652
G01 X-26.6917 Y23.9069
G01 X-26.7413 Y23.8400
G01 X-26.7842 Y23.7685
G01 X-26.8189 Y23.6953
G01 X-26.8216 Y23.6885
G01 X-26.8479 Y23.6146
G01 X-26.8682 Y23.5337
G01 X-26.8804 Y23.4513
G01 X-26.8845 Y23.3680
G01 X-26.8804 Y23.2847
G01 X-26.8682 Y23.2023
G01 X-26.8479 Y23.1214
G01 X-26.8207 Y23.0452
G01 X-26.8179 Y23.0384
G01 X-26.7842 Y22.9675
G01 X-26.7413 Y22.8960
G01 X-26.6917 Y22.8291
G01 X-26.6357 Y22.7673
G01 X-26.5739 Y22.7113
G01 X-26.5070 Y22.6617
G01 X-26.4355 Y22.6188
G01 X-26.3601 Y22.5832
G01 X-26.2816 Y22.5551
G01 X-26.2007 Y22.5348
G01 X-26.1183 Y22.5226
G01 X-26.0350 Y22.5185
G01 X-25.9517 Y22.5226
G01 X-25.8693 Y22.5348
G01 X-25.7884 Y22.5551
G01 X-25.7122 Y22.5823
G01 X-25.6389 Y22.6166
G01 X-25.6303 Y22.6212
G01 X-25.5630 Y22.6617
G01 X-25.4961 Y22.7113
G01 X-25.4378 Y22.7639
G01 X-25.4309 Y22.7708
G01 X-25.3783 Y22.8291
G01 X-25.3287 Y22.8960
G01 X-25.2882 Y22.9633
G01 X-25.2836 Y22.9719
G01 X-25.2502 Y23.0429
G01 X-25.2221 Y23.1214
G01 X-25.2029 Y23.1975
G01 X-25.2010 Y23.2071
G01 X-25.1896 Y23.2847
G01 X-25.1855 Y23.3656
G01 X-25.1892 Y23.4464
G01 X-25.1902 Y23.4561
G01 X-25.2018 Y23.5337
G01 X-25.2221 Y23.6146
G01 X-25.2502 Y23.6931
G01 X-25.2836 Y23.7641
G01 X-25.2882 Y23.7727
G01 X-25.3300 Y23.8420
G01 X-25.3783 Y23.9069
G01 X-25.4309 Y23.9652
G01 X-25.4378 Y23.9721
G01 X-25.4980 Y24.0262
G01 X-25.5630 Y24.0743
G01 X-25.6324 Y24.1160
G01 X-25.7077 Y24.1519
G01 X-25.7354 Y24.1621
G01 X-25.7354 Y28.5005
G01 X-25.5826 Y28.5005
G01 X-25.5752 Y28.5010
G01 X-25.5656 Y28.5024
G01 X-25.5561 Y28.5048
G01 X-25.5492 Y28.5072
G01 X-25.5425 Y28.5101
G01 X-25.5360 Y28.5134
G01 X-25.5297 Y28.5173
G01 X-25.5238 Y28.5216
G01 X-25.5182 Y28.5263
G01 X-25.5129 Y28.5314
G01 X-25.5081 Y28.5369
G01 X-25.5037 Y28.5427
G01 X-25.4997 Y28.5488
G01 X-25.4961 Y28.5553
G01 X-25.4931 Y28.5619
G01 X-25.4905 Y28.5688
G01 X-25.4885 Y28.5758
G01 X-25.4870 Y28.5830
G01 X-25.4860 Y28.5902
G01 X-25.4855 Y28.5976
G01 X-25.4856 Y30.6049
G01 X-25.4866 Y30.6146
G01 X-25.4879 Y30.6218
G01 X-25.4898 Y30.6289
G01 X-25.4931 Y30.6381
G01 X-25.4972 Y30.6469
G01 X-25.5023 Y30.6553
G01 X-25.5066 Y30.6612
G01 X-25.5129 Y30.6686
G01 X-25.5182 Y30.6737
G01 X-25.5257 Y30.6799
G01 X-25.5338 Y30.6853
G01 X-25.5403 Y30.6889
G01 X-25.5469 Y30.6919
G01 X-25.5561 Y30.6952
G01 X-25.5632 Y30.6971
G01 X-25.5728 Y30.6988
G01 X-25.5850 Y30.6995
G01 X-26.4850 Y30.6995
G01 X-26.4923 Y30.6992
G01 X-26.4996 Y30.6984
G01 X-26.5092 Y30.6965
G01 X-26.5162 Y30.6945
G01 X-26.5253 Y30.6910
G01 X-26.5319 Y30.6878
G01 X-26.5403 Y30.6827
G01 X-26.5481 Y30.6769
G01 X-26.5536 Y30.6721
G01 X-26.5587 Y30.6668
G01 X-26.5649 Y30.6593
G01 X-26.5691 Y30.6532
G01 X-26.5739 Y30.6447
G01 X-26.5778 Y30.6358
G01 X-26.5802 Y30.6289
G01 X-26.5826 Y30.6194
G01 X-26.5838 Y30.6122
G01 X-26.5845 Y30.6000
G01 X-26.5845 Y28.6000
G01 X-26.5838 Y28.5878
G01 X-26.5826 Y28.5806
G01 X-26.5809 Y28.5735
G01 X-26.5769 Y28.5619
G01 X-26.5716 Y28.5510
G01 X-26.5677 Y28.5447
G01 X-26.5634 Y28.5388
G01 X-26.5554 Y28.5296
G01 X-26.5500 Y28.5247
G01 X-26.5443 Y28.5201
G01 X-26.5382 Y28.5159
G01 X-26.5319 Y28.5122
G01 X-26.5253 Y28.5090
G01 X-26.5185 Y28.5063
G01 X-26.5115 Y28.5041
G01 X-26.5020 Y28.5020
G01 X-26.4948 Y28.5010
G01 X-26.4874 Y28.5005
G01 X-26.3346 Y28.5005
G01 X-26.3346 Y24.1621
G00 Z1.0000
G00 X-28.8098 Y23.0429
G01 F500.00
G01 Z-0.0400
G01 F500.00
G01 X-28.8088 Y23.0526
G01 X-28.8075 Y23.0820
G01 X-28.8075 Y23.7594
G01 X-28.8088 Y23.7864
G01 X-28.8098 Y23.7961
G01 X-28.8142 Y23.8252
G01 X-28.8212 Y23.8537
G01 X-28.8241 Y23.8631
G01 X-28.8341 Y23.8907
G01 X-28.8466 Y23.9174
G01 X-28.8512 Y23.9260
G01 X-28.8664 Y23.9512
G01 X-28.8838 Y23.9749
G01 X-28.8900 Y23.9824
G01 X-28.9116 Y24.0058
G01 X-28.9353 Y24.0272
G01 X-28.9588 Y24.0448
G01 X-28.9670 Y24.0502
G01 X-28.9922 Y24.0652
G01 X-29.0188 Y24.0779
G01 X-29.0278 Y24.0817
G01 X-29.0555 Y24.0915
G01 X-29.0841 Y24.0987
G01 X-29.0936 Y24.1006
G01 X-29.1227 Y24.1048
G01 X-29.1570 Y24.1065
G01 X-32.0570 Y24.1065
G01 X-32.0864 Y24.1052
G01 X-32.0961 Y24.1042
G01 X-32.1252 Y24.0998
G01 X-32.1537 Y24.0928
G01 X-32.1631 Y24.0899
G01 X-32.1907 Y24.0799
G01 X-32.2174 Y24.0674
G01 X-32.2260 Y24.0628
G01 X-32.2512 Y24.0476
G01 X-32.2787 Y24.0272
G01 X-32.3006 Y24.0075
G01 X-32.3075 Y24.0006
G01 X-32.3272 Y23.9787
G01 X-32.3448 Y23.9552
G01 X-32.3502 Y23.9470
G01 X-32.3652 Y23.9218
G01 X-32.3799 Y23.8907
G01 X-32.3899 Y23.8631
G01 X-32.3928 Y23.8537
G01 X-32.3993 Y23.8276
G01 X-32.4006 Y23.8204
G01 X-32.4048 Y23.7913
G01 X-32.4064 Y23.7619
G01 X-32.4065 Y23.0820
G01 X-32.4048 Y23.0477
G01 X-32.3998 Y23.0138
G01 X-32.3928 Y22.9853
G01 X-32.3899 Y22.9759
G01 X-32.3808 Y22.9505
G01 X-32.3779 Y22.9438
G01 X-32.3652 Y22.9172
G01 X-32.3502 Y22.8920
G01 X-32.3448 Y22.8838
G01 X-32.3272 Y22.8603
G01 X-32.3041 Y22.8349
G01 X-32.2787 Y22.8118
G01 X-32.2512 Y22.7914
G01 X-32.2218 Y22.7738
G01 X-32.1952 Y22.7611
G01 X-32.1862 Y22.7573
G01 X-32.1585 Y22.7475
G01 X-32.1299 Y22.7403
G01 X-32.1204 Y22.7384
G01 X-32.0913 Y22.7342
G01 X-32.0594 Y22.7325
G01 X-30.6257 Y22.7325
G01 X-30.6256 Y21.4705
G01 X-30.6490 Y21.4618
G01 X-30.7399 Y21.4189
G01 X-30.7464 Y21.4155
G01 X-30.8368 Y21.3612
G01 X-30.9235 Y21.2969
G01 X-30.9999 Y21.2278
G01 X-31.0068 Y21.2209
G01 X-31.0759 Y21.1445
G01 X-31.1402 Y21.0578
G01 X-31.1957 Y20.9653
G01 X-31.2398 Y20.8722
G01 X-31.2436 Y20.8632
G01 X-31.2782 Y20.7662
G01 X-31.3033 Y20.6663
G01 X-31.3052 Y20.6567
G01 X-31.3202 Y20.5548
G01 X-31.3255 Y20.4494
G01 X-31.3254 Y20.4421
G01 X-31.3206 Y20.3441
G01 X-31.3196 Y20.3344
G01 X-31.3044 Y20.2325
G01 X-31.2795 Y20.1325
G01 X-31.2766 Y20.1232
G01 X-31.2418 Y20.0262
G01 X-31.1979 Y19.9331
G01 X-31.1933 Y19.9245
G01 X-31.1402 Y19.8362
G01 X-31.0789 Y19.7533
G01 X-31.0727 Y19.7458
G01 X-31.0035 Y19.6695
G01 X-30.9272 Y19.6003
G01 X-30.9197 Y19.5941
G01 X-30.8368 Y19.5328
G01 X-30.7443 Y19.4773
G01 X-30.6468 Y19.4312
G01 X-30.5452 Y19.3948
G01 X-30.4405 Y19.3686
G01 X-30.3338 Y19.3528
G01 X-30.2260 Y19.3475
G01 X-30.1182 Y19.3528
G01 X-30.0115 Y19.3686
G01 X-29.9068 Y19.3948
G01 X-29.8052 Y19.4312
G01 X-29.7077 Y19.4773
G01 X-29.6152 Y19.5328
G01 X-29.5285 Y19.5971
G01 X-29.4485 Y19.6695
G01 X-29.3761 Y19.7495
G01 X-29.3118 Y19.8362
G01 X-29.2563 Y19.9287
G01 X-29.2102 Y20.0262
G01 X-29.1738 Y20.1278
G01 X-29.1476 Y20.2325
G01 X-29.1324 Y20.3344
G01 X-29.1314 Y20.3441
G01 X-29.1266 Y20.4421
G01 X-29.1266 Y20.4519
G01 X-29.1318 Y20.5548
G01 X-29.1476 Y20.6615
G01 X-29.1738 Y20.7662
G01 X-29.2084 Y20.8632
G01 X-29.2122 Y20.8722
G01 X-29.2563 Y20.9653
G01 X-29.3092 Y21.0537
G01 X-29.3146 Y21.0618
G01 X-29.3761 Y21.1445
G01 X-29.4452 Y21.2209
G01 X-29.4521 Y21.2278
G01 X-29.5285 Y21.2969
G01 X-29.6112 Y21.3584
G01 X-29.6193 Y21.3638
G01 X-29.7077 Y21.4167
G01 X-29.8030 Y21.4618
G01 X-29.8263 Y21.4705
G01 X-29.8264 Y22.7325
G01 X-29.1546 Y22.7325
G01 X-29.1227 Y22.7342
G01 X-29.0936 Y22.7384
G01 X-29.0841 Y22.7403
G01 X-29.0555 Y22.7475
G01 X-29.0278 Y22.7573
G01 X-29.0188 Y22.7611
G01 X-28.9922 Y22.7738
G01 X-28.9628 Y22.7914
G01 X-28.9353 Y22.8118
G01 X-28.9134 Y22.8315
G01 X-28.9065 Y22.8384
G01 X-28.8868 Y22.8603
G01 X-28.8692 Y22.8838
G01 X-28.8638 Y22.8920
G01 X-28.8488 Y22.9172
G01 X-28.8341 Y22.9483
G01 X-28.8241 Y22.9759
G01 X-28.8212 Y22.9853
G01 X-28.8142 Y23.0138
G01 X-28.8098 Y23.0429
G00 Z1.0000
G00 X-30.1446 Y27.2756
G01 F500.00
G01 Z-0.0400
G01 F500.00
G01 X-30.1446 Y27.5977
G01 X-30.2146 Y27.5277
G01 X-30.2023 Y27.5008
G01 X-30.1744 Y27.4223
G01 X-30.1548 Y27.3437
G01 X-30.1446 Y27.2756
G00 Z1.0000
G00 X-30.6383 Y27.9514
G01 F500.00
G01 Z-0.0400
G01 F500.00
G01 X-30.6652 Y27.9637
G01 X-30.7391 Y27.9902
G01 X-30.7461 Y27.9922
G01 X-30.8247 Y28.0116
G01 X-30.9047 Y28.0234
G01 X-30.9831 Y28.0274
G01 X-30.9929 Y28.0274
G01 X-31.0737 Y28.0231
G01 X-31.1537 Y28.0112
G01 X-31.2299 Y27.9922
G01 X-31.2392 Y27.9894
G01 X-31.3131 Y27.9628
G01 X-31.3885 Y27.9272
G01 X-31.4558 Y27.8869
G01 X-31.4639 Y27.8815
G01 X-31.5288 Y27.8331
G01 X-31.5887 Y27.7787
G01 X-31.6415 Y27.7206
G01 X-31.6477 Y27.7131
G01 X-31.6943 Y27.6500
G01 X-31.7348 Y27.5827
G01 X-31.7394 Y27.5741
G01 X-31.7728 Y27.5031
G01 X-31.8009 Y27.4246
G01 X-31.8212 Y27.3437
G01 X-31.8328 Y27.2661
G01 X-31.8338 Y27.2564
G01 X-31.8375 Y27.1780
G01 X-31.8338 Y27.0996
G01 X-31.8328 Y27.0899
G01 X-31.8212 Y27.0123
G01 X-31.8022 Y26.9361
G01 X-31.7994 Y26.9268
G01 X-31.7728 Y26.8529
G01 X-31.7394 Y26.7819
G01 X-31.7348 Y26.7733
G01 X-31.6969 Y26.7102
G01 X-31.6915 Y26.7021
G01 X-31.6447 Y26.6391
G01 X-31.5887 Y26.5773
G01 X-31.5269 Y26.5213
G01 X-31.4600 Y26.4717
G01 X-31.3885 Y26.4288
G01 X-31.3176 Y26.3951
G01 X-31.3085 Y26.3914
G01 X-31.2392 Y26.3666
G01 X-31.2299 Y26.3638
G01 X-31.1537 Y26.3448
G01 X-31.0713 Y26.3326
G01 X-30.9880 Y26.3285
G01 X-30.9047 Y26.3326
G01 X-30.8223 Y26.3448
G01 X-30.7414 Y26.3651
G01 X-30.6629 Y26.3932
G01 X-30.5919 Y26.4266
G01 X-30.5833 Y26.4312
G01 X-30.5202 Y26.4691
G01 X-30.5121 Y26.4745
G01 X-30.4491 Y26.5213
G01 X-30.3873 Y26.5773
G01 X-30.3313 Y26.6391
G01 X-30.2845 Y26.7021
G01 X-30.2791 Y26.7102
G01 X-30.2412 Y26.7733
G01 X-30.2366 Y26.7819
G01 X-30.2032 Y26.8529
G01 X-30.1751 Y26.9314
G01 X-30.1548 Y27.0123
G01 X-30.1446 Y27.0804
G01 X-30.1446 Y25.9806
G01 X-30.3437 Y25.7815
G01 X-32.0594 Y25.7815
G01 X-32.0913 Y25.7798
G01 X-32.1204 Y25.7756
G01 X-32.1299 Y25.7737
G01 X-32.1585 Y25.7665
G01 X-32.1862 Y25.7567
G01 X-32.1952 Y25.7529
G01 X-32.2218 Y25.7402
G01 X-32.2470 Y25.7252
G01 X-32.2552 Y25.7198
G01 X-32.2787 Y25.7022
G01 X-32.3041 Y25.6791
G01 X-32.3272 Y25.6537
G01 X-32.3448 Y25.6302
G01 X-32.3502 Y25.6220
G01 X-32.3652 Y25.5968
G01 X-32.3779 Y25.5702
G01 X-32.3808 Y25.5635
G01 X-32.3899 Y25.5381
G01 X-32.3928 Y25.5287
G01 X-32.3998 Y25.5002
G01 X-32.4045 Y25.4687
G01 X-32.4065 Y25.4320
G01 X-32.4065 Y24.7546
G01 X-32.4048 Y24.7227
G01 X-32.3998 Y24.6888
G01 X-32.3915 Y24.6555
G01 X-32.3817 Y24.6278
G01 X-32.3779 Y24.6188
G01 X-32.3652 Y24.5922
G01 X-32.3502 Y24.5670
G01 X-32.3448 Y24.5588
G01 X-32.3272 Y24.5353
G01 X-32.3075 Y24.5134
G01 X-32.3006 Y24.5065
G01 X-32.2787 Y24.4868
G01 X-32.2532 Y24.4678
G01 X-32.2260 Y24.4512
G01 X-32.2174 Y24.4466
G01 X-32.1907 Y24.4341
G01 X-32.1631 Y24.4241
G01 X-32.1537 Y24.4212
G01 X-32.1252 Y24.4142
G01 X-32.0961 Y24.4098
G01 X-32.0864 Y24.4088
G01 X-32.0570 Y24.4075
G01 X-29.1570 Y24.4075
G01 X-29.1227 Y24.4092
G01 X-29.0888 Y24.4142
G01 X-29.0555 Y24.4225
G01 X-29.0278 Y24.4323
G01 X-29.0188 Y24.4361
G01 X-28.9922 Y24.4488
G01 X-28.9670 Y24.4638
G01 X-28.9608 Y24.4678
G01 X-28.9391 Y24.4838
G01 X-28.9316 Y24.4900
G01 X-28.9099 Y24.5099
G01 X-28.8868 Y24.5353
G01 X-28.8692 Y24.5588
G01 X-28.8638 Y24.5670
G01 X-28.8488 Y24.5922
G01 X-28.8361 Y24.6188
G01 X-28.8323 Y24.6278
G01 X-28.8225 Y24.6555
G01 X-28.8138 Y24.6912
G01 X-28.8092 Y24.7227
G01 X-28.8075 Y24.7570
G01 X-28.8075 Y25.4344
G01 X-28.8092 Y25.4663
G01 X-28.8142 Y25.5002
G01 X-28.8225 Y25.5335
G01 X-28.8332 Y25.5635
G01 X-28.8488 Y25.5968
G01 X-28.8664 Y25.6262
G01 X-28.8868 Y25.6537
G01 X-28.9065 Y25.6756
G01 X-28.9134 Y25.6825
G01 X-28.9353 Y25.7022
G01 X-28.9588 Y25.7198
G01 X-28.9649 Y25.7239
G01 X-28.9880 Y25.7378
G01 X-28.9966 Y25.7424
G01 X-29.0233 Y25.7549
G01 X-29.0555 Y25.7665
G01 X-29.0841 Y25.7737
G01 X-29.0936 Y25.7756
G01 X-29.1227 Y25.7798
G01 X-29.1546 Y25.7815
G01 X-29.5552 Y25.7815
G01 X-29.5512 Y25.7981
G01 X-29.5471 Y25.8247
G01 X-29.5454 Y25.8565
G01 X-29.5454 Y28.5005
G01 X-29.3926 Y28.5005
G01 X-29.3852 Y28.5010
G01 X-29.3756 Y28.5024
G01 X-29.3661 Y28.5048
G01 X-29.3592 Y28.5072
G01 X-29.3525 Y28.5101
G01 X-29.3460 Y28.5134
G01 X-29.3397 Y28.5173
G01 X-29.3338 Y28.5216
G01 X-29.3246 Y28.5296
G01 X-29.3197 Y28.5350
G01 X-29.3151 Y28.5407
G01 X-29.3109 Y28.5468
G01 X-29.3072 Y28.5531
G01 X-29.3040 Y28.5597
G01 X-29.3013 Y28.5665
G01 X-29.2991 Y28.5735
G01 X-29.2974 Y28.5806
G01 X-29.2962 Y28.5878
G01 X-29.2956 Y28.5951
G01 X-29.2955 Y30.6024
G01 X-29.2960 Y30.6098
G01 X-29.2970 Y30.6170
G01 X-29.2998 Y30.6289
G01 X-29.3022 Y30.6358
G01 X-29.3051 Y30.6425
G01 X-29.3084 Y30.6490
G01 X-29.3123 Y30.6553
G01 X-29.3197 Y30.6650
G01 X-29.3246 Y30.6704
G01 X-29.3300 Y30.6753
G01 X-29.3357 Y30.6799
G01 X-29.3418 Y30.6841
G01 X-29.3525 Y30.6899
G01 X-29.3615 Y30.6937
G01 X-29.3732 Y30.6971
G01 X-29.3828 Y30.6988
G01 X-29.3950 Y30.6995
G01 X-30.2999 Y30.6994
G01 X-30.3072 Y30.6988
G01 X-30.3144 Y30.6976
G01 X-30.3262 Y30.6945
G01 X-30.3375 Y30.6899
G01 X-30.3440 Y30.6866
G01 X-30.3503 Y30.6827
G01 X-30.3562 Y30.6784
G01 X-30.3618 Y30.6737
G01 X-30.3703 Y30.6650
G01 X-30.3749 Y30.6593
G01 X-30.3791 Y30.6532
G01 X-30.3849 Y30.6425
G01 X-30.3895 Y30.6312
G01 X-30.3921 Y30.6218
G01 X-30.3940 Y30.6098
G01 X-30.3945 Y30.6000
G01 X-30.3945 Y29.4742
G01 X-30.5018 Y29.3669
G01 X-30.5184 Y29.3488
G01 X-30.5231 Y29.3432
G01 X-30.5377 Y29.3235
G01 X-30.5530 Y29.2984
G01 X-30.5648 Y29.2741
G01 X-30.5685 Y29.2651
G01 X-30.5767 Y29.2420
G01 X-30.5838 Y29.2135
G01 X-30.5876 Y29.1892
G01 X-30.5885 Y29.1795
G01 X-30.5896 Y29.1550
G01 X-30.5882 Y29.1256
G01 X-30.5847 Y29.1014
G01 X-30.5828 Y29.0918
G01 X-30.5767 Y29.0680
G01 X-30.5668 Y29.0404
G01 X-30.5564 Y29.0181
G01 X-30.5518 Y29.0095
G01 X-30.5391 Y28.9886
G01 X-30.5231 Y28.9668
G01 X-30.5052 Y28.9467
G01 X-30.4983 Y28.9398
G01 X-30.4801 Y28.9234
G01 X-30.4585 Y28.9073
G01 X-30.4355 Y28.8932
G01 X-30.4291 Y28.8897
G01 X-30.4069 Y28.8792
G01 X-30.3945 Y28.8744
G01 X-30.3944 Y28.5951
G01 X-30.3938 Y28.5878
G01 X-30.3926 Y28.5806
G01 X-30.3895 Y28.5688
G01 X-30.3849 Y28.5575
G01 X-30.3816 Y28.5510
G01 X-30.3777 Y28.5447
G01 X-30.3719 Y28.5369
G01 X-30.3654 Y28.5296
G01 X-30.3581 Y28.5231
G01 X-30.3503 Y28.5173
G01 X-30.3419 Y28.5122
G01 X-30.3331 Y28.5081
G01 X-30.3239 Y28.5048
G01 X-30.3144 Y28.5024
G01 X-30.3048 Y28.5010
G01 X-30.2950 Y28.5005
G01 X-30.1446 Y28.5005
G01 X-30.1446 Y28.4451
G01 X-30.6383 Y27.9514
G00 Z1.0000
G00 X-27.6046 Y28.3531
G01 F500.00
G01 Z-0.0400
G01 F500.00
G01 X-27.6323 Y28.3429
G01 X-27.7033 Y28.3093
G01 X-27.7749 Y28.2667
G01 X-27.7809 Y28.2625
G01 X-27.8439 Y28.2157
G01 X-27.9039 Y28.1614
G01 X-27.9091 Y28.1562
G01 X-27.9617 Y28.0979
G01 X-28.0113 Y28.0310
G01 X-28.0542 Y27.9595
G01 X-28.0889 Y27.8863
G01 X-28.0916 Y27.8795
G01 X-28.1179 Y27.8056
G01 X-28.1382 Y27.7247
G01 X-28.1504 Y27.6423
G01 X-28.1545 Y27.5590
G01 X-28.1504 Y27.4757
G01 X-28.1382 Y27.3933
G01 X-28.1179 Y27.3124
G01 X-28.0907 Y27.2362
G01 X-28.0879 Y27.2294
G01 X-28.0542 Y27.1585
G01 X-28.0113 Y27.0870
G01 X-27.9617 Y27.0201
G01 X-27.9057 Y26.9583
G01 X-27.8439 Y26.9023
G01 X-27.7770 Y26.8527
G01 X-27.7055 Y26.8098
G01 X-27.6301 Y26.7742
G01 X-27.5516 Y26.7461
G01 X-27.4707 Y26.7258
G01 X-27.3883 Y26.7136
G01 X-27.3050 Y26.7095
G01 X-27.2217 Y26.7136
G01 X-27.1393 Y26.7258
G01 X-27.0584 Y26.7461
G01 X-26.9822 Y26.7733
G01 X-26.9089 Y26.8076
G01 X-26.9003 Y26.8122
G01 X-26.8330 Y26.8527
G01 X-26.7661 Y26.9023
G01 X-26.7078 Y26.9549
G01 X-26.7009 Y26.9618
G01 X-26.6483 Y27.0201
G01 X-26.5987 Y27.0870
G01 X-26.5582 Y27.1543
G01 X-26.5536 Y27.1629
G01 X-26.5202 Y27.2339
G01 X-26.4921 Y27.3124
G01 X-26.4729 Y27.3885
G01 X-26.4710 Y27.3981
G01 X-26.4596 Y27.4757
G01 X-26.4556 Y27.5541
G01 X-26.4556 Y27.5639
G01 X-26.4592 Y27.6374
G01 X-26.4602 Y27.6471
G01 X-26.4718 Y27.7247
G01 X-26.4921 Y27.8056
G01 X-26.5202 Y27.8841
G01 X-26.5536 Y27.9551
G01 X-26.5582 Y27.9637
G01 X-26.6000 Y28.0330
G01 X-26.6483 Y28.0979
G01 X-26.7009 Y28.1562
G01 X-26.7078 Y28.1631
G01 X-26.7680 Y28.2172
G01 X-26.8330 Y28.2653
G01 X-26.9024 Y28.3070
G01 X-26.9777 Y28.3429
G01 X-27.0054 Y28.3531
G01 X-27.0054 Y28.5005
G01 X-26.8526 Y28.5005
G01 X-26.8452 Y28.5010
G01 X-26.8380 Y28.5020
G01 X-26.8308 Y28.5035
G01 X-26.8215 Y28.5063
G01 X-26.8147 Y28.5090
G01 X-26.8081 Y28.5122
G01 X-26.8018 Y28.5159
G01 X-26.7957 Y28.5201
G01 X-26.7900 Y28.5247
G01 X-26.7846 Y28.5296
G01 X-26.7797 Y28.5350
G01 X-26.7751 Y28.5407
G01 X-26.7709 Y28.5468
G01 X-26.7672 Y28.5531
G01 X-26.7622 Y28.5642
G01 X-26.7598 Y28.5711
G01 X-26.7579 Y28.5782
G01 X-26.7566 Y28.5854
G01 X-26.7558 Y28.5927
G01 X-26.7555 Y28.6000
G01 X-26.7555 Y30.6024
G01 X-26.7560 Y30.6098
G01 X-26.7570 Y30.6170
G01 X-26.7585 Y30.6242
G01 X-26.7605 Y30.6312
G01 X-26.7631 Y30.6381
G01 X-26.7672 Y30.6469
G01 X-26.7709 Y30.6532
G01 X-26.7751 Y30.6593
G01 X-26.7797 Y30.6650
G01 X-26.7846 Y30.6704
G01 X-26.7900 Y30.6753
G01 X-26.7957 Y30.6799
G01 X-26.8018 Y30.6841
G01 X-26.8081 Y30.6878
G01 X-26.8147 Y30.6910
G01 X-26.8238 Y30.6945
G01 X-26.8308 Y30.6965
G01 X-26.8380 Y30.6980
G01 X-26.8477 Y30.6992
G01 X-26.8550 Y30.6995
G01 X-27.7550 Y30.6995
G01 X-27.7623 Y30.6992
G01 X-27.7696 Y30.6984
G01 X-27.7768 Y30.6971
G01 X-27.7839 Y30.6952
G01 X-27.7908 Y30.6928
G01 X-27.7975 Y30.6899
G01 X-27.8040 Y30.6866
G01 X-27.8103 Y30.6827
G01 X-27.8162 Y30.6784
G01 X-27.8218 Y30.6737
G01 X-27.8271 Y30.6686
G01 X-27.8319 Y30.6631
G01 X-27.8363 Y30.6573
G01 X-27.8403 Y30.6512
G01 X-27.8439 Y30.6447
G01 X-27.8469 Y30.6381
G01 X-27.8495 Y30.6312
G01 X-27.8515 Y30.6242
G01 X-27.8530 Y30.6170
G01 X-27.8540 Y30.6098
G01 X-27.8545 Y30.6000
G01 X-27.8545 Y28.6000
G01 X-27.8540 Y28.5902
G01 X-27.8521 Y28.5782
G01 X-27.8502 Y28.5711
G01 X-27.8478 Y28.5642
G01 X-27.8449 Y28.5575
G01 X-27.8416 Y28.5510
G01 X-27.8377 Y28.5447
G01 X-27.8334 Y28.5388
G01 X-27.8254 Y28.5296
G01 X-27.8200 Y28.5247
G01 X-27.8143 Y28.5201
G01 X-27.8082 Y28.5159
G01 X-27.8019 Y28.5122
G01 X-27.7953 Y28.5090
G01 X-27.7885 Y28.5063
G01 X-27.7815 Y28.5041
G01 X-27.7720 Y28.5020
G01 X-27.7648 Y28.5010
G01 X-27.7574 Y28.5005
G01 X-27.6046 Y28.5005
G01 X-27.6046 Y28.3531
G00 Z1.0000
G00 X-32.2259 Y30.8154
G01 F500.00
G01 Z-0.0400
G01 F500.00
G01 X-28.8746 Y30.8154
G01 X-28.8746 Y30.6995
G01 X-29.0274 Y30.6995
G01 X-29.0348 Y30.6990
G01 X-29.0420 Y30.6980
G01 X-29.0492 Y30.6965
G01 X-29.0585 Y30.6937
G01 X-29.0653 Y30.6910
G01 X-29.0719 Y30.6878
G01 X-29.0823 Y30.6813
G01 X-29.0881 Y30.6769
G01 X-29.0936 Y30.6721
G01 X-29.0987 Y30.6668
G01 X-29.1034 Y30.6612
G01 X-29.1077 Y30.6553
G01 X-29.1116 Y30.6490
G01 X-29.1169 Y30.6381
G01 X-29.1195 Y30.6312
G01 X-29.1215 Y30.6242
G01 X-29.1230 Y30.6170
G01 X-29.1240 Y30.6098
G01 X-29.1245 Y30.6000
G01 X-29.1245 Y28.6000
G01 X-29.1242 Y28.5927
G01 X-29.1230 Y28.5830
G01 X-29.1215 Y28.5758
G01 X-29.1187 Y28.5665
G01 X-29.1160 Y28.5597
G01 X-29.1128 Y28.5531
G01 X-29.1091 Y28.5468
G01 X-29.1049 Y28.5407
G01 X-29.1003 Y28.5350
G01 X-29.0954 Y28.5296
G01 X-29.0900 Y28.5247
G01 X-29.0843 Y28.5201
G01 X-29.0782 Y28.5159
G01 X-29.0719 Y28.5122
G01 X-29.0653 Y28.5090
G01 X-29.0585 Y28.5063
G01 X-29.0492 Y28.5035
G01 X-29.0420 Y28.5020
G01 X-29.0348 Y28.5010
G01 X-29.0274 Y28.5005
G01 X-28.1201 Y28.5006
G01 X-28.1128 Y28.5012
G01 X-28.1056 Y28.5024
G01 X-28.0938 Y28.5055
G01 X-28.0825 Y28.5101
G01 X-28.0718 Y28.5159
G01 X-28.0619 Y28.5231
G01 X-28.0529 Y28.5314
G01 X-28.0451 Y28.5407
G01 X-28.0409 Y28.5468
G01 X-28.0372 Y28.5531
G01 X-28.0322 Y28.5642
G01 X-28.0285 Y28.5758
G01 X-28.0262 Y28.5878
G01 X-28.0255 Y28.6000
G01 X-28.0255 Y30.6000
G01 X-28.0258 Y30.6073
G01 X-28.0270 Y30.6170
G01 X-28.0298 Y30.6289
G01 X-28.0322 Y30.6358
G01 X-28.0351 Y30.6425
G01 X-28.0384 Y30.6490
G01 X-28.0423 Y30.6553
G01 X-28.0497 Y30.6650
G01 X-28.0582 Y30.6737
G01 X-28.0638 Y30.6784
G01 X-28.0697 Y30.6827
G01 X-28.0803 Y30.6889
G01 X-28.0869 Y30.6919
G01 X-28.0938 Y30.6945
G01 X-28.1008 Y30.6965
G01 X-28.1080 Y30.6980
G01 X-28.1152 Y30.6990
G01 X-28.1226 Y30.6995
G01 X-28.2754 Y30.6995
G01 X-28.2754 Y31.0000
G01 X-28.2765 Y31.0245
G01 X-28.2774 Y31.0342
G01 X-28.2807 Y31.0560
G01 X-28.2822 Y31.0632
G01 X-28.2883 Y31.0870
G01 X-28.2982 Y31.1147
G01 X-28.3108 Y31.1412
G01 X-28.3259 Y31.1664
G01 X-28.3434 Y31.1901
G01 X-28.3614 Y31.2101
G01 X-28.4782 Y31.3268
G01 X-28.4962 Y31.3434
G01 X-28.5038 Y31.3496
G01 X-28.5236 Y31.3641
G01 X-28.5488 Y31.3792
G01 X-28.5709 Y31.3898
G01 X-28.5799 Y31.3936
G01 X-28.6030 Y31.4017
G01 X-28.6268 Y31.4078
G01 X-28.6364 Y31.4097
G01 X-28.6606 Y31.4132
G01 X-28.6900 Y31.4146
G01 X-32.2259 Y31.4146
G01 X-32.2361 Y31.4423
G01 X-32.2720 Y31.5176
G01 X-32.3137 Y31.5870
G01 X-32.3618 Y31.6520
G01 X-32.4159 Y31.7122
G01 X-32.4228 Y31.7191
G01 X-32.4811 Y31.7717
G01 X-32.5460 Y31.8200
G01 X-32.6153 Y31.8618
G01 X-32.6239 Y31.8664
G01 X-32.6949 Y31.8998
G01 X-32.7734 Y31.9279
G01 X-32.8543 Y31.9482
G01 X-32.9319 Y31.9598
G01 X-32.9416 Y31.9608
G01 X-33.0200 Y31.9645
G01 X-33.0984 Y31.9608
G01 X-33.1081 Y31.9598
G01 X-33.1857 Y31.9482
G01 X-33.2666 Y31.9279
G01 X-33.3451 Y31.8998
G01 X-33.4161 Y31.8664
G01 X-33.4247 Y31.8618
G01 X-33.4920 Y31.8213
G01 X-33.5589 Y31.7717
G01 X-33.6172 Y31.7191
G01 X-33.6241 Y31.7122
G01 X-33.6767 Y31.6539
G01 X-33.7263 Y31.5870
G01 X-33.7668 Y31.5197
G01 X-33.7714 Y31.5111
G01 X-33.8057 Y31.4378
G01 X-33.8329 Y31.3616
G01 X-33.8532 Y31.2807
G01 X-33.8654 Y31.1983
G01 X-33.8695 Y31.1150
G01 X-33.8654 Y31.0317
G01 X-33.8532 Y30.9493
G01 X-33.8329 Y30.8684
G01 X-33.8048 Y30.7899
G01 X-33.7692 Y30.7145
G01 X-33.7263 Y30.6430
G01 X-33.6767 Y30.5761
G01 X-33.6207 Y30.5143
G01 X-33.5589 Y30.4583
G01 X-33.4920 Y30.4087
G01 X-33.4205 Y30.3658
G01 X-33.3496 Y30.3321
G01 X-33.3428 Y30.3293
G01 X-33.2666 Y30.3021
G01 X-33.1857 Y30.2818
G01 X-33.1033 Y30.2696
G01 X-33.0200 Y30.2655
G01 X-32.9367 Y30.2696
G01 X-32.8543 Y30.2818
G01 X-32.7734 Y30.3021
G01 X-32.6995 Y30.3284
G01 X-32.6927 Y30.3311
G01 X-32.6195 Y30.3658
G01 X-32.5480 Y30.4087
G01 X-32.4811 Y30.4583
G01 X-32.4228 Y30.5109
G01 X-32.4176 Y30.5161
G01 X-32.3633 Y30.5761
G01 X-32.3165 Y30.6391
G01 X-32.3123 Y30.6451
G01 X-32.2697 Y30.7167
G01 X-32.2361 Y30.7877
G01 X-32.2259 Y30.8154
G00 Z1.0000
G00 X-29.8450 Y34.3755
G01 F500.00
G01 Z-0.0400
G01 F500.00
G01 X-29.8352 Y34.3760
G01 X-29.8256 Y34.3774
G01 X-29.8161 Y34.3798
G01 X-29.8069 Y34.3831
G01 X-29.7981 Y34.3872
G01 X-29.7897 Y34.3923
G01 X-29.7819 Y34.3981
G01 X-29.7764 Y34.4029
G01 X-29.7697 Y34.4100
G01 X-29.7637 Y34.4177
G01 X-29.7584 Y34.4260
G01 X-29.7540 Y34.4347
G01 X-29.7505 Y34.4438
G01 X-29.7479 Y34.4532
G01 X-29.7462 Y34.4628
G01 X-29.7456 Y34.4701
G01 X-29.7456 Y35.3799
G01 X-29.7462 Y35.3872
G01 X-29.7474 Y35.3944
G01 X-29.7505 Y35.4062
G01 X-29.7551 Y35.4175
G01 X-29.7584 Y35.4240
G01 X-29.7623 Y35.4303
G01 X-29.7697 Y35.4400
G01 X-29.7746 Y35.4454
G01 X-29.7800 Y35.4503
G01 X-29.7897 Y35.4577
G01 X-29.8003 Y35.4639
G01 X-29.8092 Y35.4678
G01 X-29.8208 Y35.4715
G01 X-29.8328 Y35.4738
G01 X-29.8450 Y35.4745
G01 X-31.8474 Y35.4745
G01 X-31.8548 Y35.4740
G01 X-31.8620 Y35.4730
G01 X-31.8739 Y35.4702
G01 X-31.8853 Y35.4660
G01 X-31.8919 Y35.4628
G01 X-31.8982 Y35.4591
G01 X-31.9043 Y35.4549
G01 X-31.9100 Y35.4503
G01 X-31.9187 Y35.4418
G01 X-31.9263 Y35.4323
G01 X-31.9303 Y35.4262
G01 X-31.9339 Y35.4197
G01 X-31.9387 Y35.4085
G01 X-31.9421 Y35.3968
G01 X-31.9438 Y35.3872
G01 X-31.9445 Y35.3750
G01 X-31.9444 Y34.4701
G01 X-31.9430 Y34.4580
G01 X-31.9402 Y34.4461
G01 X-31.9360 Y34.4347
G01 X-31.9328 Y34.4281
G01 X-31.9291 Y34.4218
G01 X-31.9249 Y34.4157
G01 X-31.9203 Y34.4100
G01 X-31.9118 Y34.4013
G01 X-31.9062 Y34.3966
G01 X-31.9003 Y34.3923
G01 X-31.8897 Y34.3861
G01 X-31.8808 Y34.3822
G01 X-31.8692 Y34.3785
G01 X-31.8572 Y34.3762
G01 X-31.8450 Y34.3755
G01 X-29.8450 Y34.3755
G00 Z1.0000
G00 X-29.7455 Y36.6450
G01 F500.00
G01 Z-0.0400
G01 F500.00
G01 X-29.7458 Y36.6523
G01 X-29.7470 Y36.6620
G01 X-29.7491 Y36.6715
G01 X-29.7522 Y36.6808
G01 X-29.7561 Y36.6897
G01 X-29.7609 Y36.6982
G01 X-29.7666 Y36.7062
G01 X-29.7729 Y36.7136
G01 X-29.7800 Y36.7203
G01 X-29.7877 Y36.7263
G01 X-29.7960 Y36.7316
G01 X-29.8047 Y36.7360
G01 X-29.8138 Y36.7395
G01 X-29.8232 Y36.7421
G01 X-29.8304 Y36.7434
G01 X-29.8401 Y36.7444
G01 X-31.8450 Y36.7445
G01 X-31.8572 Y36.7438
G01 X-31.8668 Y36.7421
G01 X-31.8762 Y36.7395
G01 X-31.8853 Y36.7360
G01 X-31.8962 Y36.7303
G01 X-31.9023 Y36.7263
G01 X-31.9081 Y36.7219
G01 X-31.9136 Y36.7171
G01 X-31.9187 Y36.7118
G01 X-31.9234 Y36.7062
G01 X-31.9277 Y36.7003
G01 X-31.9316 Y36.6940
G01 X-31.9349 Y36.6875
G01 X-31.9395 Y36.6762
G01 X-31.9415 Y36.6692
G01 X-31.9430 Y36.6620
G01 X-31.9444 Y36.6499
G01 X-31.9445 Y35.7450
G01 X-31.9440 Y35.7352
G01 X-31.9426 Y35.7256
G01 X-31.9402 Y35.7161
G01 X-31.9360 Y35.7047
G01 X-31.9328 Y35.6981
G01 X-31.9291 Y35.6918
G01 X-31.9249 Y35.6857
G01 X-31.9203 Y35.6800
G01 X-31.9154 Y35.6746
G01 X-31.9100 Y35.6697
G01 X-31.9003 Y35.6623
G01 X-31.8940 Y35.6584
G01 X-31.8875 Y35.6551
G01 X-31.8762 Y35.6505
G01 X-31.8692 Y35.6485
G01 X-31.8620 Y35.6470
G01 X-31.8548 Y35.6460
G01 X-31.8474 Y35.6455
G01 X-29.8450 Y35.6455
G01 X-29.8352 Y35.6460
G01 X-29.8232 Y35.6479
G01 X-29.8138 Y35.6505
G01 X-29.8047 Y35.6540
G01 X-29.7938 Y35.6597
G01 X-29.7877 Y35.6637
G01 X-29.7819 Y35.6681
G01 X-29.7764 Y35.6729
G01 X-29.7713 Y35.6782
G01 X-29.7637 Y35.6877
G01 X-29.7572 Y35.6981
G01 X-29.7540 Y35.7047
G01 X-29.7513 Y35.7115
G01 X-29.7491 Y35.7185
G01 X-29.7474 Y35.7256
G01 X-29.7462 Y35.7328
G01 X-29.7456 Y35.7401
G01 X-29.7455 Y36.6450
G00 Z1.0000
G00 X-29.7455 Y37.9150
G01 F500.00
G01 Z-0.0400
G01 F500.00
G01 X-29.7458 Y37.9223
G01 X-29.7470 Y37.9320
G01 X-29.7491 Y37.9415
G01 X-29.7522 Y37.9508
G01 X-29.7561 Y37.9597
G01 X-29.7609 Y37.9682
G01 X-29.7666 Y37.9762
G01 X-29.7729 Y37.9836
G01 X-29.7800 Y37.9903
G01 X-29.7877 Y37.9963
G01 X-29.7960 Y38.0016
G01 X-29.8047 Y38.0060
G01 X-29.8138 Y38.0095
G01 X-29.8232 Y38.0121
G01 X-29.8304 Y38.0134
G01 X-29.8401 Y38.0144
G01 X-31.8450 Y38.0145
G01 X-31.8572 Y38.0138
G01 X-31.8668 Y38.0121
G01 X-31.8762 Y38.0095
G01 X-31.8853 Y38.0060
G01 X-31.8962 Y38.0003
G01 X-31.9023 Y37.9963
G01 X-31.9081 Y37.9919
G01 X-31.9136 Y37.9871
G01 X-31.9187 Y37.9818
G01 X-31.9234 Y37.9762
G01 X-31.9277 Y37.9703
G01 X-31.9316 Y37.9640
G01 X-31.9349 Y37.9575
G01 X-31.9395 Y37.9462
G01 X-31.9415 Y37.9392
G01 X-31.9430 Y37.9320
G01 X-31.9444 Y37.9199
G01 X-31.9445 Y37.0150
G01 X-31.9440 Y37.0052
G01 X-31.9426 Y36.9956
G01 X-31.9402 Y36.9861
G01 X-31.9360 Y36.9747
G01 X-31.9328 Y36.9681
G01 X-31.9291 Y36.9618
G01 X-31.9249 Y36.9557
G01 X-31.9203 Y36.9500
G01 X-31.9154 Y36.9446
G01 X-31.9100 Y36.9397
G01 X-31.9003 Y36.9323
G01 X-31.8940 Y36.9284
G01 X-31.8875 Y36.9251
G01 X-31.8762 Y36.9205
G01 X-31.8692 Y36.9185
G01 X-31.8620 Y36.9170
G01 X-31.8548 Y36.9160
G01 X-31.8474 Y36.9155
G01 X-29.8450 Y36.9155
G01 X-29.8352 Y36.9160
G01 X-29.8232 Y36.9179
G01 X-29.8138 Y36.9205
G01 X-29.8047 Y36.9240
G01 X-29.7938 Y36.9297
G01 X-29.7877 Y36.9337
G01 X-29.7819 Y36.9381
G01 X-29.7764 Y36.9429
G01 X-29.7713 Y36.9482
G01 X-29.7637 Y36.9577
G01 X-29.7572 Y36.9681
G01 X-29.7540 Y36.9747
G01 X-29.7513 Y36.9815
G01 X-29.7491 Y36.9885
G01 X-29.7474 Y36.9956
G01 X-29.7462 Y37.0028
G01 X-29.7456 Y37.0101
G01 X-29.7455 Y37.9150
G00 Z1.0000
G00 X-29.8450 Y38.1855
G01 F500.00
G01 Z-0.0400
G01 F500.00
G01 X-29.8352 Y38.1860
G01 X-29.8256 Y38.1874
G01 X-29.8161 Y38.1898
G01 X-29.8069 Y38.1931
G01 X-29.7981 Y38.1972
G01 X-29.7897 Y38.2023
G01 X-29.7819 Y38.2081
G01 X-29.7764 Y38.2129
G01 X-29.7697 Y38.2200
G01 X-29.7637 Y38.2277
G01 X-29.7584 Y38.2360
G01 X-29.7540 Y38.2447
G01 X-29.7505 Y38.2538
G01 X-29.7479 Y38.2632
G01 X-29.7462 Y38.2728
G01 X-29.7456 Y38.2801
G01 X-29.7456 Y39.1899
G01 X-29.7462 Y39.1972
G01 X-29.7474 Y39.2044
G01 X-29.7505 Y39.2162
G01 X-29.7551 Y39.2275
G01 X-29.7584 Y39.2340
G01 X-29.7623 Y39.2403
G01 X-29.7697 Y39.2500
G01 X-29.7746 Y39.2554
G01 X-29.7800 Y39.2603
G01 X-29.7897 Y39.2677
G01 X-29.8003 Y39.2739
G01 X-29.8092 Y39.2778
G01 X-29.8208 Y39.2815
G01 X-29.8328 Y39.2838
G01 X-29.8450 Y39.2845
G01 X-31.8474 Y39.2845
G01 X-31.8548 Y39.2840
G01 X-31.8620 Y39.2830
G01 X-31.8739 Y39.2802
G01 X-31.8853 Y39.2760
G01 X-31.8919 Y39.2728
G01 X-31.8982 Y39.2691
G01 X-31.9043 Y39.2649
G01 X-31.9100 Y39.2603
G01 X-31.9187 Y39.2518
G01 X-31.9263 Y39.2423
G01 X-31.9303 Y39.2362
G01 X-31.9339 Y39.2297
G01 X-31.9387 Y39.2185
G01 X-31.9421 Y39.2068
G01 X-31.9438 Y39.1972
G01 X-31.9445 Y39.1850
G01 X-31.9444 Y38.2801
G01 X-31.9430 Y38.2680
G01 X-31.9402 Y38.2561
G01 X-31.9360 Y38.2447
G01 X-31.9328 Y38.2381
G01 X-31.9291 Y38.2318
G01 X-31.9249 Y38.2257
G01 X-31.9203 Y38.2200
G01 X-31.9118 Y38.2113
G01 X-31.9062 Y38.2066
G01 X-31.9003 Y38.2023
G01 X-31.8897 Y38.1961
G01 X-31.8808 Y38.1922
G01 X-31.8692 Y38.1885
G01 X-31.8572 Y38.1862
G01 X-31.8450 Y38.1855
G01 X-29.8450 Y38.1855
G00 Z1.0000
G00 X-29.7455 Y40.4550
G01 F500.00
G01 Z-0.0400
G01 F500.00
G01 X-29.7458 Y40.4623
G01 X-29.7470 Y40.4720
G01 X-29.7491 Y40.4815
G01 X-29.7522 Y40.4908
G01 X-29.7561 Y40.4997
G01 X-29.7609 Y40.5082
G01 X-29.7666 Y40.5162
G01 X-29.7729 Y40.5236
G01 X-29.7800 Y40.5303
G01 X-29.7877 Y40.5363
G01 X-29.7960 Y40.5416
G01 X-29.8047 Y40.5460
G01 X-29.8138 Y40.5495
G01 X-29.8232 Y40.5521
G01 X-29.8304 Y40.5534
G01 X-29.8401 Y40.5544
G01 X-31.8450 Y40.5545
G01 X-31.8572 Y40.5538
G01 X-31.8668 Y40.5521
G01 X-31.8762 Y40.5495
G01 X-31.8853 Y40.5460
G01 X-31.8962 Y40.5403
G01 X-31.9023 Y40.5363
G01 X-31.9081 Y40.5319
G01 X-31.9136 Y40.5271
G01 X-31.9187 Y40.5218
G01 X-31.9234 Y40.5162
G01 X-31.9277 Y40.5103
G01 X-31.9316 Y40.5040
G01 X-31.9349 Y40.4975
G01 X-31.9395 Y40.4862
G01 X-31.9415 Y40.4792
G01 X-31.9430 Y40.4720
G01 X-31.9444 Y40.4599
G01 X-31.9445 Y39.5550
G01 X-31.9440 Y39.5452
G01 X-31.9426 Y39.5356
G01 X-31.9402 Y39.5261
G01 X-31.9360 Y39.5147
G01 X-31.9328 Y39.5081
G01 X-31.9291 Y39.5018
G01 X-31.9249 Y39.4957
G01 X-31.9203 Y39.4900
G01 X-31.9154 Y39.4846
G01 X-31.9100 Y39.4797
G01 X-31.9003 Y39.4723
G01 X-31.8940 Y39.4684
G01 X-31.8875 Y39.4651
G01 X-31.8762 Y39.4605
G01 X-31.8692 Y39.4585
G01 X-31.8620 Y39.4570
G01 X-31.8548 Y39.4560
G01 X-31.8474 Y39.4555
G01 X-29.8450 Y39.4555
G01 X-29.8352 Y39.4560
G01 X-29.8232 Y39.4579
G01 X-29.8138 Y39.4605
G01 X-29.8047 Y39.4640
G01 X-29.7938 Y39.4697
G01 X-29.7877 Y39.4737
G01 X-29.7819 Y39.4781
G01 X-29.7764 Y39.4829
G01 X-29.7713 Y39.4882
G01 X-29.7637 Y39.4977
G01 X-29.7572 Y39.5081
G01 X-29.7540 Y39.5147
G01 X-29.7513 Y39.5215
G01 X-29.7491 Y39.5285
G01 X-29.7474 Y39.5356
G01 X-29.7462 Y39.5428
G01 X-29.7456 Y39.5501
G01 X-29.7455 Y40.4550
G00 Z1.0000
G00 X-29.8450 Y40.7255
G01 F500.00
G01 Z-0.0400
G01 F500.00
G01 X-29.8352 Y40.7260
G01 X-29.8256 Y40.7274
G01 X-29.8161 Y40.7298
G01 X-29.8069 Y40.7331
G01 X-29.7981 Y40.7372
G01 X-29.7897 Y40.7423
G01 X-29.7819 Y40.7481
G01 X-29.7764 Y40.7529
G01 X-29.7697 Y40.7600
G01 X-29.7637 Y40.7677
G01 X-29.7584 Y40.7760
G01 X-29.7540 Y40.7847
G01 X-29.7505 Y40.7938
G01 X-29.7479 Y40.8032
G01 X-29.7462 Y40.8128
G01 X-29.7456 Y40.8201
G01 X-29.7456 Y41.7299
G01 X-29.7462 Y41.7372
G01 X-29.7474 Y41.7444
G01 X-29.7505 Y41.7562
G01 X-29.7551 Y41.7675
G01 X-29.7584 Y41.7740
G01 X-29.7623 Y41.7803
G01 X-29.7697 Y41.7900
G01 X-29.7746 Y41.7954
G01 X-29.7800 Y41.8003
G01 X-29.7897 Y41.8077
G01 X-29.8003 Y41.8139
G01 X-29.8092 Y41.8178
G01 X-29.8208 Y41.8215
G01 X-29.8328 Y41.8238
G01 X-29.8450 Y41.8245
G01 X-31.8474 Y41.8245
G01 X-31.8548 Y41.8240
G01 X-31.8620 Y41.8230
G01 X-31.8739 Y41.8202
G01 X-31.8853 Y41.8160
G01 X-31.8919 Y41.8128
G01 X-31.8982 Y41.8091
G01 X-31.9043 Y41.8049
G01 X-31.9100 Y41.8003
G01 X-31.9187 Y41.7918
G01 X-31.9263 Y41.7823
G01 X-31.9303 Y41.7762
G01 X-31.9339 Y41.7697
G01 X-31.9387 Y41.7585
G01 X-31.9421 Y41.7468
G01 X-31.9438 Y41.7372
G01 X-31.9445 Y41.7250
G01 X-31.9444 Y40.8201
G01 X-31.9430 Y40.8080
G01 X-31.9402 Y40.7961
G01 X-31.9360 Y40.7847
G01 X-31.9328 Y40.7781
G01 X-31.9291 Y40.7718
G01 X-31.9249 Y40.7657
G01 X-31.9203 Y40.7600
G01 X-31.9118 Y40.7513
G01 X-31.9062 Y40.7466
G01 X-31.9003 Y40.7423
G01 X-31.8897 Y40.7361
G01 X-31.8808 Y40.7322
G01 X-31.8692 Y40.7285
G01 X-31.8572 Y40.7262
G01 X-31.8450 Y40.7255
G01 X-29.8450 Y40.7255
G00 Z1.0000
G00 X-35.2073 Y42.2454
G01 F500.00
G01 Z-0.0400
G01 F500.00
G01 X-31.9445 Y42.2454
G01 X-31.9445 Y42.0926
G01 X-31.9440 Y42.0852
G01 X-31.9430 Y42.0780
G01 X-31.9415 Y42.0708
G01 X-31.9387 Y42.0615
G01 X-31.9360 Y42.0547
G01 X-31.9328 Y42.0481
G01 X-31.9263 Y42.0377
G01 X-31.9219 Y42.0319
G01 X-31.9171 Y42.0264
G01 X-31.9081 Y42.0181
G01 X-31.9023 Y42.0137
G01 X-31.8962 Y42.0097
G01 X-31.8853 Y42.0040
G01 X-31.8785 Y42.0013
G01 X-31.8715 Y41.9991
G01 X-31.8644 Y41.9974
G01 X-31.8572 Y41.9962
G01 X-31.8450 Y41.9955
G01 X-29.8450 Y41.9955
G01 X-29.8377 Y41.9958
G01 X-29.8304 Y41.9966
G01 X-29.8232 Y41.9979
G01 X-29.8138 Y42.0005
G01 X-29.8047 Y42.0040
G01 X-29.7981 Y42.0072
G01 X-29.7897 Y42.0123
G01 X-29.7838 Y42.0166
G01 X-29.7782 Y42.0213
G01 X-29.7713 Y42.0282
G01 X-29.7651 Y42.0357
G01 X-29.7609 Y42.0418
G01 X-29.7572 Y42.0481
G01 X-29.7540 Y42.0547
G01 X-29.7513 Y42.0615
G01 X-29.7485 Y42.0708
G01 X-29.7470 Y42.0780
G01 X-29.7458 Y42.0877
G01 X-29.7455 Y42.0950
G01 X-29.7455 Y42.9950
G01 X-29.7458 Y43.0023
G01 X-29.7466 Y43.0096
G01 X-29.7479 Y43.0168
G01 X-29.7505 Y43.0262
G01 X-29.7540 Y43.0353
G01 X-29.7572 Y43.0419
G01 X-29.7609 Y43.0482
G01 X-29.7666 Y43.0562
G01 X-29.7713 Y43.0618
G01 X-29.7782 Y43.0687
G01 X-29.7857 Y43.0749
G01 X-29.7918 Y43.0791
G01 X-29.8003 Y43.0839
G01 X-29.8069 Y43.0869
G01 X-29.8138 Y43.0895
G01 X-29.8232 Y43.0921
G01 X-29.8304 Y43.0934
G01 X-29.8401 Y43.0944
G01 X-31.8474 Y43.0945
G01 X-31.8548 Y43.0940
G01 X-31.8620 Y43.0930
G01 X-31.8692 Y43.0915
G01 X-31.8762 Y43.0895
G01 X-31.8831 Y43.0869
G01 X-31.8897 Y43.0839
G01 X-31.8962 Y43.0803
G01 X-31.9023 Y43.0763
G01 X-31.9081 Y43.0719
G01 X-31.9136 Y43.0671
G01 X-31.9187 Y43.0618
G01 X-31.9234 Y43.0562
G01 X-31.9277 Y43.0503
G01 X-31.9316 Y43.0440
G01 X-31.9349 Y43.0375
G01 X-31.9378 Y43.0308
G01 X-31.9402 Y43.0239
G01 X-31.9426 Y43.0144
G01 X-31.9440 Y43.0048
G01 X-31.9445 Y42.9974
G01 X-31.9445 Y42.8446
G01 X-35.1094 Y42.8446
G01 X-35.1281 Y42.9186
G01 X-35.1562 Y42.9971
G01 X-35.1918 Y43.0725
G01 X-35.2321 Y43.1398
G01 X-35.2375 Y43.1479
G01 X-35.2813 Y43.2071
G01 X-35.2875 Y43.2146
G01 X-35.3403 Y43.2727
G01 X-35.4021 Y43.3287
G01 X-35.4690 Y43.3783
G01 X-35.5405 Y43.4212
G01 X-35.6159 Y43.4568
G01 X-35.6898 Y43.4834
G01 X-35.6991 Y43.4862
G01 X-35.7705 Y43.5041
G01 X-35.7801 Y43.5060
G01 X-35.8577 Y43.5174
G01 X-35.9410 Y43.5215
G01 X-36.0194 Y43.5178
G01 X-36.0291 Y43.5168
G01 X-36.1067 Y43.5052
G01 X-36.1829 Y43.4862
G01 X-36.1922 Y43.4834
G01 X-36.2661 Y43.4568
G01 X-36.3371 Y43.4234
G01 X-36.3457 Y43.4188
G01 X-36.4130 Y43.3783
G01 X-36.4761 Y43.3317
G01 X-36.4836 Y43.3255
G01 X-36.5417 Y43.2727
G01 X-36.5945 Y43.2146
G01 X-36.6007 Y43.2071
G01 X-36.6473 Y43.1440
G01 X-36.6890 Y43.0746
G01 X-36.6924 Y43.0681
G01 X-36.7258 Y42.9971
G01 X-36.7539 Y42.9186
G01 X-36.7742 Y42.8377
G01 X-36.7864 Y42.7553
G01 X-36.7905 Y42.6720
G01 X-36.7864 Y42.5887
G01 X-36.7742 Y42.5063
G01 X-36.7539 Y42.4254
G01 X-36.7258 Y42.3469
G01 X-36.6902 Y42.2715
G01 X-36.6473 Y42.2000
G01 X-36.5977 Y42.1331
G01 X-36.5417 Y42.0713
G01 X-36.4799 Y42.0153
G01 X-36.4130 Y41.9657
G01 X-36.3436 Y41.9240
G01 X-36.3371 Y41.9206
G01 X-36.2661 Y41.8872
G01 X-36.1876 Y41.8591
G01 X-36.1067 Y41.8388
G01 X-36.0243 Y41.8266
G01 X-35.9410 Y41.8225
G01 X-35.8577 Y41.8266
G01 X-35.7753 Y41.8388
G01 X-35.6967 Y41.8584
G01 X-35.6898 Y41.8606
G01 X-35.6159 Y41.8872
G01 X-35.5405 Y41.9228
G01 X-35.4690 Y41.9657
G01 X-35.4040 Y42.0138
G01 X-35.3984 Y42.0185
G01 X-35.3403 Y42.0713
G01 X-35.2859 Y42.1312
G01 X-35.2360 Y42.1980
G01 X-35.2073 Y42.2454
G00 Z1.0000
G00 X-37.1788 Y35.8254
G01 F500.00
G01 Z-0.0400
G01 F500.00
G01 X-37.2057 Y35.8377
G01 X-37.2796 Y35.8642
G01 X-37.3604 Y35.8847
G01 X-37.3676 Y35.8860
G01 X-37.4452 Y35.8974
G01 X-37.5261 Y35.9015
G01 X-37.5334 Y35.9014
G01 X-37.6118 Y35.8974
G01 X-37.6942 Y35.8852
G01 X-37.7751 Y35.8649
G01 X-37.8513 Y35.8377
G01 X-37.8581 Y35.8349
G01 X-37.9290 Y35.8012
G01 X-38.0005 Y35.7583
G01 X-38.0674 Y35.7087
G01 X-38.1292 Y35.6527
G01 X-38.1852 Y35.5909
G01 X-38.2348 Y35.5240
G01 X-38.2777 Y35.4525
G01 X-38.3124 Y35.3793
G01 X-38.3151 Y35.3725
G01 X-38.3414 Y35.2986
G01 X-38.3617 Y35.2177
G01 X-38.3739 Y35.1353
G01 X-38.3780 Y35.0520
G01 X-38.3739 Y34.9687
G01 X-38.3617 Y34.8863
G01 X-38.3414 Y34.8054
G01 X-38.3133 Y34.7269
G01 X-38.2777 Y34.6515
G01 X-38.2348 Y34.5800
G01 X-38.1852 Y34.5131
G01 X-38.1292 Y34.4513
G01 X-38.0674 Y34.3953
G01 X-38.0005 Y34.3457
G01 X-37.9290 Y34.3028
G01 X-37.8558 Y34.2681
G01 X-37.7797 Y34.2406
G01 X-37.7704 Y34.2378
G01 X-37.6942 Y34.2188
G01 X-37.6118 Y34.2066
G01 X-37.5285 Y34.2025
G01 X-37.4501 Y34.2062
G01 X-37.4404 Y34.2072
G01 X-37.3628 Y34.2188
G01 X-37.2866 Y34.2378
G01 X-37.2773 Y34.2406
G01 X-37.2034 Y34.2672
G01 X-37.1280 Y34.3028
G01 X-37.0565 Y34.3457
G01 X-36.9934 Y34.3923
G01 X-36.9859 Y34.3985
G01 X-36.9278 Y34.4513
G01 X-36.8718 Y34.5131
G01 X-36.8250 Y34.5761
G01 X-36.8196 Y34.5842
G01 X-36.7793 Y34.6515
G01 X-36.7437 Y34.7269
G01 X-36.7171 Y34.8008
G01 X-36.7143 Y34.8101
G01 X-36.6949 Y34.8887
G01 X-36.6831 Y34.9687
G01 X-36.6791 Y35.0471
G01 X-36.6791 Y35.0569
G01 X-36.6834 Y35.1377
G01 X-36.6953 Y35.2177
G01 X-36.7149 Y35.2963
G01 X-36.7428 Y35.3748
G01 X-36.7551 Y35.4017
G01 X-36.2544 Y35.9024
G01 X-34.4809 Y35.9024
G01 X-34.4613 Y35.8987
G01 X-34.4464 Y35.8968
G01 X-34.4296 Y35.8957
G01 X-34.4170 Y35.8954
G01 X-34.4094 Y35.8957
G01 X-31.9569 Y33.4432
G01 X-31.9445 Y33.4318
G01 X-31.9445 Y33.2050
G01 X-31.9442 Y33.1977
G01 X-31.9434 Y33.1904
G01 X-31.9415 Y33.1808
G01 X-31.9378 Y33.1692
G01 X-31.9339 Y33.1603
G01 X-31.9277 Y33.1497
G01 X-31.9219 Y33.1419
G01 X-31.9136 Y33.1329
G01 X-31.9043 Y33.1251
G01 X-31.8962 Y33.1197
G01 X-31.8853 Y33.1140
G01 X-31.8785 Y33.1113
G01 X-31.8715 Y33.1091
G01 X-31.8596 Y33.1066
G01 X-31.8523 Y33.1058
G01 X-31.8450 Y33.1055
G01 X-29.8426 Y33.1055
G01 X-29.8352 Y33.1060
G01 X-29.8280 Y33.1070
G01 X-29.8208 Y33.1085
G01 X-29.8138 Y33.1105
G01 X-29.8069 Y33.1131
G01 X-29.8003 Y33.1161
G01 X-29.7938 Y33.1197
G01 X-29.7857 Y33.1251
G01 X-29.7800 Y33.1297
G01 X-29.7746 Y33.1346
G01 X-29.7697 Y33.1400
G01 X-29.7651 Y33.1457
G01 X-29.7609 Y33.1518
G01 X-29.7572 Y33.1581
G01 X-29.7540 Y33.1647
G01 X-29.7513 Y33.1715
G01 X-29.7485 Y33.1808
G01 X-29.7470 Y33.1880
G01 X-29.7458 Y33.1977
G01 X-29.7455 Y33.2050
G01 X-29.7455 Y34.1074
G01 X-29.7466 Y34.1196
G01 X-29.7485 Y34.1292
G01 X-29.7513 Y34.1385
G01 X-29.7561 Y34.1497
G01 X-29.7623 Y34.1603
G01 X-29.7697 Y34.1700
G01 X-29.7764 Y34.1771
G01 X-29.7857 Y34.1849
G01 X-29.7938 Y34.1903
G01 X-29.8003 Y34.1939
G01 X-29.8069 Y34.1969
G01 X-29.8138 Y34.1995
G01 X-29.8208 Y34.2015
G01 X-29.8280 Y34.2030
G01 X-29.8377 Y34.2042
G01 X-29.8450 Y34.2045
G01 X-31.8450 Y34.2045
G01 X-31.8572 Y34.2038
G01 X-31.8681 Y34.2018
G01 X-34.0802 Y36.4139
G01 X-34.0923 Y36.4254
G01 X-34.1038 Y36.4351
G01 X-34.1172 Y36.4453
G01 X-34.1256 Y36.4511
G01 X-34.1377 Y36.4588
G01 X-34.1508 Y36.4662
G01 X-34.1658 Y36.4737
G01 X-34.1774 Y36.4788
G01 X-34.1930 Y36.4848
G01 X-34.2050 Y36.4887
G01 X-34.2188 Y36.4925
G01 X-34.2360 Y36.4963
G01 X-34.2501 Y36.4987
G01 X-34.2626 Y36.5002
G01 X-34.2794 Y36.5013
G01 X-34.2920 Y36.5016
G01 X-34.3088 Y36.5011
G01 X-34.3753 Y36.4974
G01 X-34.3971 Y36.5004
G01 X-34.4240 Y36.5016
G01 X-36.3785 Y36.5016
G01 X-36.4079 Y36.5002
G01 X-36.4393 Y36.4953
G01 X-36.4655 Y36.4887
G01 X-36.4886 Y36.4806
G01 X-36.4954 Y36.4778
G01 X-36.5176 Y36.4673
G01 X-36.5449 Y36.4511
G01 X-36.5647 Y36.4366
G01 X-36.5723 Y36.4304
G01 X-36.5903 Y36.4139
G01 X-37.1788 Y35.8254
G00 Z1.0000
G00 X-36.7166 Y35.3147
G01 F500.00
G01 Z-0.0400
G01 F500.00
G01 X-36.7198 Y35.3240
G01 X-36.7229 Y35.3358
G01 X-36.7255 Y35.3527
G01 X-36.7262 Y35.3698
G01 X-36.7255 Y35.3820
G01 X-36.7242 Y35.3917
G01 X-36.7229 Y35.3989
G01 X-36.7198 Y35.4108
G01 X-36.7139 Y35.4268
G01 X-36.7086 Y35.4379
G01 X-36.7037 Y35.4463
G01 X-36.6997 Y35.4525
G01 X-36.6938 Y35.4603
G01 X-36.6825 Y35.4731
G01 X-36.2978 Y35.8577
G01 X-36.2888 Y35.8660
G01 X-36.2792 Y35.8735
G01 X-36.2731 Y35.8777
G01 X-36.2626 Y35.8839
G01 X-36.2493 Y35.8901
G01 X-36.2332 Y35.8958
G01 X-36.2237 Y35.8981
G01 X-36.2165 Y35.8995
G01 X-36.2068 Y35.9008
G01 X-36.1970 Y35.9014
G01 X-35.8932 Y35.9015
G01 X-35.8761 Y35.9005
G01 X-35.8664 Y35.8991
G01 X-35.8593 Y35.8976
G01 X-35.8498 Y35.8951
G01 X-35.8405 Y35.8919
G01 X-35.8337 Y35.8892
G01 X-35.8249 Y35.8850
G01 X-35.8101 Y35.8763
G01 X-35.7965 Y35.8660
G01 X-35.7892 Y35.8594
G01 X-35.7841 Y35.8542
G01 X-35.7776 Y35.8469
G01 X-35.7717 Y35.8391
G01 X-35.7676 Y35.8330
G01 X-35.7625 Y35.8246
G01 X-35.7551 Y35.8092
G01 X-35.7494 Y35.7931
G01 X-35.7471 Y35.7836
G01 X-35.7457 Y35.7764
G01 X-35.7444 Y35.7667
G01 X-35.7438 Y35.7569
G01 X-35.7437 Y35.7496
G01 X-35.7442 Y35.7398
G01 X-35.7466 Y35.7228
G01 X-35.7501 Y35.7086
G01 X-35.7560 Y35.6925
G01 X-35.7613 Y35.6815
G01 X-35.7676 Y35.6710
G01 X-35.7717 Y35.6649
G01 X-35.7792 Y35.6553
G01 X-35.7875 Y35.6463
G01 X-35.8396 Y35.5941
G01 X-35.9327 Y35.4549
G01 X-35.9968 Y35.3001
G01 X-36.0295 Y35.1358
G01 X-36.0295 Y34.9682
G01 X-35.9968 Y34.8039
G01 X-35.9327 Y34.6491
G01 X-35.8396 Y34.5099
G01 X-35.7211 Y34.3914
G01 X-35.5819 Y34.2983
G01 X-35.5695 Y34.2932
G01 X-35.5607 Y34.2890
G01 X-35.5480 Y34.2817
G01 X-35.5360 Y34.2731
G01 X-35.5268 Y34.2651
G01 X-35.5199 Y34.2582
G01 X-35.5119 Y34.2490
G01 X-35.5047 Y34.2391
G01 X-35.4971 Y34.2265
G01 X-35.4909 Y34.2132
G01 X-35.4867 Y34.2017
G01 X-35.4834 Y34.1899
G01 X-35.4815 Y34.1804
G01 X-35.4800 Y34.1682
G01 X-35.4795 Y34.1560
G01 X-35.4795 Y31.3911
G01 X-35.4800 Y31.3789
G01 X-35.4809 Y31.3690
G01 X-35.4751 Y31.3101
G01 X-35.4579 Y31.2535
G01 X-35.4300 Y31.2013
G01 X-35.3925 Y31.1555
G01 X-35.3848 Y31.1492
G01 X-35.3758 Y31.1409
G01 X-33.0513 Y28.8163
G01 X-33.0399 Y28.8036
G01 X-33.0341 Y28.7957
G01 X-33.0301 Y28.7896
G01 X-33.0251 Y28.7811
G01 X-33.0198 Y28.7701
G01 X-33.0139 Y28.7540
G01 X-33.0109 Y28.7422
G01 X-33.0088 Y28.7301
G01 X-33.0080 Y28.7228
G01 X-33.0075 Y28.7106
G01 X-33.0075 Y22.8348
G01 X-33.0080 Y22.8226
G01 X-33.0089 Y22.8128
G01 X-33.0031 Y22.7539
G01 X-32.9860 Y22.6972
G01 X-32.9581 Y22.6450
G01 X-32.9205 Y22.5993
G01 X-32.9129 Y22.5929
G01 X-32.9039 Y22.5847
G01 X-31.9703 Y21.6511
G01 X-31.9604 Y21.6402
G01 X-31.9503 Y21.6264
G01 X-31.9430 Y21.6137
G01 X-31.9388 Y21.6048
G01 X-31.9361 Y21.5980
G01 X-31.9322 Y21.5864
G01 X-31.9289 Y21.5721
G01 X-31.9272 Y21.5600
G01 X-31.9265 Y21.5453
G01 X-31.9265 Y19.7971
G01 X-31.9270 Y19.7849
G01 X-31.9279 Y19.7750
G01 X-31.9221 Y19.7161
G01 X-31.9049 Y19.6595
G01 X-31.8770 Y19.6073
G01 X-31.8395 Y19.5615
G01 X-31.8318 Y19.5552
G01 X-31.8228 Y19.5469
G01 X-31.1261 Y18.8502
G01 X-31.1178 Y18.8412
G01 X-31.1115 Y18.8335
G01 X-31.0657 Y18.7960
G01 X-31.0135 Y18.7681
G01 X-30.9569 Y18.7509
G01 X-30.8980 Y18.7451
G01 X-30.8881 Y18.7460
G01 X-30.8759 Y18.7465
G01 X-26.0279 Y18.7465
G01 X-26.0181 Y18.7462
G01 X-26.0084 Y18.7452
G01 X-25.9963 Y18.7431
G01 X-25.9845 Y18.7401
G01 X-25.9707 Y18.7351
G01 X-25.9596 Y18.7300
G01 X-25.9489 Y18.7239
G01 X-25.9408 Y18.7185
G01 X-25.9312 Y18.7110
G01 X-25.9222 Y18.7027
G01 X-25.7076 Y18.4881
G01 X-25.6994 Y18.4790
G01 X-25.6921 Y18.4692
G01 X-25.6855 Y18.4588
G01 X-25.6809 Y18.4502
G01 X-25.6769 Y18.4413
G01 X-25.6735 Y18.4322
G01 X-25.6712 Y18.4252
G01 X-25.6689 Y18.4157
G01 X-25.6662 Y18.3988
G01 X-25.6655 Y18.3841
G01 X-25.6655 Y11.0996
G01 X-25.6660 Y11.0874
G01 X-25.6669 Y11.0775
G01 X-25.6611 Y11.0186
G01 X-25.6440 Y10.9620
G01 X-25.6161 Y10.9098
G01 X-25.5785 Y10.8640
G01 X-25.5709 Y10.8577
G01 X-25.5619 Y10.8494
G01 X-24.3543 Y9.6418
G01 X-24.3460 Y9.6328
G01 X-24.3385 Y9.6232
G01 X-24.3331 Y9.6151
G01 X-24.3270 Y9.6044
G01 X-24.3219 Y9.5933
G01 X-24.3177 Y9.5818
G01 X-24.3144 Y9.5700
G01 X-24.3129 Y9.5629
G01 X-24.3112 Y9.5508
G01 X-24.3106 Y9.5410
G01 X-24.3105 Y8.9741
G01 X-24.3110 Y8.9619
G01 X-24.3119 Y8.9520
G01 X-24.3061 Y8.8931
G01 X-24.2889 Y8.8365
G01 X-24.2610 Y8.7843
G01 X-24.2235 Y8.7385
G01 X-24.2158 Y8.7322
G01 X-24.2068 Y8.7239
G01 X-23.6881 Y8.2052
G01 X-23.6798 Y8.1962
G01 X-23.6735 Y8.1885
G01 X-23.6277 Y8.1510
G01 X-23.5755 Y8.1231
G01 X-23.5189 Y8.1059
G01 X-23.4600 Y8.1001
G01 X-23.4501 Y8.1010
G01 X-23.4379 Y8.1015
G01 X-22.2825 Y8.1015
G01 X-22.2701 Y8.1010
G01 X-22.2606 Y8.1001
G01 X-22.2011 Y8.1059
G01 X-22.1445 Y8.1231
G01 X-22.0923 Y8.1510
G01 X-22.0465 Y8.1885
G01 X-22.0404 Y8.1959
G01 X-22.0320 Y8.2050
G01 X-7.5484 Y22.6337
G01 X-2.2371 Y27.9449
G01 X-2.2281 Y27.9532
G01 X-2.2205 Y27.9595
G01 X-2.1829 Y28.0053
G01 X-2.1550 Y28.0575
G01 X-2.1379 Y28.1141
G01 X-2.1321 Y28.1730
G01 X-2.1330 Y28.1829
G01 X-2.1335 Y28.1951
G01 X-2.1335 Y58.2514
G01 X-2.1330 Y58.2636
G01 X-2.1321 Y58.2735
G01 X-2.1379 Y58.3324
G01 X-2.1550 Y58.3891
G01 X-2.1829 Y58.4413
G01 X-2.2205 Y58.4870
G01 X-2.2281 Y58.4933
G01 X-2.2371 Y58.5016
G01 X-8.9564 Y65.2208
G01 X-8.9646 Y65.2298
G01 X-8.9710 Y65.2375
G01 X-9.0167 Y65.2750
G01 X-9.0356 Y65.2852
G01 X-9.0460 Y65.2915
G01 X-9.0578 Y65.3003
G01 X-9.0669 Y65.3084
G01 X-9.5617 Y65.8032
G01 X-9.5716 Y65.8140
G01 X-9.5789 Y65.8238
G01 X-9.5855 Y65.8342
G01 X-9.5890 Y65.8406
G01 X-9.5941 Y65.8517
G01 X-9.5983 Y65.8632
G01 X-9.6004 Y65.8702
G01 X-9.6031 Y65.8821
G01 X-9.6048 Y65.8942
G01 X-9.6055 Y65.9065
G01 X-9.6055 Y67.6689
G01 X-9.6050 Y67.6811
G01 X-9.6041 Y67.6910
G01 X-9.6099 Y67.7499
G01 X-9.6271 Y67.8065
G01 X-9.6550 Y67.8587
G01 X-9.6925 Y67.9045
G01 X-9.7002 Y67.9108
G01 X-9.7092 Y67.9191
G01 X-10.3840 Y68.5939
G01 X-10.3939 Y68.6048
G01 X-10.4026 Y68.6166
G01 X-10.4101 Y68.6292
G01 X-10.4155 Y68.6402
G01 X-10.4206 Y68.6539
G01 X-10.4244 Y68.6681
G01 X-10.4268 Y68.6826
G01 X-10.4277 Y68.6948
G01 X-10.4277 Y68.7045
G01 X-10.4265 Y68.7192
G01 X-10.4244 Y68.7312
G01 X-10.4206 Y68.7454
G01 X-10.4164 Y68.7569
G01 X-10.4101 Y68.7702
G01 X-10.4012 Y68.7847
G01 X-10.3892 Y68.8002
G01 X-10.2991 Y68.9688
G01 X-10.2436 Y69.1518
G01 X-10.2248 Y69.3420
G01 X-10.2436 Y69.5322
G01 X-10.2991 Y69.7152
G01 X-10.3892 Y69.8838
G01 X-10.5105 Y70.0315
G01 X-10.6582 Y70.1528
G01 X-10.8268 Y70.2429
G01 X-11.0098 Y70.2984
G01 X-11.1523 Y70.3125
G01 X-11.7077 Y70.3125
G01 X-11.8502 Y70.2984
G01 X-12.0332 Y70.2429
G01 X-12.2018 Y70.1528
G01 X-12.3495 Y70.0315
G01 X-12.4708 Y69.8838
G01 X-12.5609 Y69.7152
G01 X-12.6164 Y69.5322
G01 X-12.6352 Y69.3420
G01 X-12.6164 Y69.1518
G01 X-12.5609 Y68.9688
G01 X-12.4708 Y68.8002
G01 X-12.3495 Y68.6525
G01 X-12.2018 Y68.5312
G01 X-12.0332 Y68.4411
G01 X-11.8502 Y68.3856
G01 X-11.7077 Y68.3715
G01 X-11.1523 Y68.3715
G01 X-11.0920 Y68.3774
G01 X-11.0774 Y68.3779
G01 X-11.0627 Y68.3770
G01 X-11.0530 Y68.3755
G01 X-11.0459 Y68.3740
G01 X-11.0364 Y68.3715
G01 X-11.0272 Y68.3683
G01 X-11.0137 Y68.3625
G01 X-11.0051 Y68.3579
G01 X-10.9947 Y68.3514
G01 X-10.9850 Y68.3440
G01 X-10.9741 Y68.3341
G01 X-10.4999 Y67.8600
G01 X-10.4933 Y67.8528
G01 X-10.4886 Y67.8472
G01 X-10.4827 Y67.8394
G01 X-10.4750 Y67.8269
G01 X-10.4685 Y67.8137
G01 X-10.4633 Y67.8000
G01 X-10.4595 Y67.7858
G01 X-10.4571 Y67.7714
G01 X-10.4562 Y67.7567
G01 X-10.4567 Y67.7421
G01 X-10.4586 Y67.7275
G01 X-10.4619 Y67.7132
G01 X-10.4666 Y67.6993
G01 X-10.4716 Y67.6882
G01 X-10.4762 Y67.6795
G01 X-10.4842 Y67.6672
G01 X-10.4917 Y67.6576
G01 X-10.4982 Y67.6503
G01 X-10.5035 Y67.6452
G01 X-10.5127 Y67.6372
G01 X-10.5247 Y67.6286
G01 X-10.5374 Y67.6213
G01 X-10.5507 Y67.6152
G01 X-10.5623 Y67.6112
G01 X-10.5765 Y67.6076
G01 X-10.5910 Y67.6055
G01 X-10.6057 Y67.6048
G01 X-10.6203 Y67.6055
G01 X-10.6348 Y67.6076
G01 X-10.6491 Y67.6112
G01 X-10.6651 Y67.6171
G01 X-10.6762 Y67.6224
G01 X-10.8268 Y67.7029
G01 X-11.0098 Y67.7584
G01 X-11.1523 Y67.7725
G01 X-11.7077 Y67.7725
G01 X-11.8502 Y67.7584
G01 X-12.0332 Y67.7029
G01 X-12.2018 Y67.6128
G01 X-12.3495 Y67.4915
G01 X-12.4708 Y67.3438
G01 X-12.5609 Y67.1752
G01 X-12.6164 Y66.9922
G01 X-12.6352 Y66.8020
G01 X-12.6164 Y66.6118
G01 X-12.5609 Y66.4288
G01 X-12.5415 Y66.3925
G01 X-12.5362 Y66.3815
G01 X-12.5303 Y66.3654
G01 X-12.5267 Y66.3512
G01 X-12.5249 Y66.3391
G01 X-12.5240 Y66.3269
G01 X-12.5239 Y66.3196
G01 X-12.5246 Y66.3073
G01 X-12.5263 Y66.2952
G01 X-12.5278 Y66.2881
G01 X-12.5303 Y66.2786
G01 X-12.5343 Y66.2671
G01 X-12.5404 Y66.2537
G01 X-12.5477 Y66.2410
G01 X-12.5563 Y66.2291
G01 X-12.5660 Y66.2180
G01 X-13.1269 Y65.6571
G01 X-13.1359 Y65.6488
G01 X-13.1435 Y65.6425
G01 X-13.1811 Y65.5967
G01 X-13.2090 Y65.5445
G01 X-13.2261 Y65.4879
G01 X-13.2319 Y65.4290
G01 X-13.2310 Y65.4191
G01 X-13.2305 Y65.4069
G01 X-13.2305 Y61.2180
G01 X-13.2310 Y61.2058
G01 X-13.2319 Y61.1959
G01 X-13.2261 Y61.1370
G01 X-13.2090 Y61.0804
G01 X-13.1811 Y61.0282
G01 X-13.1435 Y60.9824
G01 X-13.1359 Y60.9761
G01 X-13.1269 Y60.9679
G01 X-12.2872 Y60.1282
G01 X-12.2789 Y60.1192
G01 X-12.2726 Y60.1115
G01 X-12.2268 Y60.0740
G01 X-12.1746 Y60.0461
G01 X-12.1180 Y60.0289
G01 X-12.0591 Y60.0231
G01 X-12.0492 Y60.0240
G01 X-12.0370 Y60.0245
G01 X-10.8520 Y60.0245
G01 X-10.8397 Y60.0238
G01 X-10.8276 Y60.0221
G01 X-10.8205 Y60.0206
G01 X-10.8087 Y60.0173
G01 X-10.7972 Y60.0131
G01 X-10.7861 Y60.0080
G01 X-10.7797 Y60.0045
G01 X-10.7693 Y59.9979
G01 X-10.7595 Y59.9906
G01 X-10.7487 Y59.9807
G01 X-10.2187 Y59.4507
G01 X-10.2121 Y59.4434
G01 X-10.2075 Y59.4377
G01 X-10.2018 Y59.4298
G01 X-10.1954 Y59.4193
G01 X-10.1889 Y59.4062
G01 X-10.1856 Y59.3977
G01 X-10.1570 Y59.3443
G01 X-10.1195 Y59.2985
G01 X-10.1046 Y59.2856
G01 X-10.0447 Y59.2257
G01 X-8.6541 Y57.8352
G01 X-8.6458 Y57.8262
G01 X-8.6395 Y57.8185
G01 X-8.5937 Y57.7810
G01 X-8.5415 Y57.7531
G01 X-8.4849 Y57.7359
G01 X-8.4260 Y57.7301
G01 X-8.4161 Y57.7310
G01 X-8.4039 Y57.7315
G01 X-5.0054 Y57.7315
G01 X-4.9907 Y57.7308
G01 X-4.9762 Y57.7287
G01 X-4.9643 Y57.7258
G01 X-4.9527 Y57.7219
G01 X-4.9459 Y57.7192
G01 X-4.9349 Y57.7139
G01 X-4.9244 Y57.7077
G01 X-4.9183 Y57.7035
G01 X-4.9105 Y57.6976
G01 X-4.9014 Y57.6894
G01 X-4.1543 Y56.9423
G01 X-4.1429 Y56.9296
G01 X-4.1357 Y56.9197
G01 X-4.1305 Y56.9113
G01 X-4.1270 Y56.9049
G01 X-4.1219 Y56.8938
G01 X-4.1162 Y56.8777
G01 X-4.1133 Y56.8658
G01 X-4.1118 Y56.8561
G01 X-4.1110 Y56.8488
G01 X-4.1105 Y56.8366
G01 X-4.1105 Y45.9064
G01 X-4.1110 Y45.8942
G01 X-4.1125 Y45.8820
G01 X-4.1144 Y45.8725
G01 X-4.1177 Y45.8607
G01 X-4.1219 Y45.8492
G01 X-4.1281 Y45.8359
G01 X-4.1343 Y45.8254
G01 X-4.1414 Y45.8154
G01 X-4.1460 Y45.8097
G01 X-4.1543 Y45.8007
G01 X-4.2897 Y45.6652
G01 X-18.6121 Y31.2279
G01 X-18.6215 Y31.2193
G01 X-18.6285 Y31.2135
G01 X-18.6664 Y31.1673
G01 X-18.6942 Y31.1150
G01 X-18.7113 Y31.0583
G01 X-18.7169 Y30.9988
G01 X-18.7160 Y30.9897
G01 X-18.7155 Y30.9770
G01 X-18.7155 Y30.8512
G01 X-18.7162 Y30.8366
G01 X-18.7189 Y30.8196
G01 X-18.7212 Y30.8101
G01 X-18.7234 Y30.8032
G01 X-18.7269 Y30.7940
G01 X-18.7309 Y30.7851
G01 X-18.7343 Y30.7786
G01 X-18.7393 Y30.7702
G01 X-18.7494 Y30.7564
G01 X-18.7576 Y30.7472
G01 X-18.7628 Y30.7421
G01 X-18.7701 Y30.7356
G01 X-18.7799 Y30.7283
G01 X-18.7945 Y30.7193
G01 X-18.8100 Y30.7122
G01 X-18.8216 Y30.7081
G01 X-18.8311 Y30.7056
G01 X-18.8382 Y30.7041
G01 X-18.8479 Y30.7027
G01 X-18.8847 Y30.6990
G01 X-18.9036 Y30.6933
G01 X-18.9211 Y30.6839
G01 X-18.9367 Y30.6712
G01 X-18.9443 Y30.6629
G01 X-18.9533 Y30.6546
G01 X-18.9669 Y30.6443
G01 X-18.9774 Y30.6380
G01 X-18.9839 Y30.6346
G01 X-18.9928 Y30.6305
G01 X-19.0043 Y30.6263
G01 X-19.0161 Y30.6231
G01 X-19.0256 Y30.6212
G01 X-19.0378 Y30.6196
G01 X-19.0500 Y30.6191
G01 X-19.0622 Y30.6196
G01 X-19.0744 Y30.6212
G01 X-19.0816 Y30.6225
G01 X-19.0934 Y30.6256
G01 X-19.1050 Y30.6296
G01 X-19.1161 Y30.6346
G01 X-19.1226 Y30.6380
G01 X-19.1331 Y30.6443
G01 X-19.1467 Y30.6546
G01 X-19.1557 Y30.6629
G01 X-19.1633 Y30.6712
G01 X-19.1789 Y30.6839
G01 X-19.1964 Y30.6933
G01 X-19.2153 Y30.6990
G01 X-19.2423 Y30.7017
G01 X-20.1277 Y30.7017
G01 X-20.1547 Y30.6990
G01 X-20.1736 Y30.6933
G01 X-20.1911 Y30.6839
G01 X-20.2067 Y30.6712
G01 X-20.2143 Y30.6629
G01 X-20.2233 Y30.6546
G01 X-20.2349 Y30.6457
G01 X-20.2474 Y30.6380
G01 X-20.2605 Y30.6315
G01 X-20.2766 Y30.6256
G01 X-20.2908 Y30.6220
G01 X-20.3053 Y30.6198
G01 X-20.3200 Y30.6191
G01 X-20.3347 Y30.6198
G01 X-20.3492 Y30.6220
G01 X-20.3634 Y30.6256
G01 X-20.3795 Y30.6315
G01 X-20.3926 Y30.6380
G01 X-20.4051 Y30.6457
G01 X-20.4167 Y30.6546
G01 X-20.4257 Y30.6629
G01 X-20.4333 Y30.6712
G01 X-20.4489 Y30.6839
G01 X-20.4664 Y30.6933
G01 X-20.4853 Y30.6990
G01 X-20.5123 Y30.7017
G01 X-21.3977 Y30.7017
G01 X-21.4247 Y30.6990
G01 X-21.4436 Y30.6933
G01 X-21.4611 Y30.6839
G01 X-21.4767 Y30.6712
G01 X-21.4843 Y30.6629
G01 X-21.4933 Y30.6546
G01 X-21.5049 Y30.6457
G01 X-21.5174 Y30.6380
G01 X-21.5305 Y30.6315
G01 X-21.5466 Y30.6256
G01 X-21.5608 Y30.6220
G01 X-21.5753 Y30.6198
G01 X-21.5900 Y30.6191
G01 X-21.6047 Y30.6198
G01 X-21.6192 Y30.6220
G01 X-21.6334 Y30.6256
G01 X-21.6495 Y30.6315
G01 X-21.6626 Y30.6380
G01 X-21.6751 Y30.6457
G01 X-21.6867 Y30.6546
G01 X-21.6957 Y30.6629
G01 X-21.7033 Y30.6712
G01 X-21.7189 Y30.6839
G01 X-21.7364 Y30.6933
G01 X-21.7553 Y30.6990
G01 X-21.7823 Y30.7017
G01 X-22.6677 Y30.7017
G01 X-22.6947 Y30.6990
G01 X-22.7136 Y30.6933
G01 X-22.7311 Y30.6839
G01 X-22.7467 Y30.6712
G01 X-22.7543 Y30.6629
G01 X-22.7633 Y30.6546
G01 X-22.7749 Y30.6457
G01 X-22.7874 Y30.6380
G01 X-22.8005 Y30.6315
G01 X-22.8166 Y30.6256
G01 X-22.8308 Y30.6220
G01 X-22.8453 Y30.6198
G01 X-22.8600 Y30.6191
G01 X-22.8747 Y30.6198
G01 X-22.8892 Y30.6220
G01 X-22.9034 Y30.6256
G01 X-22.9195 Y30.6315
G01 X-22.9326 Y30.6380
G01 X-22.9451 Y30.6457
G01 X-22.9567 Y30.6546
G01 X-22.9657 Y30.6629
G01 X-22.9733 Y30.6712
G01 X-22.9889 Y30.6839
G01 X-23.0064 Y30.6933
G01 X-23.0253 Y30.6990
G01 X-23.0523 Y30.7017
G01 X-23.9377 Y30.7017
G01 X-23.9647 Y30.6990
G01 X-23.9836 Y30.6933
G01 X-24.0011 Y30.6839
G01 X-24.0167 Y30.6712
G01 X-24.0243 Y30.6629
G01 X-24.0333 Y30.6546
G01 X-24.0449 Y30.6457
G01 X-24.0574 Y30.6380
G01 X-24.0705 Y30.6315
G01 X-24.0866 Y30.6256
G01 X-24.1008 Y30.6220
G01 X-24.1153 Y30.6198
G01 X-24.1300 Y30.6191
G01 X-24.1447 Y30.6198
G01 X-24.1592 Y30.6220
G01 X-24.1734 Y30.6256
G01 X-24.1895 Y30.6315
G01 X-24.2026 Y30.6380
G01 X-24.2151 Y30.6457
G01 X-24.2267 Y30.6546
G01 X-24.2357 Y30.6629
G01 X-24.2433 Y30.6712
G01 X-24.2589 Y30.6839
G01 X-24.2764 Y30.6933
G01 X-24.2953 Y30.6990
G01 X-24.3223 Y30.7017
G01 X-25.2077 Y30.7017
G01 X-25.2347 Y30.6990
G01 X-25.2536 Y30.6933
G01 X-25.2711 Y30.6839
G01 X-25.2867 Y30.6712
G01 X-25.2943 Y30.6629
G01 X-25.3033 Y30.6546
G01 X-25.3149 Y30.6457
G01 X-25.3274 Y30.6380
G01 X-25.3405 Y30.6315
G01 X-25.3566 Y30.6256
G01 X-25.3708 Y30.6220
G01 X-25.3853 Y30.6198
G01 X-25.4000 Y30.6191
G01 X-25.4147 Y30.6198
G01 X-25.4292 Y30.6220
G01 X-25.4434 Y30.6256
G01 X-25.4595 Y30.6315
G01 X-25.4726 Y30.6380
G01 X-25.4851 Y30.6457
G01 X-25.4967 Y30.6546
G01 X-25.5057 Y30.6629
G01 X-25.5133 Y30.6712
G01 X-25.5289 Y30.6839
G01 X-25.5464 Y30.6933
G01 X-25.5653 Y30.6990
G01 X-25.5923 Y30.7017
G01 X-26.4777 Y30.7017
G01 X-26.5047 Y30.6990
G01 X-26.5236 Y30.6933
G01 X-26.5411 Y30.6839
G01 X-26.5567 Y30.6712
G01 X-26.5643 Y30.6629
G01 X-26.5733 Y30.6546
G01 X-26.5849 Y30.6457
G01 X-26.5974 Y30.6380
G01 X-26.6105 Y30.6315
G01 X-26.6266 Y30.6256
G01 X-26.6408 Y30.6220
G01 X-26.6553 Y30.6198
G01 X-26.6700 Y30.6191
G01 X-26.6847 Y30.6198
G01 X-26.6992 Y30.6220
G01 X-26.7134 Y30.6256
G01 X-26.7295 Y30.6315
G01 X-26.7426 Y30.6380
G01 X-26.7551 Y30.6457
G01 X-26.7667 Y30.6546
G01 X-26.7757 Y30.6629
G01 X-26.7833 Y30.6712
G01 X-26.7989 Y30.6839
G01 X-26.8164 Y30.6933
G01 X-26.8353 Y30.6990
G01 X-26.8623 Y30.7017
G01 X-27.7477 Y30.7017
G01 X-27.7747 Y30.6990
G01 X-27.7936 Y30.6933
G01 X-27.8111 Y30.6839
G01 X-27.8267 Y30.6712
G01 X-27.8343 Y30.6629
G01 X-27.8433 Y30.6546
G01 X-27.8549 Y30.6457
G01 X-27.8695 Y30.6368
G01 X-27.8850 Y30.6296
G01 X-27.8943 Y30.6263
G01 X-27.9013 Y30.6243
G01 X-27.9108 Y30.6220
G01 X-27.9205 Y30.6204
G01 X-27.9278 Y30.6196
G01 X-27.9376 Y30.6192
G01 X-27.9547 Y30.6198
G01 X-27.9692 Y30.6220
G01 X-27.9834 Y30.6256
G01 X-27.9972 Y30.6305
G01 X-28.0126 Y30.6380
G01 X-28.0231 Y30.6443
G01 X-28.0349 Y30.6531
G01 X-28.0457 Y30.6629
G01 X-28.0533 Y30.6712
G01 X-28.0689 Y30.6839
G01 X-28.0864 Y30.6933
G01 X-28.1053 Y30.6990
G01 X-28.1421 Y30.7027
G01 X-28.1566 Y30.7051
G01 X-28.1661 Y30.7074
G01 X-28.1730 Y30.7097
G01 X-28.1822 Y30.7131
G01 X-28.1911 Y30.7171
G01 X-28.1976 Y30.7205
G01 X-28.2060 Y30.7256
G01 X-28.2180 Y30.7341
G01 X-28.2290 Y30.7438
G01 X-28.2390 Y30.7545
G01 X-28.2465 Y30.7641
G01 X-28.2507 Y30.7702
G01 X-28.2569 Y30.7807
G01 X-28.2622 Y30.7917
G01 X-28.2649 Y30.7985
G01 X-28.2688 Y30.8101
G01 X-28.2717 Y30.8220
G01 X-28.2735 Y30.8341
G01 X-28.2745 Y30.8512
G01 X-28.2745 Y30.9779
G01 X-28.2740 Y30.9901
G01 X-28.2731 Y31.0000
G01 X-28.2789 Y31.0589
G01 X-28.2961 Y31.1155
G01 X-28.3240 Y31.1677
G01 X-28.3615 Y31.2135
G01 X-28.3692 Y31.2198
G01 X-28.3782 Y31.2281
G01 X-28.4619 Y31.3118
G01 X-28.4702 Y31.3208
G01 X-28.4765 Y31.3285
G01 X-28.5223 Y31.3660
G01 X-28.5745 Y31.3939
G01 X-28.6311 Y31.4111
G01 X-28.6900 Y31.4169
G01 X-28.6999 Y31.4160
G01 X-28.7121 Y31.4155
G01 X-32.1240 Y31.4155
G01 X-32.1387 Y31.4162
G01 X-32.1532 Y31.4183
G01 X-32.1651 Y31.4212
G01 X-32.1767 Y31.4251
G01 X-32.1857 Y31.4288
G01 X-32.1966 Y31.4343
G01 X-32.2091 Y31.4421
G01 X-32.2189 Y31.4494
G01 X-32.2297 Y31.4593
G01 X-32.2396 Y31.4701
G01 X-32.2483 Y31.4819
G01 X-32.2570 Y31.4967
G01 X-32.2612 Y31.5055
G01 X-32.2663 Y31.5179
G01 X-32.3594 Y31.6571
G01 X-32.4779 Y31.7756
G01 X-32.5303 Y31.8107
G01 X-32.5383 Y31.8164
G01 X-32.5440 Y31.8210
G01 X-32.5512 Y31.8276
G01 X-32.5613 Y31.8383
G01 X-32.5688 Y31.8479
G01 X-32.5729 Y31.8540
G01 X-32.5791 Y31.8645
G01 X-32.5834 Y31.8733
G01 X-32.5863 Y31.8800
G01 X-32.5903 Y31.8916
G01 X-32.5934 Y31.9034
G01 X-32.5947 Y31.9106
G01 X-32.5961 Y31.9203
G01 X-32.5968 Y31.9326
G01 X-32.5967 Y31.9399
G01 X-32.5958 Y31.9521
G01 X-32.5939 Y31.9642
G01 X-32.5910 Y31.9761
G01 X-32.5872 Y31.9877
G01 X-32.5844 Y31.9945
G01 X-32.5791 Y32.0055
G01 X-32.5742 Y32.0139
G01 X-32.5702 Y32.0201
G01 X-32.5628 Y32.0299
G01 X-32.5547 Y32.0390
G01 X-32.5495 Y32.0441
G01 X-32.5402 Y32.0521
G01 X-32.5303 Y32.0593
G01 X-32.5199 Y32.0657
G01 X-32.5089 Y32.0712
G01 X-32.5022 Y32.0740
G01 X-32.4907 Y32.0781
G01 X-32.4788 Y32.0811
G01 X-32.4716 Y32.0825
G01 X-32.4619 Y32.0838
G01 X-32.4497 Y32.0845
G01 X-32.0938 Y32.0845
G01 X-32.0816 Y32.0838
G01 X-32.0670 Y32.0817
G01 X-32.0528 Y32.0781
G01 X-32.0390 Y32.0731
G01 X-32.0279 Y32.0680
G01 X-32.0173 Y32.0619
G01 X-32.0091 Y32.0565
G01 X-31.9995 Y32.0490
G01 X-31.9905 Y32.0407
G01 X-31.9806 Y32.0299
G01 X-31.9733 Y32.0201
G01 X-31.9667 Y32.0097
G01 X-31.9632 Y32.0033
G01 X-31.9581 Y31.9922
G01 X-31.9539 Y31.9807
G01 X-31.9518 Y31.9737
G01 X-31.9496 Y31.9642
G01 X-31.9477 Y31.9521
G01 X-31.9440 Y31.9153
G01 X-31.9383 Y31.8964
G01 X-31.9289 Y31.8789
G01 X-31.9164 Y31.8636
G01 X-31.9011 Y31.8511
G01 X-31.8836 Y31.8417
G01 X-31.8647 Y31.8360
G01 X-31.8377 Y31.8333
G01 X-29.8523 Y31.8333
G01 X-29.8253 Y31.8360
G01 X-29.8064 Y31.8417
G01 X-29.7889 Y31.8511
G01 X-29.7736 Y31.8636
G01 X-29.7611 Y31.8789
G01 X-29.7517 Y31.8964
G01 X-29.7460 Y31.9153
G01 X-29.7433 Y31.9423
G01 X-29.7433 Y32.8277
G01 X-29.7460 Y32.8547
G01 X-29.7517 Y32.8736
G01 X-29.7611 Y32.8911
G01 X-29.7738 Y32.9067
G01 X-29.7821 Y32.9143
G01 X-29.7904 Y32.9233
G01 X-29.7993 Y32.9349
G01 X-29.8070 Y32.9474
G01 X-29.8135 Y32.9605
G01 X-29.8194 Y32.9766
G01 X-29.8230 Y32.9908
G01 X-29.8252 Y33.0053
G01 X-29.8259 Y33.0200
G01 X-29.8252 Y33.0347
G01 X-29.8230 Y33.0492
G01 X-29.8194 Y33.0634
G01 X-29.8135 Y33.0795
G01 X-29.8070 Y33.0926
G01 X-29.7993 Y33.1051
G01 X-29.7904 Y33.1167
G01 X-29.7821 Y33.1257
G01 X-29.7738 Y33.1333
G01 X-29.7611 Y33.1489
G01 X-29.7517 Y33.1664
G01 X-29.7460 Y33.1853
G01 X-29.7433 Y33.2123
G01 X-29.7433 Y34.0977
G01 X-29.7460 Y34.1247
G01 X-29.7517 Y34.1436
G01 X-29.7611 Y34.1611
G01 X-29.7738 Y34.1767
G01 X-29.7821 Y34.1843
G01 X-29.7904 Y34.1933
G01 X-29.7993 Y34.2049
G01 X-29.8070 Y34.2174
G01 X-29.8135 Y34.2305
G01 X-29.8194 Y34.2466
G01 X-29.8230 Y34.2608
G01 X-29.8252 Y34.2753
G01 X-29.8259 Y34.2900
G01 X-29.8252 Y34.3047
G01 X-29.8230 Y34.3192
G01 X-29.8194 Y34.3334
G01 X-29.8135 Y34.3495
G01 X-29.8070 Y34.3626
G01 X-29.7993 Y34.3751
G01 X-29.7904 Y34.3867
G01 X-29.7821 Y34.3957
G01 X-29.7738 Y34.4033
G01 X-29.7611 Y34.4189
G01 X-29.7517 Y34.4364
G01 X-29.7460 Y34.4553
G01 X-29.7433 Y34.4823
G01 X-29.7433 Y35.3677
G01 X-29.7460 Y35.3947
G01 X-29.7517 Y35.4136
G01 X-29.7611 Y35.4311
G01 X-29.7738 Y35.4467
G01 X-29.7821 Y35.4543
G01 X-29.7904 Y35.4633
G01 X-29.7993 Y35.4749
G01 X-29.8070 Y35.4874
G01 X-29.8135 Y35.5005
G01 X-29.8194 Y35.5166
G01 X-29.8230 Y35.5308
G01 X-29.8252 Y35.5453
G01 X-29.8259 Y35.5600
G01 X-29.8252 Y35.5747
G01 X-29.8230 Y35.5892
G01 X-29.8194 Y35.6034
G01 X-29.8135 Y35.6195
G01 X-29.8070 Y35.6326
G01 X-29.7993 Y35.6451
G01 X-29.7904 Y35.6567
G01 X-29.7821 Y35.6657
G01 X-29.7738 Y35.6733
G01 X-29.7611 Y35.6889
G01 X-29.7517 Y35.7064
G01 X-29.7460 Y35.7253
G01 X-29.7433 Y35.7523
G01 X-29.7433 Y36.6377
G01 X-29.7460 Y36.6647
G01 X-29.7517 Y36.6836
G01 X-29.7611 Y36.7011
G01 X-29.7738 Y36.7167
G01 X-29.7821 Y36.7243
G01 X-29.7904 Y36.7333
G01 X-29.7993 Y36.7449
G01 X-29.8070 Y36.7574
G01 X-29.8135 Y36.7705
G01 X-29.8194 Y36.7866
G01 X-29.8230 Y36.8008
G01 X-29.8252 Y36.8153
G01 X-29.8259 Y36.8300
G01 X-29.8252 Y36.8447
G01 X-29.8230 Y36.8592
G01 X-29.8194 Y36.8734
G01 X-29.8135 Y36.8895
G01 X-29.8070 Y36.9026
G01 X-29.7993 Y36.9151
G01 X-29.7904 Y36.9267
G01 X-29.7821 Y36.9357
G01 X-29.7738 Y36.9433
G01 X-29.7611 Y36.9589
G01 X-29.7517 Y36.9764
G01 X-29.7460 Y36.9953
G01 X-29.7433 Y37.0223
G01 X-29.7433 Y37.9077
G01 X-29.7460 Y37.9347
G01 X-29.7517 Y37.9536
G01 X-29.7611 Y37.9711
G01 X-29.7738 Y37.9867
G01 X-29.7821 Y37.9943
G01 X-29.7904 Y38.0033
G01 X-29.7993 Y38.0149
G01 X-29.8070 Y38.0274
G01 X-29.8135 Y38.0405
G01 X-29.8194 Y38.0566
G01 X-29.8230 Y38.0708
G01 X-29.8252 Y38.0853
G01 X-29.8259 Y38.1000
G01 X-29.8252 Y38.1147
G01 X-29.8230 Y38.1292
G01 X-29.8194 Y38.1434
G01 X-29.8135 Y38.1595
G01 X-29.8070 Y38.1726
G01 X-29.7993 Y38.1851
G01 X-29.7904 Y38.1967
G01 X-29.7821 Y38.2057
G01 X-29.7738 Y38.2133
G01 X-29.7611 Y38.2289
G01 X-29.7517 Y38.2464
G01 X-29.7460 Y38.2653
G01 X-29.7433 Y38.2923
G01 X-29.7433 Y39.1777
G01 X-29.7460 Y39.2047
G01 X-29.7517 Y39.2236
G01 X-29.7611 Y39.2411
G01 X-29.7738 Y39.2567
G01 X-29.7821 Y39.2643
G01 X-29.7904 Y39.2733
G01 X-29.7993 Y39.2849
G01 X-29.8070 Y39.2974
G01 X-29.8135 Y39.3105
G01 X-29.8194 Y39.3266
G01 X-29.8230 Y39.3408
G01 X-29.8252 Y39.3553
G01 X-29.8259 Y39.3700
G01 X-29.8252 Y39.3847
G01 X-29.8230 Y39.3992
G01 X-29.8194 Y39.4134
G01 X-29.8135 Y39.4295
G01 X-29.8070 Y39.4426
G01 X-29.7993 Y39.4551
G01 X-29.7904 Y39.4667
G01 X-29.7821 Y39.4757
G01 X-29.7738 Y39.4833
G01 X-29.7611 Y39.4989
G01 X-29.7517 Y39.5164
G01 X-29.7460 Y39.5353
G01 X-29.7433 Y39.5623
G01 X-29.7433 Y40.4477
G01 X-29.7460 Y40.4747
G01 X-29.7517 Y40.4936
G01 X-29.7611 Y40.5111
G01 X-29.7738 Y40.5267
G01 X-29.7821 Y40.5343
G01 X-29.7904 Y40.5433
G01 X-29.7993 Y40.5549
G01 X-29.8070 Y40.5674
G01 X-29.8135 Y40.5805
G01 X-29.8194 Y40.5966
G01 X-29.8230 Y40.6108
G01 X-29.8252 Y40.6253
G01 X-29.8259 Y40.6400
G01 X-29.8252 Y40.6547
G01 X-29.8230 Y40.6692
G01 X-29.8194 Y40.6834
G01 X-29.8135 Y40.6995
G01 X-29.8070 Y40.7126
G01 X-29.7993 Y40.7251
G01 X-29.7904 Y40.7367
G01 X-29.7821 Y40.7457
G01 X-29.7738 Y40.7533
G01 X-29.7611 Y40.7689
G01 X-29.7517 Y40.7864
G01 X-29.7460 Y40.8053
G01 X-29.7433 Y40.8323
G01 X-29.7433 Y41.7177
G01 X-29.7460 Y41.7447
G01 X-29.7517 Y41.7636
G01 X-29.7611 Y41.7811
G01 X-29.7738 Y41.7967
G01 X-29.7821 Y41.8043
G01 X-29.7904 Y41.8133
G01 X-29.7993 Y41.8249
G01 X-29.8070 Y41.8374
G01 X-29.8135 Y41.8505
G01 X-29.8194 Y41.8666
G01 X-29.8230 Y41.8808
G01 X-29.8252 Y41.8953
G01 X-29.8259 Y41.9100
G01 X-29.8252 Y41.9247
G01 X-29.8230 Y41.9392
G01 X-29.8194 Y41.9534
G01 X-29.8135 Y41.9695
G01 X-29.8070 Y41.9826
G01 X-29.7993 Y41.9951
G01 X-29.7904 Y42.0067
G01 X-29.7821 Y42.0157
G01 X-29.7738 Y42.0233
G01 X-29.7611 Y42.0389
G01 X-29.7517 Y42.0564
G01 X-29.7460 Y42.0753
G01 X-29.7433 Y42.1023
G01 X-29.7433 Y42.9877
G01 X-29.7460 Y43.0147
G01 X-29.7517 Y43.0336
G01 X-29.7611 Y43.0511
G01 X-29.7738 Y43.0667
G01 X-29.7821 Y43.0743
G01 X-29.7904 Y43.0833
G01 X-29.7993 Y43.0949
G01 X-29.8070 Y43.1074
G01 X-29.8135 Y43.1205
G01 X-29.8194 Y43.1366
