(G-CODE GENERATED BY FLATCAM v8.993 - www.flatcam.org - Version Date: 2020/06/05)

(Name: hardware.drl_mill_cnc)
(Type: G-code from Geometry)
(Units: MM)

(Created on Samstag, 12 September 2020 at 15:17)

(This preprocessor is the default preprocessor used by FlatCAM.)
(It is made to work with MACH3 compatible motion controllers.)

(TOOL DIAMETER: 0.8 mm)
(Feedrate_XY: 300.0 mm/min)
(Feedrate_Z: 120.0 mm/min)
(Feedrate rapids 1500.0 mm/min)

(Z_Cut: -1.8 mm)
(DepthPerCut: 0.2 mm <=>9 passes)
(Z_Move: 1.0 mm)
(Z Start: None mm)
(Z End: 2.0 mm)
(Steps per circle: 64)
(Preprocessor Geometry: default)

(X range:    3.8000 ...   96.2000  mm)
(Y range:   14.5950 ...  107.6420  mm)

(Spindle Speed: None RPM)
G21
G90
G94

M3141 ;  Enable RF1000 Z compensation

G01 F300.00
G00 Z1.0000

M03
G00 X6.2000 Y15.7950
G01 F120.00
G01 Z-0.2000
G01 F300.00
G01 X6.1942 Y15.6774
G01 X6.1769 Y15.5609
G01 X6.1483 Y15.4467
G01 X6.1087 Y15.3358
G01 X6.0583 Y15.2293
G01 X5.9978 Y15.1283
G01 X5.9276 Y15.0337
G01 X5.8485 Y14.9465
G01 X5.7613 Y14.8674
G01 X5.6667 Y14.7972
G01 X5.5657 Y14.7367
G01 X5.4592 Y14.6863
G01 X5.3483 Y14.6467
G01 X5.2341 Y14.6181
G01 X5.1176 Y14.6008
G01 X5.0000 Y14.5950
G01 X4.8824 Y14.6008
G01 X4.7659 Y14.6181
G01 X4.6517 Y14.6467
G01 X4.5408 Y14.6863
G01 X4.4343 Y14.7367
G01 X4.3333 Y14.7972
G01 X4.2387 Y14.8674
G01 X4.1515 Y14.9465
G01 X4.0724 Y15.0337
G01 X4.0022 Y15.1283
G01 X3.9417 Y15.2293
G01 X3.8913 Y15.3358
G01 X3.8517 Y15.4467
G01 X3.8231 Y15.5609
G01 X3.8058 Y15.6774
G01 X3.8000 Y15.7950
G01 X3.8058 Y15.9126
G01 X3.8231 Y16.0291
G01 X3.8517 Y16.1433
G01 X3.8913 Y16.2542
G01 X3.9417 Y16.3607
G01 X4.0022 Y16.4617
G01 X4.0724 Y16.5563
G01 X4.1515 Y16.6435
G01 X4.2387 Y16.7226
G01 X4.3333 Y16.7928
G01 X4.4343 Y16.8533
G01 X4.5408 Y16.9037
G01 X4.6517 Y16.9433
G01 X4.7659 Y16.9719
G01 X4.8824 Y16.9892
G01 X5.0000 Y16.9950
G01 X5.1176 Y16.9892
G01 X5.2341 Y16.9719
G01 X5.3483 Y16.9433
G01 X5.4592 Y16.9037
G01 X5.5657 Y16.8533
G01 X5.6667 Y16.7928
G01 X5.7613 Y16.7226
G01 X5.8485 Y16.6435
G01 X5.9276 Y16.5563
G01 X5.9978 Y16.4617
G01 X6.0583 Y16.3607
G01 X6.1087 Y16.2542
G01 X6.1483 Y16.1433
G01 X6.1769 Y16.0291
G01 X6.1942 Y15.9126
G01 X6.2000 Y15.7950
G00 X6.2000 Y15.7950
G01 F120.00
G01 Z-0.4000
G01 F300.00
G01 X6.1942 Y15.6774
G01 X6.1769 Y15.5609
G01 X6.1483 Y15.4467
G01 X6.1087 Y15.3358
G01 X6.0583 Y15.2293
G01 X5.9978 Y15.1283
G01 X5.9276 Y15.0337
G01 X5.8485 Y14.9465
G01 X5.7613 Y14.8674
G01 X5.6667 Y14.7972
G01 X5.5657 Y14.7367
G01 X5.4592 Y14.6863
G01 X5.3483 Y14.6467
G01 X5.2341 Y14.6181
G01 X5.1176 Y14.6008
G01 X5.0000 Y14.5950
G01 X4.8824 Y14.6008
G01 X4.7659 Y14.6181
G01 X4.6517 Y14.6467
G01 X4.5408 Y14.6863
G01 X4.4343 Y14.7367
G01 X4.3333 Y14.7972
G01 X4.2387 Y14.8674
G01 X4.1515 Y14.9465
G01 X4.0724 Y15.0337
G01 X4.0022 Y15.1283
G01 X3.9417 Y15.2293
G01 X3.8913 Y15.3358
G01 X3.8517 Y15.4467
G01 X3.8231 Y15.5609
G01 X3.8058 Y15.6774
G01 X3.8000 Y15.7950
G01 X3.8058 Y15.9126
G01 X3.8231 Y16.0291
G01 X3.8517 Y16.1433
G01 X3.8913 Y16.2542
G01 X3.9417 Y16.3607
G01 X4.0022 Y16.4617
G01 X4.0724 Y16.5563
G01 X4.1515 Y16.6435
G01 X4.2387 Y16.7226
G01 X4.3333 Y16.7928
G01 X4.4343 Y16.8533
G01 X4.5408 Y16.9037
G01 X4.6517 Y16.9433
G01 X4.7659 Y16.9719
G01 X4.8824 Y16.9892
G01 X5.0000 Y16.9950
G01 X5.1176 Y16.9892
G01 X5.2341 Y16.9719
G01 X5.3483 Y16.9433
G01 X5.4592 Y16.9037
G01 X5.5657 Y16.8533
G01 X5.6667 Y16.7928
G01 X5.7613 Y16.7226
G01 X5.8485 Y16.6435
G01 X5.9276 Y16.5563
G01 X5.9978 Y16.4617
G01 X6.0583 Y16.3607
G01 X6.1087 Y16.2542
G01 X6.1483 Y16.1433
G01 X6.1769 Y16.0291
G01 X6.1942 Y15.9126
G01 X6.2000 Y15.7950
G00 X6.2000 Y15.7950
G01 F120.00
G01 Z-0.6000
G01 F300.00
G01 X6.1942 Y15.6774
G01 X6.1769 Y15.5609
G01 X6.1483 Y15.4467
G01 X6.1087 Y15.3358
G01 X6.0583 Y15.2293
G01 X5.9978 Y15.1283
G01 X5.9276 Y15.0337
G01 X5.8485 Y14.9465
G01 X5.7613 Y14.8674
G01 X5.6667 Y14.7972
G01 X5.5657 Y14.7367
G01 X5.4592 Y14.6863
G01 X5.3483 Y14.6467
G01 X5.2341 Y14.6181
G01 X5.1176 Y14.6008
G01 X5.0000 Y14.5950
G01 X4.8824 Y14.6008
G01 X4.7659 Y14.6181
G01 X4.6517 Y14.6467
G01 X4.5408 Y14.6863
G01 X4.4343 Y14.7367
G01 X4.3333 Y14.7972
G01 X4.2387 Y14.8674
G01 X4.1515 Y14.9465
G01 X4.0724 Y15.0337
G01 X4.0022 Y15.1283
G01 X3.9417 Y15.2293
G01 X3.8913 Y15.3358
G01 X3.8517 Y15.4467
G01 X3.8231 Y15.5609
G01 X3.8058 Y15.6774
G01 X3.8000 Y15.7950
G01 X3.8058 Y15.9126
G01 X3.8231 Y16.0291
G01 X3.8517 Y16.1433
G01 X3.8913 Y16.2542
G01 X3.9417 Y16.3607
G01 X4.0022 Y16.4617
G01 X4.0724 Y16.5563
G01 X4.1515 Y16.6435
G01 X4.2387 Y16.7226
G01 X4.3333 Y16.7928
G01 X4.4343 Y16.8533
G01 X4.5408 Y16.9037
G01 X4.6517 Y16.9433
G01 X4.7659 Y16.9719
G01 X4.8824 Y16.9892
G01 X5.0000 Y16.9950
G01 X5.1176 Y16.9892
G01 X5.2341 Y16.9719
G01 X5.3483 Y16.9433
G01 X5.4592 Y16.9037
G01 X5.5657 Y16.8533
G01 X5.6667 Y16.7928
G01 X5.7613 Y16.7226
G01 X5.8485 Y16.6435
G01 X5.9276 Y16.5563
G01 X5.9978 Y16.4617
G01 X6.0583 Y16.3607
G01 X6.1087 Y16.2542
G01 X6.1483 Y16.1433
G01 X6.1769 Y16.0291
G01 X6.1942 Y15.9126
G01 X6.2000 Y15.7950
G00 X6.2000 Y15.7950
G01 F120.00
G01 Z-0.8000
G01 F300.00
G01 X6.1942 Y15.6774
G01 X6.1769 Y15.5609
G01 X6.1483 Y15.4467
G01 X6.1087 Y15.3358
G01 X6.0583 Y15.2293
G01 X5.9978 Y15.1283
G01 X5.9276 Y15.0337
G01 X5.8485 Y14.9465
G01 X5.7613 Y14.8674
G01 X5.6667 Y14.7972
G01 X5.5657 Y14.7367
G01 X5.4592 Y14.6863
G01 X5.3483 Y14.6467
G01 X5.2341 Y14.6181
G01 X5.1176 Y14.6008
G01 X5.0000 Y14.5950
G01 X4.8824 Y14.6008
G01 X4.7659 Y14.6181
G01 X4.6517 Y14.6467
G01 X4.5408 Y14.6863
G01 X4.4343 Y14.7367
G01 X4.3333 Y14.7972
G01 X4.2387 Y14.8674
G01 X4.1515 Y14.9465
G01 X4.0724 Y15.0337
G01 X4.0022 Y15.1283
G01 X3.9417 Y15.2293
G01 X3.8913 Y15.3358
G01 X3.8517 Y15.4467
G01 X3.8231 Y15.5609
G01 X3.8058 Y15.6774
G01 X3.8000 Y15.7950
G01 X3.8058 Y15.9126
G01 X3.8231 Y16.0291
G01 X3.8517 Y16.1433
G01 X3.8913 Y16.2542
G01 X3.9417 Y16.3607
G01 X4.0022 Y16.4617
G01 X4.0724 Y16.5563
G01 X4.1515 Y16.6435
G01 X4.2387 Y16.7226
G01 X4.3333 Y16.7928
G01 X4.4343 Y16.8533
G01 X4.5408 Y16.9037
G01 X4.6517 Y16.9433
G01 X4.7659 Y16.9719
G01 X4.8824 Y16.9892
G01 X5.0000 Y16.9950
G01 X5.1176 Y16.9892
G01 X5.2341 Y16.9719
G01 X5.3483 Y16.9433
G01 X5.4592 Y16.9037
G01 X5.5657 Y16.8533
G01 X5.6667 Y16.7928
G01 X5.7613 Y16.7226
G01 X5.8485 Y16.6435
G01 X5.9276 Y16.5563
G01 X5.9978 Y16.4617
G01 X6.0583 Y16.3607
G01 X6.1087 Y16.2542
G01 X6.1483 Y16.1433
G01 X6.1769 Y16.0291
G01 X6.1942 Y15.9126
G01 X6.2000 Y15.7950
G00 X6.2000 Y15.7950
G01 F120.00
G01 Z-1.0000
G01 F300.00
G01 X6.1942 Y15.6774
G01 X6.1769 Y15.5609
G01 X6.1483 Y15.4467
G01 X6.1087 Y15.3358
G01 X6.0583 Y15.2293
G01 X5.9978 Y15.1283
G01 X5.9276 Y15.0337
G01 X5.8485 Y14.9465
G01 X5.7613 Y14.8674
G01 X5.6667 Y14.7972
G01 X5.5657 Y14.7367
G01 X5.4592 Y14.6863
G01 X5.3483 Y14.6467
G01 X5.2341 Y14.6181
G01 X5.1176 Y14.6008
G01 X5.0000 Y14.5950
G01 X4.8824 Y14.6008
G01 X4.7659 Y14.6181
G01 X4.6517 Y14.6467
G01 X4.5408 Y14.6863
G01 X4.4343 Y14.7367
G01 X4.3333 Y14.7972
G01 X4.2387 Y14.8674
G01 X4.1515 Y14.9465
G01 X4.0724 Y15.0337
G01 X4.0022 Y15.1283
G01 X3.9417 Y15.2293
G01 X3.8913 Y15.3358
G01 X3.8517 Y15.4467
G01 X3.8231 Y15.5609
G01 X3.8058 Y15.6774
G01 X3.8000 Y15.7950
G01 X3.8058 Y15.9126
G01 X3.8231 Y16.0291
G01 X3.8517 Y16.1433
G01 X3.8913 Y16.2542
G01 X3.9417 Y16.3607
G01 X4.0022 Y16.4617
G01 X4.0724 Y16.5563
G01 X4.1515 Y16.6435
G01 X4.2387 Y16.7226
G01 X4.3333 Y16.7928
G01 X4.4343 Y16.8533
G01 X4.5408 Y16.9037
G01 X4.6517 Y16.9433
G01 X4.7659 Y16.9719
G01 X4.8824 Y16.9892
G01 X5.0000 Y16.9950
G01 X5.1176 Y16.9892
G01 X5.2341 Y16.9719
G01 X5.3483 Y16.9433
G01 X5.4592 Y16.9037
G01 X5.5657 Y16.8533
G01 X5.6667 Y16.7928
G01 X5.7613 Y16.7226
G01 X5.8485 Y16.6435
G01 X5.9276 Y16.5563
G01 X5.9978 Y16.4617
G01 X6.0583 Y16.3607
G01 X6.1087 Y16.2542
G01 X6.1483 Y16.1433
G01 X6.1769 Y16.0291
G01 X6.1942 Y15.9126
G01 X6.2000 Y15.7950
G00 X6.2000 Y15.7950
G01 F120.00
G01 Z-1.2000
G01 F300.00
G01 X6.1942 Y15.6774
G01 X6.1769 Y15.5609
G01 X6.1483 Y15.4467
G01 X6.1087 Y15.3358
G01 X6.0583 Y15.2293
G01 X5.9978 Y15.1283
G01 X5.9276 Y15.0337
G01 X5.8485 Y14.9465
G01 X5.7613 Y14.8674
G01 X5.6667 Y14.7972
G01 X5.5657 Y14.7367
G01 X5.4592 Y14.6863
G01 X5.3483 Y14.6467
G01 X5.2341 Y14.6181
G01 X5.1176 Y14.6008
G01 X5.0000 Y14.5950
G01 X4.8824 Y14.6008
G01 X4.7659 Y14.6181
G01 X4.6517 Y14.6467
G01 X4.5408 Y14.6863
G01 X4.4343 Y14.7367
G01 X4.3333 Y14.7972
G01 X4.2387 Y14.8674
G01 X4.1515 Y14.9465
G01 X4.0724 Y15.0337
G01 X4.0022 Y15.1283
G01 X3.9417 Y15.2293
G01 X3.8913 Y15.3358
G01 X3.8517 Y15.4467
G01 X3.8231 Y15.5609
G01 X3.8058 Y15.6774
G01 X3.8000 Y15.7950
G01 X3.8058 Y15.9126
G01 X3.8231 Y16.0291
G01 X3.8517 Y16.1433
G01 X3.8913 Y16.2542
G01 X3.9417 Y16.3607
G01 X4.0022 Y16.4617
G01 X4.0724 Y16.5563
G01 X4.1515 Y16.6435
G01 X4.2387 Y16.7226
G01 X4.3333 Y16.7928
G01 X4.4343 Y16.8533
G01 X4.5408 Y16.9037
G01 X4.6517 Y16.9433
G01 X4.7659 Y16.9719
G01 X4.8824 Y16.9892
G01 X5.0000 Y16.9950
G01 X5.1176 Y16.9892
G01 X5.2341 Y16.9719
G01 X5.3483 Y16.9433
G01 X5.4592 Y16.9037
G01 X5.5657 Y16.8533
G01 X5.6667 Y16.7928
G01 X5.7613 Y16.7226
G01 X5.8485 Y16.6435
G01 X5.9276 Y16.5563
G01 X5.9978 Y16.4617
G01 X6.0583 Y16.3607
G01 X6.1087 Y16.2542
G01 X6.1483 Y16.1433
G01 X6.1769 Y16.0291
G01 X6.1942 Y15.9126
G01 X6.2000 Y15.7950
G00 X6.2000 Y15.7950
G01 F120.00
G01 Z-1.4000
G01 F300.00
G01 X6.1942 Y15.6774
G01 X6.1769 Y15.5609
G01 X6.1483 Y15.4467
G01 X6.1087 Y15.3358
G01 X6.0583 Y15.2293
G01 X5.9978 Y15.1283
G01 X5.9276 Y15.0337
G01 X5.8485 Y14.9465
G01 X5.7613 Y14.8674
G01 X5.6667 Y14.7972
G01 X5.5657 Y14.7367
G01 X5.4592 Y14.6863
G01 X5.3483 Y14.6467
G01 X5.2341 Y14.6181
G01 X5.1176 Y14.6008
G01 X5.0000 Y14.5950
G01 X4.8824 Y14.6008
G01 X4.7659 Y14.6181
G01 X4.6517 Y14.6467
G01 X4.5408 Y14.6863
G01 X4.4343 Y14.7367
G01 X4.3333 Y14.7972
G01 X4.2387 Y14.8674
G01 X4.1515 Y14.9465
G01 X4.0724 Y15.0337
G01 X4.0022 Y15.1283
G01 X3.9417 Y15.2293
G01 X3.8913 Y15.3358
G01 X3.8517 Y15.4467
G01 X3.8231 Y15.5609
G01 X3.8058 Y15.6774
G01 X3.8000 Y15.7950
G01 X3.8058 Y15.9126
G01 X3.8231 Y16.0291
G01 X3.8517 Y16.1433
G01 X3.8913 Y16.2542
G01 X3.9417 Y16.3607
G01 X4.0022 Y16.4617
G01 X4.0724 Y16.5563
G01 X4.1515 Y16.6435
G01 X4.2387 Y16.7226
G01 X4.3333 Y16.7928
G01 X4.4343 Y16.8533
G01 X4.5408 Y16.9037
G01 X4.6517 Y16.9433
G01 X4.7659 Y16.9719
G01 X4.8824 Y16.9892
G01 X5.0000 Y16.9950
G01 X5.1176 Y16.9892
G01 X5.2341 Y16.9719
G01 X5.3483 Y16.9433
G01 X5.4592 Y16.9037
G01 X5.5657 Y16.8533
G01 X5.6667 Y16.7928
G01 X5.7613 Y16.7226
G01 X5.8485 Y16.6435
G01 X5.9276 Y16.5563
G01 X5.9978 Y16.4617
G01 X6.0583 Y16.3607
G01 X6.1087 Y16.2542
G01 X6.1483 Y16.1433
G01 X6.1769 Y16.0291
G01 X6.1942 Y15.9126
G01 X6.2000 Y15.7950
G00 X6.2000 Y15.7950
G01 F120.00
G01 Z-1.6000
G01 F300.00
G01 X6.1942 Y15.6774
G01 X6.1769 Y15.5609
G01 X6.1483 Y15.4467
G01 X6.1087 Y15.3358
G01 X6.0583 Y15.2293
G01 X5.9978 Y15.1283
G01 X5.9276 Y15.0337
G01 X5.8485 Y14.9465
G01 X5.7613 Y14.8674
G01 X5.6667 Y14.7972
G01 X5.5657 Y14.7367
G01 X5.4592 Y14.6863
G01 X5.3483 Y14.6467
G01 X5.2341 Y14.6181
G01 X5.1176 Y14.6008
G01 X5.0000 Y14.5950
G01 X4.8824 Y14.6008
G01 X4.7659 Y14.6181
G01 X4.6517 Y14.6467
G01 X4.5408 Y14.6863
G01 X4.4343 Y14.7367
G01 X4.3333 Y14.7972
G01 X4.2387 Y14.8674
G01 X4.1515 Y14.9465
G01 X4.0724 Y15.0337
G01 X4.0022 Y15.1283
G01 X3.9417 Y15.2293
G01 X3.8913 Y15.3358
G01 X3.8517 Y15.4467
G01 X3.8231 Y15.5609
G01 X3.8058 Y15.6774
G01 X3.8000 Y15.7950
G01 X3.8058 Y15.9126
G01 X3.8231 Y16.0291
G01 X3.8517 Y16.1433
G01 X3.8913 Y16.2542
G01 X3.9417 Y16.3607
G01 X4.0022 Y16.4617
G01 X4.0724 Y16.5563
G01 X4.1515 Y16.6435
G01 X4.2387 Y16.7226
G01 X4.3333 Y16.7928
G01 X4.4343 Y16.8533
G01 X4.5408 Y16.9037
G01 X4.6517 Y16.9433
G01 X4.7659 Y16.9719
G01 X4.8824 Y16.9892
G01 X5.0000 Y16.9950
G01 X5.1176 Y16.9892
G01 X5.2341 Y16.9719
G01 X5.3483 Y16.9433
G01 X5.4592 Y16.9037
G01 X5.5657 Y16.8533
G01 X5.6667 Y16.7928
G01 X5.7613 Y16.7226
G01 X5.8485 Y16.6435
G01 X5.9276 Y16.5563
G01 X5.9978 Y16.4617
G01 X6.0583 Y16.3607
G01 X6.1087 Y16.2542
G01 X6.1483 Y16.1433
G01 X6.1769 Y16.0291
G01 X6.1942 Y15.9126
G01 X6.2000 Y15.7950
G00 X6.2000 Y15.7950
G01 F120.00
G01 Z-1.8000
G01 F300.00
G01 X6.1942 Y15.6774
G01 X6.1769 Y15.5609
G01 X6.1483 Y15.4467
G01 X6.1087 Y15.3358
G01 X6.0583 Y15.2293
G01 X5.9978 Y15.1283
G01 X5.9276 Y15.0337
G01 X5.8485 Y14.9465
G01 X5.7613 Y14.8674
G01 X5.6667 Y14.7972
G01 X5.5657 Y14.7367
G01 X5.4592 Y14.6863
G01 X5.3483 Y14.6467
G01 X5.2341 Y14.6181
G01 X5.1176 Y14.6008
G01 X5.0000 Y14.5950
G01 X4.8824 Y14.6008
G01 X4.7659 Y14.6181
G01 X4.6517 Y14.6467
G01 X4.5408 Y14.6863
G01 X4.4343 Y14.7367
G01 X4.3333 Y14.7972
G01 X4.2387 Y14.8674
G01 X4.1515 Y14.9465
G01 X4.0724 Y15.0337
G01 X4.0022 Y15.1283
G01 X3.9417 Y15.2293
G01 X3.8913 Y15.3358
G01 X3.8517 Y15.4467
G01 X3.8231 Y15.5609
G01 X3.8058 Y15.6774
G01 X3.8000 Y15.7950
G01 X3.8058 Y15.9126
G01 X3.8231 Y16.0291
G01 X3.8517 Y16.1433
G01 X3.8913 Y16.2542
G01 X3.9417 Y16.3607
G01 X4.0022 Y16.4617
G01 X4.0724 Y16.5563
G01 X4.1515 Y16.6435
G01 X4.2387 Y16.7226
G01 X4.3333 Y16.7928
G01 X4.4343 Y16.8533
G01 X4.5408 Y16.9037
G01 X4.6517 Y16.9433
G01 X4.7659 Y16.9719
G01 X4.8824 Y16.9892
G01 X5.0000 Y16.9950
G01 X5.1176 Y16.9892
G01 X5.2341 Y16.9719
G01 X5.3483 Y16.9433
G01 X5.4592 Y16.9037
G01 X5.5657 Y16.8533
G01 X5.6667 Y16.7928
G01 X5.7613 Y16.7226
G01 X5.8485 Y16.6435
G01 X5.9276 Y16.5563
G01 X5.9978 Y16.4617
G01 X6.0583 Y16.3607
G01 X6.1087 Y16.2542
G01 X6.1483 Y16.1433
G01 X6.1769 Y16.0291
G01 X6.1942 Y15.9126
G01 X6.2000 Y15.7950
G00 Z1.0000
G00 X9.5020 Y17.2090
G01 F120.00
G01 Z-0.2000
G01 F300.00
G01 X9.5020 Y17.2090
G01 X9.5020 Y17.2090
G01 X9.5020 Y17.2090
G01 X9.5020 Y17.2090
G00 X9.5020 Y17.2090
G01 F120.00
G01 Z-0.4000
G01 F300.00
G01 X9.5020 Y17.2090
G01 X9.5020 Y17.2090
G01 X9.5020 Y17.2090
G01 X9.5020 Y17.2090
G00 X9.5020 Y17.2090
G01 F120.00
G01 Z-0.6000
G01 F300.00
G01 X9.5020 Y17.2090
G01 X9.5020 Y17.2090
G01 X9.5020 Y17.2090
G01 X9.5020 Y17.2090
G00 X9.5020 Y17.2090
G01 F120.00
G01 Z-0.8000
G01 F300.00
G01 X9.5020 Y17.2090
G01 X9.5020 Y17.2090
G01 X9.5020 Y17.2090
G01 X9.5020 Y17.2090
G00 X9.5020 Y17.2090
G01 F120.00
G01 Z-1.0000
G01 F300.00
G01 X9.5020 Y17.2090
G01 X9.5020 Y17.2090
G01 X9.5020 Y17.2090
G01 X9.5020 Y17.2090
G00 X9.5020 Y17.2090
G01 F120.00
G01 Z-1.2000
G01 F300.00
G01 X9.5020 Y17.2090
G01 X9.5020 Y17.2090
G01 X9.5020 Y17.2090
G01 X9.5020 Y17.2090
G00 X9.5020 Y17.2090
G01 F120.00
G01 Z-1.4000
G01 F300.00
G01 X9.5020 Y17.2090
G01 X9.5020 Y17.2090
G01 X9.5020 Y17.2090
G01 X9.5020 Y17.2090
G00 X9.5020 Y17.2090
G01 F120.00
G01 Z-1.6000
G01 F300.00
G01 X9.5020 Y17.2090
G01 X9.5020 Y17.2090
G01 X9.5020 Y17.2090
G01 X9.5020 Y17.2090
G00 X9.5020 Y17.2090
G01 F120.00
G01 Z-1.8000
G01 F300.00
G01 X9.5020 Y17.2090
G01 X9.5020 Y17.2090
G01 X9.5020 Y17.2090
G01 X9.5020 Y17.2090
G00 Z1.0000
G00 X12.0020 Y17.2090
G01 F120.00
G01 Z-0.2000
G01 F300.00
G01 X12.0020 Y17.2090
G01 X12.0020 Y17.2090
G01 X12.0020 Y17.2090
G01 X12.0020 Y17.2090
G00 X12.0020 Y17.2090
G01 F120.00
G01 Z-0.4000
G01 F300.00
G01 X12.0020 Y17.2090
G01 X12.0020 Y17.2090
G01 X12.0020 Y17.2090
G01 X12.0020 Y17.2090
G00 X12.0020 Y17.2090
G01 F120.00
G01 Z-0.6000
G01 F300.00
G01 X12.0020 Y17.2090
G01 X12.0020 Y17.2090
G01 X12.0020 Y17.2090
G01 X12.0020 Y17.2090
G00 X12.0020 Y17.2090
G01 F120.00
G01 Z-0.8000
G01 F300.00
G01 X12.0020 Y17.2090
G01 X12.0020 Y17.2090
G01 X12.0020 Y17.2090
G01 X12.0020 Y17.2090
G00 X12.0020 Y17.2090
G01 F120.00
G01 Z-1.0000
G01 F300.00
G01 X12.0020 Y17.2090
G01 X12.0020 Y17.2090
G01 X12.0020 Y17.2090
G01 X12.0020 Y17.2090
G00 X12.0020 Y17.2090
G01 F120.00
G01 Z-1.2000
G01 F300.00
G01 X12.0020 Y17.2090
G01 X12.0020 Y17.2090
G01 X12.0020 Y17.2090
G01 X12.0020 Y17.2090
G00 X12.0020 Y17.2090
G01 F120.00
G01 Z-1.4000
G01 F300.00
G01 X12.0020 Y17.2090
G01 X12.0020 Y17.2090
G01 X12.0020 Y17.2090
G01 X12.0020 Y17.2090
G00 X12.0020 Y17.2090
G01 F120.00
G01 Z-1.6000
G01 F300.00
G01 X12.0020 Y17.2090
G01 X12.0020 Y17.2090
G01 X12.0020 Y17.2090
G01 X12.0020 Y17.2090
G00 X12.0020 Y17.2090
G01 F120.00
G01 Z-1.8000
G01 F300.00
G01 X12.0020 Y17.2090
G01 X12.0020 Y17.2090
G01 X12.0020 Y17.2090
G01 X12.0020 Y17.2090
G00 Z1.0000
G00 X52.0940 Y44.6920
G01 F120.00
G01 Z-0.2000
G01 F300.00
G01 X52.0887 Y44.5842
G01 X52.0729 Y44.4774
G01 X52.0466 Y44.3727
G01 X52.0103 Y44.2710
G01 X51.9641 Y44.1735
G01 X51.9086 Y44.0809
G01 X51.8443 Y43.9942
G01 X51.7718 Y43.9142
G01 X51.6918 Y43.8417
G01 X51.6051 Y43.7774
G01 X51.5125 Y43.7219
G01 X51.4150 Y43.6757
G01 X51.3133 Y43.6394
G01 X51.2086 Y43.6131
G01 X51.1018 Y43.5973
G01 X50.9940 Y43.5920
G01 X50.8862 Y43.5973
G01 X50.7794 Y43.6131
G01 X50.6747 Y43.6394
G01 X50.5730 Y43.6757
G01 X50.4755 Y43.7219
G01 X50.3829 Y43.7774
G01 X50.2962 Y43.8417
G01 X50.2162 Y43.9142
G01 X50.1437 Y43.9942
G01 X50.0794 Y44.0809
G01 X50.0239 Y44.1735
G01 X49.9777 Y44.2710
G01 X49.9414 Y44.3727
G01 X49.9151 Y44.4774
G01 X49.8993 Y44.5842
G01 X49.8940 Y44.6920
G01 X49.8993 Y44.7998
G01 X49.9151 Y44.9066
G01 X49.9414 Y45.0113
G01 X49.9777 Y45.1130
G01 X50.0239 Y45.2105
G01 X50.0794 Y45.3031
G01 X50.1437 Y45.3898
G01 X50.2162 Y45.4698
G01 X50.2962 Y45.5423
G01 X50.3829 Y45.6066
G01 X50.4755 Y45.6621
G01 X50.5730 Y45.7083
G01 X50.6747 Y45.7446
G01 X50.7794 Y45.7709
G01 X50.8862 Y45.7867
G01 X50.9940 Y45.7920
G01 X51.1018 Y45.7867
G01 X51.2086 Y45.7709
G01 X51.3133 Y45.7446
G01 X51.4150 Y45.7083
G01 X51.5125 Y45.6621
G01 X51.6051 Y45.6066
G01 X51.6918 Y45.5423
G01 X51.7718 Y45.4698
G01 X51.8443 Y45.3898
G01 X51.9086 Y45.3031
G01 X51.9641 Y45.2105
G01 X52.0103 Y45.1130
G01 X52.0466 Y45.0113
G01 X52.0729 Y44.9066
G01 X52.0887 Y44.7998
G01 X52.0940 Y44.6920
G00 X52.0940 Y44.6920
G01 F120.00
G01 Z-0.4000
G01 F300.00
G01 X52.0887 Y44.5842
G01 X52.0729 Y44.4774
G01 X52.0466 Y44.3727
G01 X52.0103 Y44.2710
G01 X51.9641 Y44.1735
G01 X51.9086 Y44.0809
G01 X51.8443 Y43.9942
G01 X51.7718 Y43.9142
G01 X51.6918 Y43.8417
G01 X51.6051 Y43.7774
G01 X51.5125 Y43.7219
G01 X51.4150 Y43.6757
G01 X51.3133 Y43.6394
G01 X51.2086 Y43.6131
G01 X51.1018 Y43.5973
G01 X50.9940 Y43.5920
G01 X50.8862 Y43.5973
G01 X50.7794 Y43.6131
G01 X50.6747 Y43.6394
G01 X50.5730 Y43.6757
G01 X50.4755 Y43.7219
G01 X50.3829 Y43.7774
G01 X50.2962 Y43.8417
G01 X50.2162 Y43.9142
G01 X50.1437 Y43.9942
G01 X50.0794 Y44.0809
G01 X50.0239 Y44.1735
G01 X49.9777 Y44.2710
G01 X49.9414 Y44.3727
G01 X49.9151 Y44.4774
G01 X49.8993 Y44.5842
G01 X49.8940 Y44.6920
G01 X49.8993 Y44.7998
G01 X49.9151 Y44.9066
G01 X49.9414 Y45.0113
G01 X49.9777 Y45.1130
G01 X50.0239 Y45.2105
G01 X50.0794 Y45.3031
G01 X50.1437 Y45.3898
G01 X50.2162 Y45.4698
G01 X50.2962 Y45.5423
G01 X50.3829 Y45.6066
G01 X50.4755 Y45.6621
G01 X50.5730 Y45.7083
G01 X50.6747 Y45.7446
G01 X50.7794 Y45.7709
G01 X50.8862 Y45.7867
G01 X50.9940 Y45.7920
G01 X51.1018 Y45.7867
G01 X51.2086 Y45.7709
G01 X51.3133 Y45.7446
G01 X51.4150 Y45.7083
G01 X51.5125 Y45.6621
G01 X51.6051 Y45.6066
G01 X51.6918 Y45.5423
G01 X51.7718 Y45.4698
G01 X51.8443 Y45.3898
G01 X51.9086 Y45.3031
G01 X51.9641 Y45.2105
G01 X52.0103 Y45.1130
G01 X52.0466 Y45.0113
G01 X52.0729 Y44.9066
G01 X52.0887 Y44.7998
G01 X52.0940 Y44.6920
G00 X52.0940 Y44.6920
G01 F120.00
G01 Z-0.6000
G01 F300.00
G01 X52.0887 Y44.5842
G01 X52.0729 Y44.4774
G01 X52.0466 Y44.3727
G01 X52.0103 Y44.2710
G01 X51.9641 Y44.1735
G01 X51.9086 Y44.0809
G01 X51.8443 Y43.9942
G01 X51.7718 Y43.9142
G01 X51.6918 Y43.8417
G01 X51.6051 Y43.7774
G01 X51.5125 Y43.7219
G01 X51.4150 Y43.6757
G01 X51.3133 Y43.6394
G01 X51.2086 Y43.6131
G01 X51.1018 Y43.5973
G01 X50.9940 Y43.5920
G01 X50.8862 Y43.5973
G01 X50.7794 Y43.6131
G01 X50.6747 Y43.6394
G01 X50.5730 Y43.6757
G01 X50.4755 Y43.7219
G01 X50.3829 Y43.7774
G01 X50.2962 Y43.8417
G01 X50.2162 Y43.9142
G01 X50.1437 Y43.9942
G01 X50.0794 Y44.0809
G01 X50.0239 Y44.1735
G01 X49.9777 Y44.2710
G01 X49.9414 Y44.3727
G01 X49.9151 Y44.4774
G01 X49.8993 Y44.5842
G01 X49.8940 Y44.6920
G01 X49.8993 Y44.7998
G01 X49.9151 Y44.9066
G01 X49.9414 Y45.0113
G01 X49.9777 Y45.1130
G01 X50.0239 Y45.2105
G01 X50.0794 Y45.3031
G01 X50.1437 Y45.3898
G01 X50.2162 Y45.4698
G01 X50.2962 Y45.5423
G01 X50.3829 Y45.6066
G01 X50.4755 Y45.6621
G01 X50.5730 Y45.7083
G01 X50.6747 Y45.7446
G01 X50.7794 Y45.7709
G01 X50.8862 Y45.7867
G01 X50.9940 Y45.7920
G01 X51.1018 Y45.7867
G01 X51.2086 Y45.7709
G01 X51.3133 Y45.7446
G01 X51.4150 Y45.7083
G01 X51.5125 Y45.6621
G01 X51.6051 Y45.6066
G01 X51.6918 Y45.5423
G01 X51.7718 Y45.4698
G01 X51.8443 Y45.3898
G01 X51.9086 Y45.3031
G01 X51.9641 Y45.2105
G01 X52.0103 Y45.1130
G01 X52.0466 Y45.0113
G01 X52.0729 Y44.9066
G01 X52.0887 Y44.7998
G01 X52.0940 Y44.6920
G00 X52.0940 Y44.6920
G01 F120.00
G01 Z-0.8000
G01 F300.00
G01 X52.0887 Y44.5842
G01 X52.0729 Y44.4774
G01 X52.0466 Y44.3727
G01 X52.0103 Y44.2710
G01 X51.9641 Y44.1735
G01 X51.9086 Y44.0809
G01 X51.8443 Y43.9942
G01 X51.7718 Y43.9142
G01 X51.6918 Y43.8417
G01 X51.6051 Y43.7774
G01 X51.5125 Y43.7219
G01 X51.4150 Y43.6757
G01 X51.3133 Y43.6394
G01 X51.2086 Y43.6131
G01 X51.1018 Y43.5973
G01 X50.9940 Y43.5920
G01 X50.8862 Y43.5973
G01 X50.7794 Y43.6131
G01 X50.6747 Y43.6394
G01 X50.5730 Y43.6757
G01 X50.4755 Y43.7219
G01 X50.3829 Y43.7774
G01 X50.2962 Y43.8417
G01 X50.2162 Y43.9142
G01 X50.1437 Y43.9942
G01 X50.0794 Y44.0809
G01 X50.0239 Y44.1735
G01 X49.9777 Y44.2710
G01 X49.9414 Y44.3727
G01 X49.9151 Y44.4774
G01 X49.8993 Y44.5842
G01 X49.8940 Y44.6920
G01 X49.8993 Y44.7998
G01 X49.9151 Y44.9066
G01 X49.9414 Y45.0113
G01 X49.9777 Y45.1130
G01 X50.0239 Y45.2105
G01 X50.0794 Y45.3031
G01 X50.1437 Y45.3898
G01 X50.2162 Y45.4698
G01 X50.2962 Y45.5423
G01 X50.3829 Y45.6066
G01 X50.4755 Y45.6621
G01 X50.5730 Y45.7083
G01 X50.6747 Y45.7446
G01 X50.7794 Y45.7709
G01 X50.8862 Y45.7867
G01 X50.9940 Y45.7920
G01 X51.1018 Y45.7867
G01 X51.2086 Y45.7709
G01 X51.3133 Y45.7446
G01 X51.4150 Y45.7083
G01 X51.5125 Y45.6621
G01 X51.6051 Y45.6066
G01 X51.6918 Y45.5423
G01 X51.7718 Y45.4698
G01 X51.8443 Y45.3898
G01 X51.9086 Y45.3031
G01 X51.9641 Y45.2105
G01 X52.0103 Y45.1130
G01 X52.0466 Y45.0113
G01 X52.0729 Y44.9066
G01 X52.0887 Y44.7998
G01 X52.0940 Y44.6920
G00 X52.0940 Y44.6920
G01 F120.00
G01 Z-1.0000
G01 F300.00
G01 X52.0887 Y44.5842
G01 X52.0729 Y44.4774
G01 X52.0466 Y44.3727
G01 X52.0103 Y44.2710
G01 X51.9641 Y44.1735
G01 X51.9086 Y44.0809
G01 X51.8443 Y43.9942
G01 X51.7718 Y43.9142
G01 X51.6918 Y43.8417
G01 X51.6051 Y43.7774
G01 X51.5125 Y43.7219
G01 X51.4150 Y43.6757
G01 X51.3133 Y43.6394
G01 X51.2086 Y43.6131
G01 X51.1018 Y43.5973
G01 X50.9940 Y43.5920
G01 X50.8862 Y43.5973
G01 X50.7794 Y43.6131
G01 X50.6747 Y43.6394
G01 X50.5730 Y43.6757
G01 X50.4755 Y43.7219
G01 X50.3829 Y43.7774
G01 X50.2962 Y43.8417
G01 X50.2162 Y43.9142
G01 X50.1437 Y43.9942
G01 X50.0794 Y44.0809
G01 X50.0239 Y44.1735
G01 X49.9777 Y44.2710
G01 X49.9414 Y44.3727
G01 X49.9151 Y44.4774
G01 X49.8993 Y44.5842
G01 X49.8940 Y44.6920
G01 X49.8993 Y44.7998
G01 X49.9151 Y44.9066
G01 X49.9414 Y45.0113
G01 X49.9777 Y45.1130
G01 X50.0239 Y45.2105
G01 X50.0794 Y45.3031
G01 X50.1437 Y45.3898
G01 X50.2162 Y45.4698
G01 X50.2962 Y45.5423
G01 X50.3829 Y45.6066
G01 X50.4755 Y45.6621
G01 X50.5730 Y45.7083
G01 X50.6747 Y45.7446
G01 X50.7794 Y45.7709
G01 X50.8862 Y45.7867
G01 X50.9940 Y45.7920
G01 X51.1018 Y45.7867
G01 X51.2086 Y45.7709
G01 X51.3133 Y45.7446
G01 X51.4150 Y45.7083
G01 X51.5125 Y45.6621
G01 X51.6051 Y45.6066
G01 X51.6918 Y45.5423
G01 X51.7718 Y45.4698
G01 X51.8443 Y45.3898
G01 X51.9086 Y45.3031
G01 X51.9641 Y45.2105
G01 X52.0103 Y45.1130
G01 X52.0466 Y45.0113
G01 X52.0729 Y44.9066
G01 X52.0887 Y44.7998
G01 X52.0940 Y44.6920
G00 X52.0940 Y44.6920
G01 F120.00
G01 Z-1.2000
G01 F300.00
G01 X52.0887 Y44.5842
G01 X52.0729 Y44.4774
G01 X52.0466 Y44.3727
G01 X52.0103 Y44.2710
G01 X51.9641 Y44.1735
G01 X51.9086 Y44.0809
G01 X51.8443 Y43.9942
G01 X51.7718 Y43.9142
G01 X51.6918 Y43.8417
G01 X51.6051 Y43.7774
G01 X51.5125 Y43.7219
G01 X51.4150 Y43.6757
G01 X51.3133 Y43.6394
G01 X51.2086 Y43.6131
G01 X51.1018 Y43.5973
G01 X50.9940 Y43.5920
G01 X50.8862 Y43.5973
G01 X50.7794 Y43.6131
G01 X50.6747 Y43.6394
G01 X50.5730 Y43.6757
G01 X50.4755 Y43.7219
G01 X50.3829 Y43.7774
G01 X50.2962 Y43.8417
G01 X50.2162 Y43.9142
G01 X50.1437 Y43.9942
G01 X50.0794 Y44.0809
G01 X50.0239 Y44.1735
G01 X49.9777 Y44.2710
G01 X49.9414 Y44.3727
G01 X49.9151 Y44.4774
G01 X49.8993 Y44.5842
G01 X49.8940 Y44.6920
G01 X49.8993 Y44.7998
G01 X49.9151 Y44.9066
G01 X49.9414 Y45.0113
G01 X49.9777 Y45.1130
G01 X50.0239 Y45.2105
G01 X50.0794 Y45.3031
G01 X50.1437 Y45.3898
G01 X50.2162 Y45.4698
G01 X50.2962 Y45.5423
G01 X50.3829 Y45.6066
G01 X50.4755 Y45.6621
G01 X50.5730 Y45.7083
G01 X50.6747 Y45.7446
G01 X50.7794 Y45.7709
G01 X50.8862 Y45.7867
G01 X50.9940 Y45.7920
G01 X51.1018 Y45.7867
G01 X51.2086 Y45.7709
G01 X51.3133 Y45.7446
G01 X51.4150 Y45.7083
G01 X51.5125 Y45.6621
G01 X51.6051 Y45.6066
G01 X51.6918 Y45.5423
G01 X51.7718 Y45.4698
G01 X51.8443 Y45.3898
G01 X51.9086 Y45.3031
G01 X51.9641 Y45.2105
G01 X52.0103 Y45.1130
G01 X52.0466 Y45.0113
G01 X52.0729 Y44.9066
G01 X52.0887 Y44.7998
G01 X52.0940 Y44.6920
G00 X52.0940 Y44.6920
G01 F120.00
G01 Z-1.4000
G01 F300.00
G01 X52.0887 Y44.5842
G01 X52.0729 Y44.4774
G01 X52.0466 Y44.3727
G01 X52.0103 Y44.2710
G01 X51.9641 Y44.1735
G01 X51.9086 Y44.0809
G01 X51.8443 Y43.9942
G01 X51.7718 Y43.9142
G01 X51.6918 Y43.8417
G01 X51.6051 Y43.7774
G01 X51.5125 Y43.7219
G01 X51.4150 Y43.6757
G01 X51.3133 Y43.6394
G01 X51.2086 Y43.6131
G01 X51.1018 Y43.5973
G01 X50.9940 Y43.5920
G01 X50.8862 Y43.5973
G01 X50.7794 Y43.6131
G01 X50.6747 Y43.6394
G01 X50.5730 Y43.6757
G01 X50.4755 Y43.7219
G01 X50.3829 Y43.7774
G01 X50.2962 Y43.8417
G01 X50.2162 Y43.9142
G01 X50.1437 Y43.9942
G01 X50.0794 Y44.0809
G01 X50.0239 Y44.1735
G01 X49.9777 Y44.2710
G01 X49.9414 Y44.3727
G01 X49.9151 Y44.4774
G01 X49.8993 Y44.5842
G01 X49.8940 Y44.6920
G01 X49.8993 Y44.7998
G01 X49.9151 Y44.9066
G01 X49.9414 Y45.0113
G01 X49.9777 Y45.1130
G01 X50.0239 Y45.2105
G01 X50.0794 Y45.3031
G01 X50.1437 Y45.3898
G01 X50.2162 Y45.4698
G01 X50.2962 Y45.5423
G01 X50.3829 Y45.6066
G01 X50.4755 Y45.6621
G01 X50.5730 Y45.7083
G01 X50.6747 Y45.7446
G01 X50.7794 Y45.7709
G01 X50.8862 Y45.7867
G01 X50.9940 Y45.7920
G01 X51.1018 Y45.7867
G01 X51.2086 Y45.7709
G01 X51.3133 Y45.7446
G01 X51.4150 Y45.7083
G01 X51.5125 Y45.6621
G01 X51.6051 Y45.6066
G01 X51.6918 Y45.5423
G01 X51.7718 Y45.4698
G01 X51.8443 Y45.3898
G01 X51.9086 Y45.3031
G01 X51.9641 Y45.2105
G01 X52.0103 Y45.1130
G01 X52.0466 Y45.0113
G01 X52.0729 Y44.9066
G01 X52.0887 Y44.7998
G01 X52.0940 Y44.6920
G00 X52.0940 Y44.6920
G01 F120.00
G01 Z-1.6000
G01 F300.00
G01 X52.0887 Y44.5842
G01 X52.0729 Y44.4774
G01 X52.0466 Y44.3727
G01 X52.0103 Y44.2710
G01 X51.9641 Y44.1735
G01 X51.9086 Y44.0809
G01 X51.8443 Y43.9942
G01 X51.7718 Y43.9142
G01 X51.6918 Y43.8417
G01 X51.6051 Y43.7774
G01 X51.5125 Y43.7219
G01 X51.4150 Y43.6757
G01 X51.3133 Y43.6394
G01 X51.2086 Y43.6131
G01 X51.1018 Y43.5973
G01 X50.9940 Y43.5920
G01 X50.8862 Y43.5973
G01 X50.7794 Y43.6131
G01 X50.6747 Y43.6394
G01 X50.5730 Y43.6757
G01 X50.4755 Y43.7219
G01 X50.3829 Y43.7774
G01 X50.2962 Y43.8417
G01 X50.2162 Y43.9142
G01 X50.1437 Y43.9942
G01 X50.0794 Y44.0809
G01 X50.0239 Y44.1735
G01 X49.9777 Y44.2710
G01 X49.9414 Y44.3727
G01 X49.9151 Y44.4774
G01 X49.8993 Y44.5842
G01 X49.8940 Y44.6920
G01 X49.8993 Y44.7998
G01 X49.9151 Y44.9066
G01 X49.9414 Y45.0113
G01 X49.9777 Y45.1130
G01 X50.0239 Y45.2105
G01 X50.0794 Y45.3031
G01 X50.1437 Y45.3898
G01 X50.2162 Y45.4698
G01 X50.2962 Y45.5423
G01 X50.3829 Y45.6066
G01 X50.4755 Y45.6621
G01 X50.5730 Y45.7083
G01 X50.6747 Y45.7446
G01 X50.7794 Y45.7709
G01 X50.8862 Y45.7867
G01 X50.9940 Y45.7920
G01 X51.1018 Y45.7867
G01 X51.2086 Y45.7709
G01 X51.3133 Y45.7446
G01 X51.4150 Y45.7083
G01 X51.5125 Y45.6621
G01 X51.6051 Y45.6066
G01 X51.6918 Y45.5423
G01 X51.7718 Y45.4698
G01 X51.8443 Y45.3898
G01 X51.9086 Y45.3031
G01 X51.9641 Y45.2105
G01 X52.0103 Y45.1130
G01 X52.0466 Y45.0113
G01 X52.0729 Y44.9066
G01 X52.0887 Y44.7998
G01 X52.0940 Y44.6920
G00 X52.0940 Y44.6920
G01 F120.00
G01 Z-1.8000
G01 F300.00
G01 X52.0887 Y44.5842
G01 X52.0729 Y44.4774
G01 X52.0466 Y44.3727
G01 X52.0103 Y44.2710
G01 X51.9641 Y44.1735
G01 X51.9086 Y44.0809
G01 X51.8443 Y43.9942
G01 X51.7718 Y43.9142
G01 X51.6918 Y43.8417
G01 X51.6051 Y43.7774
G01 X51.5125 Y43.7219
G01 X51.4150 Y43.6757
G01 X51.3133 Y43.6394
G01 X51.2086 Y43.6131
G01 X51.1018 Y43.5973
G01 X50.9940 Y43.5920
G01 X50.8862 Y43.5973
G01 X50.7794 Y43.6131
G01 X50.6747 Y43.6394
G01 X50.5730 Y43.6757
G01 X50.4755 Y43.7219
G01 X50.3829 Y43.7774
G01 X50.2962 Y43.8417
G01 X50.2162 Y43.9142
G01 X50.1437 Y43.9942
G01 X50.0794 Y44.0809
G01 X50.0239 Y44.1735
G01 X49.9777 Y44.2710
G01 X49.9414 Y44.3727
G01 X49.9151 Y44.4774
G01 X49.8993 Y44.5842
G01 X49.8940 Y44.6920
G01 X49.8993 Y44.7998
G01 X49.9151 Y44.9066
G01 X49.9414 Y45.0113
G01 X49.9777 Y45.1130
G01 X50.0239 Y45.2105
G01 X50.0794 Y45.3031
G01 X50.1437 Y45.3898
G01 X50.2162 Y45.4698
G01 X50.2962 Y45.5423
G01 X50.3829 Y45.6066
G01 X50.4755 Y45.6621
G01 X50.5730 Y45.7083
G01 X50.6747 Y45.7446
G01 X50.7794 Y45.7709
G01 X50.8862 Y45.7867
G01 X50.9940 Y45.7920
G01 X51.1018 Y45.7867
G01 X51.2086 Y45.7709
G01 X51.3133 Y45.7446
G01 X51.4150 Y45.7083
G01 X51.5125 Y45.6621
G01 X51.6051 Y45.6066
G01 X51.6918 Y45.5423
G01 X51.7718 Y45.4698
G01 X51.8443 Y45.3898
G01 X51.9086 Y45.3031
G01 X51.9641 Y45.2105
G01 X52.0103 Y45.1130
G01 X52.0466 Y45.0113
G01 X52.0729 Y44.9066
G01 X52.0887 Y44.7998
G01 X52.0940 Y44.6920
G00 Z1.0000
G00 X68.4260 Y37.7190
G01 F120.00
G01 Z-0.2000
G01 F300.00
G01 X68.4255 Y37.7092
G01 X68.4241 Y37.6995
G01 X68.4217 Y37.6900
G01 X68.4184 Y37.6807
G01 X68.4142 Y37.6719
G01 X68.4091 Y37.6634
G01 X68.4033 Y37.6556
G01 X68.3967 Y37.6483
G01 X68.3894 Y37.6417
G01 X68.3816 Y37.6359
G01 X68.3731 Y37.6308
G01 X68.3643 Y37.6266
G01 X68.3550 Y37.6233
G01 X68.3455 Y37.6209
G01 X68.3358 Y37.6195
G01 X68.3260 Y37.6190
G01 X68.3162 Y37.6195
G01 X68.3065 Y37.6209
G01 X68.2970 Y37.6233
G01 X68.2877 Y37.6266
G01 X68.2789 Y37.6308
G01 X68.2704 Y37.6359
G01 X68.2626 Y37.6417
G01 X68.2553 Y37.6483
G01 X68.2487 Y37.6556
G01 X68.2429 Y37.6634
G01 X68.2378 Y37.6719
G01 X68.2336 Y37.6807
G01 X68.2303 Y37.6900
G01 X68.2279 Y37.6995
G01 X68.2265 Y37.7092
G01 X68.2260 Y37.7190
G01 X68.2265 Y37.7288
G01 X68.2279 Y37.7385
G01 X68.2303 Y37.7480
G01 X68.2336 Y37.7573
G01 X68.2378 Y37.7661
G01 X68.2429 Y37.7746
G01 X68.2487 Y37.7824
G01 X68.2553 Y37.7897
G01 X68.2626 Y37.7963
G01 X68.2704 Y37.8021
G01 X68.2789 Y37.8072
G01 X68.2877 Y37.8114
G01 X68.2970 Y37.8147
G01 X68.3065 Y37.8171
G01 X68.3162 Y37.8185
G01 X68.3260 Y37.8190
G01 X68.3358 Y37.8185
G01 X68.3455 Y37.8171
G01 X68.3550 Y37.8147
G01 X68.3643 Y37.8114
G01 X68.3731 Y37.8072
G01 X68.3816 Y37.8021
G01 X68.3894 Y37.7963
G01 X68.3967 Y37.7897
G01 X68.4033 Y37.7824
G01 X68.4091 Y37.7746
G01 X68.4142 Y37.7661
G01 X68.4184 Y37.7573
G01 X68.4217 Y37.7480
G01 X68.4241 Y37.7385
G01 X68.4255 Y37.7288
G01 X68.4260 Y37.7190
G00 X68.4260 Y37.7190
G01 F120.00
G01 Z-0.4000
G01 F300.00
G01 X68.4255 Y37.7092
G01 X68.4241 Y37.6995
G01 X68.4217 Y37.6900
G01 X68.4184 Y37.6807
G01 X68.4142 Y37.6719
G01 X68.4091 Y37.6634
G01 X68.4033 Y37.6556
G01 X68.3967 Y37.6483
G01 X68.3894 Y37.6417
G01 X68.3816 Y37.6359
G01 X68.3731 Y37.6308
G01 X68.3643 Y37.6266
G01 X68.3550 Y37.6233
G01 X68.3455 Y37.6209
G01 X68.3358 Y37.6195
G01 X68.3260 Y37.6190
G01 X68.3162 Y37.6195
G01 X68.3065 Y37.6209
G01 X68.2970 Y37.6233
G01 X68.2877 Y37.6266
G01 X68.2789 Y37.6308
G01 X68.2704 Y37.6359
G01 X68.2626 Y37.6417
G01 X68.2553 Y37.6483
G01 X68.2487 Y37.6556
G01 X68.2429 Y37.6634
G01 X68.2378 Y37.6719
G01 X68.2336 Y37.6807
G01 X68.2303 Y37.6900
G01 X68.2279 Y37.6995
G01 X68.2265 Y37.7092
G01 X68.2260 Y37.7190
G01 X68.2265 Y37.7288
G01 X68.2279 Y37.7385
G01 X68.2303 Y37.7480
G01 X68.2336 Y37.7573
G01 X68.2378 Y37.7661
G01 X68.2429 Y37.7746
G01 X68.2487 Y37.7824
G01 X68.2553 Y37.7897
G01 X68.2626 Y37.7963
G01 X68.2704 Y37.8021
G01 X68.2789 Y37.8072
G01 X68.2877 Y37.8114
G01 X68.2970 Y37.8147
G01 X68.3065 Y37.8171
G01 X68.3162 Y37.8185
G01 X68.3260 Y37.8190
G01 X68.3358 Y37.8185
G01 X68.3455 Y37.8171
G01 X68.3550 Y37.8147
G01 X68.3643 Y37.8114
G01 X68.3731 Y37.8072
G01 X68.3816 Y37.8021
G01 X68.3894 Y37.7963
G01 X68.3967 Y37.7897
G01 X68.4033 Y37.7824
G01 X68.4091 Y37.7746
G01 X68.4142 Y37.7661
G01 X68.4184 Y37.7573
G01 X68.4217 Y37.7480
G01 X68.4241 Y37.7385
G01 X68.4255 Y37.7288
G01 X68.4260 Y37.7190
G00 X68.4260 Y37.7190
G01 F120.00
G01 Z-0.6000
G01 F300.00
G01 X68.4255 Y37.7092
G01 X68.4241 Y37.6995
G01 X68.4217 Y37.6900
G01 X68.4184 Y37.6807
G01 X68.4142 Y37.6719
G01 X68.4091 Y37.6634
G01 X68.4033 Y37.6556
G01 X68.3967 Y37.6483
G01 X68.3894 Y37.6417
G01 X68.3816 Y37.6359
G01 X68.3731 Y37.6308
G01 X68.3643 Y37.6266
G01 X68.3550 Y37.6233
G01 X68.3455 Y37.6209
G01 X68.3358 Y37.6195
G01 X68.3260 Y37.6190
G01 X68.3162 Y37.6195
G01 X68.3065 Y37.6209
G01 X68.2970 Y37.6233
G01 X68.2877 Y37.6266
G01 X68.2789 Y37.6308
G01 X68.2704 Y37.6359
G01 X68.2626 Y37.6417
G01 X68.2553 Y37.6483
G01 X68.2487 Y37.6556
G01 X68.2429 Y37.6634
G01 X68.2378 Y37.6719
G01 X68.2336 Y37.6807
G01 X68.2303 Y37.6900
G01 X68.2279 Y37.6995
G01 X68.2265 Y37.7092
G01 X68.2260 Y37.7190
G01 X68.2265 Y37.7288
G01 X68.2279 Y37.7385
G01 X68.2303 Y37.7480
G01 X68.2336 Y37.7573
G01 X68.2378 Y37.7661
G01 X68.2429 Y37.7746
G01 X68.2487 Y37.7824
G01 X68.2553 Y37.7897
G01 X68.2626 Y37.7963
G01 X68.2704 Y37.8021
G01 X68.2789 Y37.8072
G01 X68.2877 Y37.8114
G01 X68.2970 Y37.8147
G01 X68.3065 Y37.8171
G01 X68.3162 Y37.8185
G01 X68.3260 Y37.8190
G01 X68.3358 Y37.8185
G01 X68.3455 Y37.8171
G01 X68.3550 Y37.8147
G01 X68.3643 Y37.8114
G01 X68.3731 Y37.8072
G01 X68.3816 Y37.8021
G01 X68.3894 Y37.7963
G01 X68.3967 Y37.7897
G01 X68.4033 Y37.7824
G01 X68.4091 Y37.7746
G01 X68.4142 Y37.7661
G01 X68.4184 Y37.7573
G01 X68.4217 Y37.7480
G01 X68.4241 Y37.7385
G01 X68.4255 Y37.7288
G01 X68.4260 Y37.7190
G00 X68.4260 Y37.7190
G01 F120.00
G01 Z-0.8000
G01 F300.00
G01 X68.4255 Y37.7092
G01 X68.4241 Y37.6995
G01 X68.4217 Y37.6900
G01 X68.4184 Y37.6807
G01 X68.4142 Y37.6719
G01 X68.4091 Y37.6634
G01 X68.4033 Y37.6556
G01 X68.3967 Y37.6483
G01 X68.3894 Y37.6417
G01 X68.3816 Y37.6359
G01 X68.3731 Y37.6308
G01 X68.3643 Y37.6266
G01 X68.3550 Y37.6233
G01 X68.3455 Y37.6209
G01 X68.3358 Y37.6195
G01 X68.3260 Y37.6190
G01 X68.3162 Y37.6195
G01 X68.3065 Y37.6209
G01 X68.2970 Y37.6233
G01 X68.2877 Y37.6266
G01 X68.2789 Y37.6308
G01 X68.2704 Y37.6359
G01 X68.2626 Y37.6417
G01 X68.2553 Y37.6483
G01 X68.2487 Y37.6556
G01 X68.2429 Y37.6634
G01 X68.2378 Y37.6719
G01 X68.2336 Y37.6807
G01 X68.2303 Y37.6900
G01 X68.2279 Y37.6995
G01 X68.2265 Y37.7092
G01 X68.2260 Y37.7190
G01 X68.2265 Y37.7288
G01 X68.2279 Y37.7385
G01 X68.2303 Y37.7480
G01 X68.2336 Y37.7573
G01 X68.2378 Y37.7661
G01 X68.2429 Y37.7746
G01 X68.2487 Y37.7824
G01 X68.2553 Y37.7897
G01 X68.2626 Y37.7963
G01 X68.2704 Y37.8021
G01 X68.2789 Y37.8072
G01 X68.2877 Y37.8114
G01 X68.2970 Y37.8147
G01 X68.3065 Y37.8171
G01 X68.3162 Y37.8185
G01 X68.3260 Y37.8190
G01 X68.3358 Y37.8185
G01 X68.3455 Y37.8171
G01 X68.3550 Y37.8147
G01 X68.3643 Y37.8114
G01 X68.3731 Y37.8072
G01 X68.3816 Y37.8021
G01 X68.3894 Y37.7963
G01 X68.3967 Y37.7897
G01 X68.4033 Y37.7824
G01 X68.4091 Y37.7746
G01 X68.4142 Y37.7661
G01 X68.4184 Y37.7573
G01 X68.4217 Y37.7480
G01 X68.4241 Y37.7385
G01 X68.4255 Y37.7288
G01 X68.4260 Y37.7190
G00 X68.4260 Y37.7190
G01 F120.00
G01 Z-1.0000
G01 F300.00
G01 X68.4255 Y37.7092
G01 X68.4241 Y37.6995
G01 X68.4217 Y37.6900
G01 X68.4184 Y37.6807
G01 X68.4142 Y37.6719
G01 X68.4091 Y37.6634
G01 X68.4033 Y37.6556
G01 X68.3967 Y37.6483
G01 X68.3894 Y37.6417
G01 X68.3816 Y37.6359
G01 X68.3731 Y37.6308
G01 X68.3643 Y37.6266
G01 X68.3550 Y37.6233
G01 X68.3455 Y37.6209
G01 X68.3358 Y37.6195
G01 X68.3260 Y37.6190
G01 X68.3162 Y37.6195
G01 X68.3065 Y37.6209
G01 X68.2970 Y37.6233
G01 X68.2877 Y37.6266
G01 X68.2789 Y37.6308
G01 X68.2704 Y37.6359
G01 X68.2626 Y37.6417
G01 X68.2553 Y37.6483
G01 X68.2487 Y37.6556
G01 X68.2429 Y37.6634
G01 X68.2378 Y37.6719
G01 X68.2336 Y37.6807
G01 X68.2303 Y37.6900
G01 X68.2279 Y37.6995
G01 X68.2265 Y37.7092
G01 X68.2260 Y37.7190
G01 X68.2265 Y37.7288
G01 X68.2279 Y37.7385
G01 X68.2303 Y37.7480
G01 X68.2336 Y37.7573
G01 X68.2378 Y37.7661
G01 X68.2429 Y37.7746
G01 X68.2487 Y37.7824
G01 X68.2553 Y37.7897
G01 X68.2626 Y37.7963
G01 X68.2704 Y37.8021
G01 X68.2789 Y37.8072
G01 X68.2877 Y37.8114
G01 X68.2970 Y37.8147
G01 X68.3065 Y37.8171
G01 X68.3162 Y37.8185
G01 X68.3260 Y37.8190
G01 X68.3358 Y37.8185
G01 X68.3455 Y37.8171
G01 X68.3550 Y37.8147
G01 X68.3643 Y37.8114
G01 X68.3731 Y37.8072
G01 X68.3816 Y37.8021
G01 X68.3894 Y37.7963
G01 X68.3967 Y37.7897
G01 X68.4033 Y37.7824
G01 X68.4091 Y37.7746
G01 X68.4142 Y37.7661
G01 X68.4184 Y37.7573
G01 X68.4217 Y37.7480
G01 X68.4241 Y37.7385
G01 X68.4255 Y37.7288
G01 X68.4260 Y37.7190
G00 X68.4260 Y37.7190
G01 F120.00
G01 Z-1.2000
G01 F300.00
G01 X68.4255 Y37.7092
G01 X68.4241 Y37.6995
G01 X68.4217 Y37.6900
G01 X68.4184 Y37.6807
G01 X68.4142 Y37.6719
G01 X68.4091 Y37.6634
G01 X68.4033 Y37.6556
G01 X68.3967 Y37.6483
G01 X68.3894 Y37.6417
G01 X68.3816 Y37.6359
G01 X68.3731 Y37.6308
G01 X68.3643 Y37.6266
G01 X68.3550 Y37.6233
G01 X68.3455 Y37.6209
G01 X68.3358 Y37.6195
G01 X68.3260 Y37.6190
G01 X68.3162 Y37.6195
G01 X68.3065 Y37.6209
G01 X68.2970 Y37.6233
G01 X68.2877 Y37.6266
G01 X68.2789 Y37.6308
G01 X68.2704 Y37.6359
G01 X68.2626 Y37.6417
G01 X68.2553 Y37.6483
G01 X68.2487 Y37.6556
G01 X68.2429 Y37.6634
G01 X68.2378 Y37.6719
G01 X68.2336 Y37.6807
G01 X68.2303 Y37.6900
G01 X68.2279 Y37.6995
G01 X68.2265 Y37.7092
G01 X68.2260 Y37.7190
G01 X68.2265 Y37.7288
G01 X68.2279 Y37.7385
G01 X68.2303 Y37.7480
G01 X68.2336 Y37.7573
G01 X68.2378 Y37.7661
G01 X68.2429 Y37.7746
G01 X68.2487 Y37.7824
G01 X68.2553 Y37.7897
G01 X68.2626 Y37.7963
G01 X68.2704 Y37.8021
G01 X68.2789 Y37.8072
G01 X68.2877 Y37.8114
G01 X68.2970 Y37.8147
G01 X68.3065 Y37.8171
G01 X68.3162 Y37.8185
G01 X68.3260 Y37.8190
G01 X68.3358 Y37.8185
G01 X68.3455 Y37.8171
G01 X68.3550 Y37.8147
G01 X68.3643 Y37.8114
G01 X68.3731 Y37.8072
G01 X68.3816 Y37.8021
G01 X68.3894 Y37.7963
G01 X68.3967 Y37.7897
G01 X68.4033 Y37.7824
G01 X68.4091 Y37.7746
G01 X68.4142 Y37.7661
G01 X68.4184 Y37.7573
G01 X68.4217 Y37.7480
G01 X68.4241 Y37.7385
G01 X68.4255 Y37.7288
G01 X68.4260 Y37.7190
G00 X68.4260 Y37.7190
G01 F120.00
G01 Z-1.4000
G01 F300.00
G01 X68.4255 Y37.7092
G01 X68.4241 Y37.6995
G01 X68.4217 Y37.6900
G01 X68.4184 Y37.6807
G01 X68.4142 Y37.6719
G01 X68.4091 Y37.6634
G01 X68.4033 Y37.6556
G01 X68.3967 Y37.6483
G01 X68.3894 Y37.6417
G01 X68.3816 Y37.6359
G01 X68.3731 Y37.6308
G01 X68.3643 Y37.6266
G01 X68.3550 Y37.6233
G01 X68.3455 Y37.6209
G01 X68.3358 Y37.6195
G01 X68.3260 Y37.6190
G01 X68.3162 Y37.6195
G01 X68.3065 Y37.6209
G01 X68.2970 Y37.6233
G01 X68.2877 Y37.6266
G01 X68.2789 Y37.6308
G01 X68.2704 Y37.6359
G01 X68.2626 Y37.6417
G01 X68.2553 Y37.6483
G01 X68.2487 Y37.6556
G01 X68.2429 Y37.6634
G01 X68.2378 Y37.6719
G01 X68.2336 Y37.6807
G01 X68.2303 Y37.6900
G01 X68.2279 Y37.6995
G01 X68.2265 Y37.7092
G01 X68.2260 Y37.7190
G01 X68.2265 Y37.7288
G01 X68.2279 Y37.7385
G01 X68.2303 Y37.7480
G01 X68.2336 Y37.7573
G01 X68.2378 Y37.7661
G01 X68.2429 Y37.7746
G01 X68.2487 Y37.7824
G01 X68.2553 Y37.7897
G01 X68.2626 Y37.7963
G01 X68.2704 Y37.8021
G01 X68.2789 Y37.8072
G01 X68.2877 Y37.8114
G01 X68.2970 Y37.8147
G01 X68.3065 Y37.8171
G01 X68.3162 Y37.8185
G01 X68.3260 Y37.8190
G01 X68.3358 Y37.8185
G01 X68.3455 Y37.8171
G01 X68.3550 Y37.8147
G01 X68.3643 Y37.8114
G01 X68.3731 Y37.8072
G01 X68.3816 Y37.8021
G01 X68.3894 Y37.7963
G01 X68.3967 Y37.7897
G01 X68.4033 Y37.7824
G01 X68.4091 Y37.7746
G01 X68.4142 Y37.7661
G01 X68.4184 Y37.7573
G01 X68.4217 Y37.7480
G01 X68.4241 Y37.7385
G01 X68.4255 Y37.7288
G01 X68.4260 Y37.7190
G00 X68.4260 Y37.7190
G01 F120.00
G01 Z-1.6000
G01 F300.00
G01 X68.4255 Y37.7092
G01 X68.4241 Y37.6995
G01 X68.4217 Y37.6900
G01 X68.4184 Y37.6807
G01 X68.4142 Y37.6719
G01 X68.4091 Y37.6634
G01 X68.4033 Y37.6556
G01 X68.3967 Y37.6483
G01 X68.3894 Y37.6417
G01 X68.3816 Y37.6359
G01 X68.3731 Y37.6308
G01 X68.3643 Y37.6266
G01 X68.3550 Y37.6233
G01 X68.3455 Y37.6209
G01 X68.3358 Y37.6195
G01 X68.3260 Y37.6190
G01 X68.3162 Y37.6195
G01 X68.3065 Y37.6209
G01 X68.2970 Y37.6233
G01 X68.2877 Y37.6266
G01 X68.2789 Y37.6308
G01 X68.2704 Y37.6359
G01 X68.2626 Y37.6417
G01 X68.2553 Y37.6483
G01 X68.2487 Y37.6556
G01 X68.2429 Y37.6634
G01 X68.2378 Y37.6719
G01 X68.2336 Y37.6807
G01 X68.2303 Y37.6900
G01 X68.2279 Y37.6995
G01 X68.2265 Y37.7092
G01 X68.2260 Y37.7190
G01 X68.2265 Y37.7288
G01 X68.2279 Y37.7385
G01 X68.2303 Y37.7480
G01 X68.2336 Y37.7573
G01 X68.2378 Y37.7661
G01 X68.2429 Y37.7746
G01 X68.2487 Y37.7824
G01 X68.2553 Y37.7897
G01 X68.2626 Y37.7963
G01 X68.2704 Y37.8021
G01 X68.2789 Y37.8072
G01 X68.2877 Y37.8114
G01 X68.2970 Y37.8147
G01 X68.3065 Y37.8171
G01 X68.3162 Y37.8185
G01 X68.3260 Y37.8190
G01 X68.3358 Y37.8185
G01 X68.3455 Y37.8171
G01 X68.3550 Y37.8147
G01 X68.3643 Y37.8114
G01 X68.3731 Y37.8072
G01 X68.3816 Y37.8021
G01 X68.3894 Y37.7963
G01 X68.3967 Y37.7897
G01 X68.4033 Y37.7824
G01 X68.4091 Y37.7746
G01 X68.4142 Y37.7661
G01 X68.4184 Y37.7573
G01 X68.4217 Y37.7480
G01 X68.4241 Y37.7385
G01 X68.4255 Y37.7288
G01 X68.4260 Y37.7190
G00 X68.4260 Y37.7190
G01 F120.00
G01 Z-1.8000
G01 F300.00
G01 X68.4255 Y37.7092
G01 X68.4241 Y37.6995
G01 X68.4217 Y37.6900
G01 X68.4184 Y37.6807
G01 X68.4142 Y37.6719
G01 X68.4091 Y37.6634
G01 X68.4033 Y37.6556
G01 X68.3967 Y37.6483
G01 X68.3894 Y37.6417
G01 X68.3816 Y37.6359
G01 X68.3731 Y37.6308
G01 X68.3643 Y37.6266
G01 X68.3550 Y37.6233
G01 X68.3455 Y37.6209
G01 X68.3358 Y37.6195
G01 X68.3260 Y37.6190
G01 X68.3162 Y37.6195
G01 X68.3065 Y37.6209
G01 X68.2970 Y37.6233
G01 X68.2877 Y37.6266
G01 X68.2789 Y37.6308
G01 X68.2704 Y37.6359
G01 X68.2626 Y37.6417
G01 X68.2553 Y37.6483
G01 X68.2487 Y37.6556
G01 X68.2429 Y37.6634
G01 X68.2378 Y37.6719
G01 X68.2336 Y37.6807
G01 X68.2303 Y37.6900
G01 X68.2279 Y37.6995
G01 X68.2265 Y37.7092
G01 X68.2260 Y37.7190
G01 X68.2265 Y37.7288
G01 X68.2279 Y37.7385
G01 X68.2303 Y37.7480
G01 X68.2336 Y37.7573
G01 X68.2378 Y37.7661
G01 X68.2429 Y37.7746
G01 X68.2487 Y37.7824
G01 X68.2553 Y37.7897
G01 X68.2626 Y37.7963
G01 X68.2704 Y37.8021
G01 X68.2789 Y37.8072
G01 X68.2877 Y37.8114
G01 X68.2970 Y37.8147
G01 X68.3065 Y37.8171
G01 X68.3162 Y37.8185
G01 X68.3260 Y37.8190
G01 X68.3358 Y37.8185
G01 X68.3455 Y37.8171
G01 X68.3550 Y37.8147
G01 X68.3643 Y37.8114
G01 X68.3731 Y37.8072
G01 X68.3816 Y37.8021
G01 X68.3894 Y37.7963
G01 X68.3967 Y37.7897
G01 X68.4033 Y37.7824
G01 X68.4091 Y37.7746
G01 X68.4142 Y37.7661
G01 X68.4184 Y37.7573
G01 X68.4217 Y37.7480
G01 X68.4241 Y37.7385
G01 X68.4255 Y37.7288
G01 X68.4260 Y37.7190
G00 Z1.0000
G00 X68.4260 Y35.1790
G01 F120.00
G01 Z-0.2000
G01 F300.00
G01 X68.4255 Y35.1692
G01 X68.4241 Y35.1595
G01 X68.4217 Y35.1500
G01 X68.4184 Y35.1407
G01 X68.4142 Y35.1319
G01 X68.4091 Y35.1234
G01 X68.4033 Y35.1156
G01 X68.3967 Y35.1083
G01 X68.3894 Y35.1017
G01 X68.3816 Y35.0959
G01 X68.3731 Y35.0908
G01 X68.3643 Y35.0866
G01 X68.3550 Y35.0833
G01 X68.3455 Y35.0809
G01 X68.3358 Y35.0795
G01 X68.3260 Y35.0790
G01 X68.3162 Y35.0795
G01 X68.3065 Y35.0809
G01 X68.2970 Y35.0833
G01 X68.2877 Y35.0866
G01 X68.2789 Y35.0908
G01 X68.2704 Y35.0959
G01 X68.2626 Y35.1017
G01 X68.2553 Y35.1083
G01 X68.2487 Y35.1156
G01 X68.2429 Y35.1234
G01 X68.2378 Y35.1319
G01 X68.2336 Y35.1407
G01 X68.2303 Y35.1500
G01 X68.2279 Y35.1595
G01 X68.2265 Y35.1692
G01 X68.2260 Y35.1790
G01 X68.2265 Y35.1888
G01 X68.2279 Y35.1985
G01 X68.2303 Y35.2080
G01 X68.2336 Y35.2173
G01 X68.2378 Y35.2261
G01 X68.2429 Y35.2346
G01 X68.2487 Y35.2424
G01 X68.2553 Y35.2497
G01 X68.2626 Y35.2563
G01 X68.2704 Y35.2621
G01 X68.2789 Y35.2672
G01 X68.2877 Y35.2714
G01 X68.2970 Y35.2747
G01 X68.3065 Y35.2771
G01 X68.3162 Y35.2785
G01 X68.3260 Y35.2790
G01 X68.3358 Y35.2785
G01 X68.3455 Y35.2771
G01 X68.3550 Y35.2747
G01 X68.3643 Y35.2714
G01 X68.3731 Y35.2672
G01 X68.3816 Y35.2621
G01 X68.3894 Y35.2563
G01 X68.3967 Y35.2497
G01 X68.4033 Y35.2424
G01 X68.4091 Y35.2346
G01 X68.4142 Y35.2261
G01 X68.4184 Y35.2173
G01 X68.4217 Y35.2080
G01 X68.4241 Y35.1985
G01 X68.4255 Y35.1888
G01 X68.4260 Y35.1790
G00 X68.4260 Y35.1790
G01 F120.00
G01 Z-0.4000
G01 F300.00
G01 X68.4255 Y35.1692
G01 X68.4241 Y35.1595
G01 X68.4217 Y35.1500
G01 X68.4184 Y35.1407
G01 X68.4142 Y35.1319
G01 X68.4091 Y35.1234
G01 X68.4033 Y35.1156
G01 X68.3967 Y35.1083
G01 X68.3894 Y35.1017
G01 X68.3816 Y35.0959
G01 X68.3731 Y35.0908
G01 X68.3643 Y35.0866
G01 X68.3550 Y35.0833
G01 X68.3455 Y35.0809
G01 X68.3358 Y35.0795
G01 X68.3260 Y35.0790
G01 X68.3162 Y35.0795
G01 X68.3065 Y35.0809
G01 X68.2970 Y35.0833
G01 X68.2877 Y35.0866
G01 X68.2789 Y35.0908
G01 X68.2704 Y35.0959
G01 X68.2626 Y35.1017
G01 X68.2553 Y35.1083
G01 X68.2487 Y35.1156
G01 X68.2429 Y35.1234
G01 X68.2378 Y35.1319
G01 X68.2336 Y35.1407
G01 X68.2303 Y35.1500
G01 X68.2279 Y35.1595
G01 X68.2265 Y35.1692
G01 X68.2260 Y35.1790
G01 X68.2265 Y35.1888
G01 X68.2279 Y35.1985
G01 X68.2303 Y35.2080
G01 X68.2336 Y35.2173
G01 X68.2378 Y35.2261
G01 X68.2429 Y35.2346
G01 X68.2487 Y35.2424
G01 X68.2553 Y35.2497
G01 X68.2626 Y35.2563
G01 X68.2704 Y35.2621
G01 X68.2789 Y35.2672
G01 X68.2877 Y35.2714
G01 X68.2970 Y35.2747
G01 X68.3065 Y35.2771
G01 X68.3162 Y35.2785
G01 X68.3260 Y35.2790
G01 X68.3358 Y35.2785
G01 X68.3455 Y35.2771
G01 X68.3550 Y35.2747
G01 X68.3643 Y35.2714
G01 X68.3731 Y35.2672
G01 X68.3816 Y35.2621
G01 X68.3894 Y35.2563
G01 X68.3967 Y35.2497
G01 X68.4033 Y35.2424
G01 X68.4091 Y35.2346
G01 X68.4142 Y35.2261
G01 X68.4184 Y35.2173
G01 X68.4217 Y35.2080
G01 X68.4241 Y35.1985
G01 X68.4255 Y35.1888
G01 X68.4260 Y35.1790
G00 X68.4260 Y35.1790
G01 F120.00
G01 Z-0.6000
G01 F300.00
G01 X68.4255 Y35.1692
G01 X68.4241 Y35.1595
G01 X68.4217 Y35.1500
G01 X68.4184 Y35.1407
G01 X68.4142 Y35.1319
G01 X68.4091 Y35.1234
G01 X68.4033 Y35.1156
G01 X68.3967 Y35.1083
G01 X68.3894 Y35.1017
G01 X68.3816 Y35.0959
G01 X68.3731 Y35.0908
G01 X68.3643 Y35.0866
G01 X68.3550 Y35.0833
G01 X68.3455 Y35.0809
G01 X68.3358 Y35.0795
G01 X68.3260 Y35.0790
G01 X68.3162 Y35.0795
G01 X68.3065 Y35.0809
G01 X68.2970 Y35.0833
G01 X68.2877 Y35.0866
G01 X68.2789 Y35.0908
G01 X68.2704 Y35.0959
G01 X68.2626 Y35.1017
G01 X68.2553 Y35.1083
G01 X68.2487 Y35.1156
G01 X68.2429 Y35.1234
G01 X68.2378 Y35.1319
G01 X68.2336 Y35.1407
G01 X68.2303 Y35.1500
G01 X68.2279 Y35.1595
G01 X68.2265 Y35.1692
G01 X68.2260 Y35.1790
G01 X68.2265 Y35.1888
G01 X68.2279 Y35.1985
G01 X68.2303 Y35.2080
G01 X68.2336 Y35.2173
G01 X68.2378 Y35.2261
G01 X68.2429 Y35.2346
G01 X68.2487 Y35.2424
G01 X68.2553 Y35.2497
G01 X68.2626 Y35.2563
G01 X68.2704 Y35.2621
G01 X68.2789 Y35.2672
G01 X68.2877 Y35.2714
G01 X68.2970 Y35.2747
G01 X68.3065 Y35.2771
G01 X68.3162 Y35.2785
G01 X68.3260 Y35.2790
G01 X68.3358 Y35.2785
G01 X68.3455 Y35.2771
G01 X68.3550 Y35.2747
G01 X68.3643 Y35.2714
G01 X68.3731 Y35.2672
G01 X68.3816 Y35.2621
G01 X68.3894 Y35.2563
G01 X68.3967 Y35.2497
G01 X68.4033 Y35.2424
G01 X68.4091 Y35.2346
G01 X68.4142 Y35.2261
G01 X68.4184 Y35.2173
G01 X68.4217 Y35.2080
G01 X68.4241 Y35.1985
G01 X68.4255 Y35.1888
G01 X68.4260 Y35.1790
G00 X68.4260 Y35.1790
G01 F120.00
G01 Z-0.8000
G01 F300.00
G01 X68.4255 Y35.1692
G01 X68.4241 Y35.1595
G01 X68.4217 Y35.1500
G01 X68.4184 Y35.1407
G01 X68.4142 Y35.1319
G01 X68.4091 Y35.1234
G01 X68.4033 Y35.1156
G01 X68.3967 Y35.1083
G01 X68.3894 Y35.1017
G01 X68.3816 Y35.0959
G01 X68.3731 Y35.0908
G01 X68.3643 Y35.0866
G01 X68.3550 Y35.0833
G01 X68.3455 Y35.0809
G01 X68.3358 Y35.0795
G01 X68.3260 Y35.0790
G01 X68.3162 Y35.0795
G01 X68.3065 Y35.0809
G01 X68.2970 Y35.0833
G01 X68.2877 Y35.0866
G01 X68.2789 Y35.0908
G01 X68.2704 Y35.0959
G01 X68.2626 Y35.1017
G01 X68.2553 Y35.1083
G01 X68.2487 Y35.1156
G01 X68.2429 Y35.1234
G01 X68.2378 Y35.1319
G01 X68.2336 Y35.1407
G01 X68.2303 Y35.1500
G01 X68.2279 Y35.1595
G01 X68.2265 Y35.1692
G01 X68.2260 Y35.1790
G01 X68.2265 Y35.1888
G01 X68.2279 Y35.1985
G01 X68.2303 Y35.2080
G01 X68.2336 Y35.2173
G01 X68.2378 Y35.2261
G01 X68.2429 Y35.2346
G01 X68.2487 Y35.2424
G01 X68.2553 Y35.2497
G01 X68.2626 Y35.2563
G01 X68.2704 Y35.2621
G01 X68.2789 Y35.2672
G01 X68.2877 Y35.2714
G01 X68.2970 Y35.2747
G01 X68.3065 Y35.2771
G01 X68.3162 Y35.2785
G01 X68.3260 Y35.2790
G01 X68.3358 Y35.2785
G01 X68.3455 Y35.2771
G01 X68.3550 Y35.2747
G01 X68.3643 Y35.2714
G01 X68.3731 Y35.2672
G01 X68.3816 Y35.2621
G01 X68.3894 Y35.2563
G01 X68.3967 Y35.2497
G01 X68.4033 Y35.2424
G01 X68.4091 Y35.2346
G01 X68.4142 Y35.2261
G01 X68.4184 Y35.2173
G01 X68.4217 Y35.2080
G01 X68.4241 Y35.1985
G01 X68.4255 Y35.1888
G01 X68.4260 Y35.1790
G00 X68.4260 Y35.1790
G01 F120.00
G01 Z-1.0000
G01 F300.00
G01 X68.4255 Y35.1692
G01 X68.4241 Y35.1595
G01 X68.4217 Y35.1500
G01 X68.4184 Y35.1407
G01 X68.4142 Y35.1319
G01 X68.4091 Y35.1234
G01 X68.4033 Y35.1156
G01 X68.3967 Y35.1083
G01 X68.3894 Y35.1017
G01 X68.3816 Y35.0959
G01 X68.3731 Y35.0908
G01 X68.3643 Y35.0866
G01 X68.3550 Y35.0833
G01 X68.3455 Y35.0809
G01 X68.3358 Y35.0795
G01 X68.3260 Y35.0790
G01 X68.3162 Y35.0795
G01 X68.3065 Y35.0809
G01 X68.2970 Y35.0833
G01 X68.2877 Y35.0866
G01 X68.2789 Y35.0908
G01 X68.2704 Y35.0959
G01 X68.2626 Y35.1017
G01 X68.2553 Y35.1083
G01 X68.2487 Y35.1156
G01 X68.2429 Y35.1234
G01 X68.2378 Y35.1319
G01 X68.2336 Y35.1407
G01 X68.2303 Y35.1500
G01 X68.2279 Y35.1595
G01 X68.2265 Y35.1692
G01 X68.2260 Y35.1790
G01 X68.2265 Y35.1888
G01 X68.2279 Y35.1985
G01 X68.2303 Y35.2080
G01 X68.2336 Y35.2173
G01 X68.2378 Y35.2261
G01 X68.2429 Y35.2346
G01 X68.2487 Y35.2424
G01 X68.2553 Y35.2497
G01 X68.2626 Y35.2563
G01 X68.2704 Y35.2621
G01 X68.2789 Y35.2672
G01 X68.2877 Y35.2714
G01 X68.2970 Y35.2747
G01 X68.3065 Y35.2771
G01 X68.3162 Y35.2785
G01 X68.3260 Y35.2790
G01 X68.3358 Y35.2785
G01 X68.3455 Y35.2771
G01 X68.3550 Y35.2747
G01 X68.3643 Y35.2714
G01 X68.3731 Y35.2672
G01 X68.3816 Y35.2621
G01 X68.3894 Y35.2563
G01 X68.3967 Y35.2497
G01 X68.4033 Y35.2424
G01 X68.4091 Y35.2346
G01 X68.4142 Y35.2261
G01 X68.4184 Y35.2173
G01 X68.4217 Y35.2080
G01 X68.4241 Y35.1985
G01 X68.4255 Y35.1888
G01 X68.4260 Y35.1790
G00 X68.4260 Y35.1790
G01 F120.00
G01 Z-1.2000
G01 F300.00
G01 X68.4255 Y35.1692
G01 X68.4241 Y35.1595
G01 X68.4217 Y35.1500
G01 X68.4184 Y35.1407
G01 X68.4142 Y35.1319
G01 X68.4091 Y35.1234
G01 X68.4033 Y35.1156
G01 X68.3967 Y35.1083
G01 X68.3894 Y35.1017
G01 X68.3816 Y35.0959
G01 X68.3731 Y35.0908
G01 X68.3643 Y35.0866
G01 X68.3550 Y35.0833
G01 X68.3455 Y35.0809
G01 X68.3358 Y35.0795
G01 X68.3260 Y35.0790
G01 X68.3162 Y35.0795
G01 X68.3065 Y35.0809
G01 X68.2970 Y35.0833
G01 X68.2877 Y35.0866
G01 X68.2789 Y35.0908
G01 X68.2704 Y35.0959
G01 X68.2626 Y35.1017
G01 X68.2553 Y35.1083
G01 X68.2487 Y35.1156
G01 X68.2429 Y35.1234
G01 X68.2378 Y35.1319
G01 X68.2336 Y35.1407
G01 X68.2303 Y35.1500
G01 X68.2279 Y35.1595
G01 X68.2265 Y35.1692
G01 X68.2260 Y35.1790
G01 X68.2265 Y35.1888
G01 X68.2279 Y35.1985
G01 X68.2303 Y35.2080
G01 X68.2336 Y35.2173
G01 X68.2378 Y35.2261
G01 X68.2429 Y35.2346
G01 X68.2487 Y35.2424
G01 X68.2553 Y35.2497
G01 X68.2626 Y35.2563
G01 X68.2704 Y35.2621
G01 X68.2789 Y35.2672
G01 X68.2877 Y35.2714
G01 X68.2970 Y35.2747
G01 X68.3065 Y35.2771
G01 X68.3162 Y35.2785
G01 X68.3260 Y35.2790
G01 X68.3358 Y35.2785
G01 X68.3455 Y35.2771
G01 X68.3550 Y35.2747
G01 X68.3643 Y35.2714
G01 X68.3731 Y35.2672
G01 X68.3816 Y35.2621
G01 X68.3894 Y35.2563
G01 X68.3967 Y35.2497
G01 X68.4033 Y35.2424
G01 X68.4091 Y35.2346
G01 X68.4142 Y35.2261
G01 X68.4184 Y35.2173
G01 X68.4217 Y35.2080
G01 X68.4241 Y35.1985
G01 X68.4255 Y35.1888
G01 X68.4260 Y35.1790
G00 X68.4260 Y35.1790
G01 F120.00
G01 Z-1.4000
G01 F300.00
G01 X68.4255 Y35.1692
G01 X68.4241 Y35.1595
G01 X68.4217 Y35.1500
G01 X68.4184 Y35.1407
G01 X68.4142 Y35.1319
G01 X68.4091 Y35.1234
G01 X68.4033 Y35.1156
G01 X68.3967 Y35.1083
G01 X68.3894 Y35.1017
G01 X68.3816 Y35.0959
G01 X68.3731 Y35.0908
G01 X68.3643 Y35.0866
G01 X68.3550 Y35.0833
G01 X68.3455 Y35.0809
G01 X68.3358 Y35.0795
G01 X68.3260 Y35.0790
G01 X68.3162 Y35.0795
G01 X68.3065 Y35.0809
G01 X68.2970 Y35.0833
G01 X68.2877 Y35.0866
G01 X68.2789 Y35.0908
G01 X68.2704 Y35.0959
G01 X68.2626 Y35.1017
G01 X68.2553 Y35.1083
G01 X68.2487 Y35.1156
G01 X68.2429 Y35.1234
G01 X68.2378 Y35.1319
G01 X68.2336 Y35.1407
G01 X68.2303 Y35.1500
G01 X68.2279 Y35.1595
G01 X68.2265 Y35.1692
G01 X68.2260 Y35.1790
G01 X68.2265 Y35.1888
G01 X68.2279 Y35.1985
G01 X68.2303 Y35.2080
G01 X68.2336 Y35.2173
G01 X68.2378 Y35.2261
G01 X68.2429 Y35.2346
G01 X68.2487 Y35.2424
G01 X68.2553 Y35.2497
G01 X68.2626 Y35.2563
G01 X68.2704 Y35.2621
G01 X68.2789 Y35.2672
G01 X68.2877 Y35.2714
G01 X68.2970 Y35.2747
G01 X68.3065 Y35.2771
G01 X68.3162 Y35.2785
G01 X68.3260 Y35.2790
G01 X68.3358 Y35.2785
G01 X68.3455 Y35.2771
G01 X68.3550 Y35.2747
G01 X68.3643 Y35.2714
G01 X68.3731 Y35.2672
G01 X68.3816 Y35.2621
G01 X68.3894 Y35.2563
G01 X68.3967 Y35.2497
G01 X68.4033 Y35.2424
G01 X68.4091 Y35.2346
G01 X68.4142 Y35.2261
G01 X68.4184 Y35.2173
G01 X68.4217 Y35.2080
G01 X68.4241 Y35.1985
G01 X68.4255 Y35.1888
G01 X68.4260 Y35.1790
G00 X68.4260 Y35.1790
G01 F120.00
G01 Z-1.6000
G01 F300.00
G01 X68.4255 Y35.1692
G01 X68.4241 Y35.1595
G01 X68.4217 Y35.1500
G01 X68.4184 Y35.1407
G01 X68.4142 Y35.1319
G01 X68.4091 Y35.1234
G01 X68.4033 Y35.1156
G01 X68.3967 Y35.1083
G01 X68.3894 Y35.1017
G01 X68.3816 Y35.0959
G01 X68.3731 Y35.0908
G01 X68.3643 Y35.0866
G01 X68.3550 Y35.0833
G01 X68.3455 Y35.0809
G01 X68.3358 Y35.0795
G01 X68.3260 Y35.0790
G01 X68.3162 Y35.0795
G01 X68.3065 Y35.0809
G01 X68.2970 Y35.0833
G01 X68.2877 Y35.0866
G01 X68.2789 Y35.0908
G01 X68.2704 Y35.0959
G01 X68.2626 Y35.1017
G01 X68.2553 Y35.1083
G01 X68.2487 Y35.1156
G01 X68.2429 Y35.1234
G01 X68.2378 Y35.1319
G01 X68.2336 Y35.1407
G01 X68.2303 Y35.1500
G01 X68.2279 Y35.1595
G01 X68.2265 Y35.1692
G01 X68.2260 Y35.1790
G01 X68.2265 Y35.1888
G01 X68.2279 Y35.1985
G01 X68.2303 Y35.2080
G01 X68.2336 Y35.2173
G01 X68.2378 Y35.2261
G01 X68.2429 Y35.2346
G01 X68.2487 Y35.2424
G01 X68.2553 Y35.2497
G01 X68.2626 Y35.2563
G01 X68.2704 Y35.2621
G01 X68.2789 Y35.2672
G01 X68.2877 Y35.2714
G01 X68.2970 Y35.2747
G01 X68.3065 Y35.2771
G01 X68.3162 Y35.2785
G01 X68.3260 Y35.2790
G01 X68.3358 Y35.2785
G01 X68.3455 Y35.2771
G01 X68.3550 Y35.2747
G01 X68.3643 Y35.2714
G01 X68.3731 Y35.2672
G01 X68.3816 Y35.2621
G01 X68.3894 Y35.2563
G01 X68.3967 Y35.2497
G01 X68.4033 Y35.2424
G01 X68.4091 Y35.2346
G01 X68.4142 Y35.2261
G01 X68.4184 Y35.2173
G01 X68.4217 Y35.2080
G01 X68.4241 Y35.1985
G01 X68.4255 Y35.1888
G01 X68.4260 Y35.1790
G00 X68.4260 Y35.1790
G01 F120.00
G01 Z-1.8000
G01 F300.00
G01 X68.4255 Y35.1692
G01 X68.4241 Y35.1595
G01 X68.4217 Y35.1500
G01 X68.4184 Y35.1407
G01 X68.4142 Y35.1319
G01 X68.4091 Y35.1234
G01 X68.4033 Y35.1156
G01 X68.3967 Y35.1083
G01 X68.3894 Y35.1017
G01 X68.3816 Y35.0959
G01 X68.3731 Y35.0908
G01 X68.3643 Y35.0866
G01 X68.3550 Y35.0833
G01 X68.3455 Y35.0809
G01 X68.3358 Y35.0795
G01 X68.3260 Y35.0790
G01 X68.3162 Y35.0795
G01 X68.3065 Y35.0809
G01 X68.2970 Y35.0833
G01 X68.2877 Y35.0866
G01 X68.2789 Y35.0908
G01 X68.2704 Y35.0959
G01 X68.2626 Y35.1017
G01 X68.2553 Y35.1083
G01 X68.2487 Y35.1156
G01 X68.2429 Y35.1234
G01 X68.2378 Y35.1319
G01 X68.2336 Y35.1407
G01 X68.2303 Y35.1500
G01 X68.2279 Y35.1595
G01 X68.2265 Y35.1692
G01 X68.2260 Y35.1790
G01 X68.2265 Y35.1888
G01 X68.2279 Y35.1985
G01 X68.2303 Y35.2080
G01 X68.2336 Y35.2173
G01 X68.2378 Y35.2261
G01 X68.2429 Y35.2346
G01 X68.2487 Y35.2424
G01 X68.2553 Y35.2497
G01 X68.2626 Y35.2563
G01 X68.2704 Y35.2621
G01 X68.2789 Y35.2672
G01 X68.2877 Y35.2714
G01 X68.2970 Y35.2747
G01 X68.3065 Y35.2771
G01 X68.3162 Y35.2785
G01 X68.3260 Y35.2790
G01 X68.3358 Y35.2785
G01 X68.3455 Y35.2771
G01 X68.3550 Y35.2747
G01 X68.3643 Y35.2714
G01 X68.3731 Y35.2672
G01 X68.3816 Y35.2621
G01 X68.3894 Y35.2563
G01 X68.3967 Y35.2497
G01 X68.4033 Y35.2424
G01 X68.4091 Y35.2346
G01 X68.4142 Y35.2261
G01 X68.4184 Y35.2173
G01 X68.4217 Y35.2080
G01 X68.4241 Y35.1985
G01 X68.4255 Y35.1888
G01 X68.4260 Y35.1790
G00 Z1.0000
G00 X68.4260 Y32.6390
G01 F120.00
G01 Z-0.2000
G01 F300.00
G01 X68.4255 Y32.6292
G01 X68.4241 Y32.6195
G01 X68.4217 Y32.6100
G01 X68.4184 Y32.6007
G01 X68.4142 Y32.5919
G01 X68.4091 Y32.5834
G01 X68.4033 Y32.5756
G01 X68.3967 Y32.5683
G01 X68.3894 Y32.5617
G01 X68.3816 Y32.5559
G01 X68.3731 Y32.5508
G01 X68.3643 Y32.5466
G01 X68.3550 Y32.5433
G01 X68.3455 Y32.5409
G01 X68.3358 Y32.5395
G01 X68.3260 Y32.5390
G01 X68.3162 Y32.5395
G01 X68.3065 Y32.5409
G01 X68.2970 Y32.5433
G01 X68.2877 Y32.5466
G01 X68.2789 Y32.5508
G01 X68.2704 Y32.5559
G01 X68.2626 Y32.5617
G01 X68.2553 Y32.5683
G01 X68.2487 Y32.5756
G01 X68.2429 Y32.5834
G01 X68.2378 Y32.5919
G01 X68.2336 Y32.6007
G01 X68.2303 Y32.6100
G01 X68.2279 Y32.6195
G01 X68.2265 Y32.6292
G01 X68.2260 Y32.6390
G01 X68.2265 Y32.6488
G01 X68.2279 Y32.6585
G01 X68.2303 Y32.6680
G01 X68.2336 Y32.6773
G01 X68.2378 Y32.6861
G01 X68.2429 Y32.6946
G01 X68.2487 Y32.7024
G01 X68.2553 Y32.7097
G01 X68.2626 Y32.7163
G01 X68.2704 Y32.7221
G01 X68.2789 Y32.7272
G01 X68.2877 Y32.7314
G01 X68.2970 Y32.7347
G01 X68.3065 Y32.7371
G01 X68.3162 Y32.7385
G01 X68.3260 Y32.7390
G01 X68.3358 Y32.7385
G01 X68.3455 Y32.7371
G01 X68.3550 Y32.7347
G01 X68.3643 Y32.7314
G01 X68.3731 Y32.7272
G01 X68.3816 Y32.7221
G01 X68.3894 Y32.7163
G01 X68.3967 Y32.7097
G01 X68.4033 Y32.7024
G01 X68.4091 Y32.6946
G01 X68.4142 Y32.6861
G01 X68.4184 Y32.6773
G01 X68.4217 Y32.6680
G01 X68.4241 Y32.6585
G01 X68.4255 Y32.6488
G01 X68.4260 Y32.6390
G00 X68.4260 Y32.6390
G01 F120.00
G01 Z-0.4000
G01 F300.00
G01 X68.4255 Y32.6292
G01 X68.4241 Y32.6195
G01 X68.4217 Y32.6100
G01 X68.4184 Y32.6007
G01 X68.4142 Y32.5919
G01 X68.4091 Y32.5834
G01 X68.4033 Y32.5756
G01 X68.3967 Y32.5683
G01 X68.3894 Y32.5617
G01 X68.3816 Y32.5559
G01 X68.3731 Y32.5508
G01 X68.3643 Y32.5466
G01 X68.3550 Y32.5433
G01 X68.3455 Y32.5409
G01 X68.3358 Y32.5395
G01 X68.3260 Y32.5390
G01 X68.3162 Y32.5395
G01 X68.3065 Y32.5409
G01 X68.2970 Y32.5433
G01 X68.2877 Y32.5466
G01 X68.2789 Y32.5508
G01 X68.2704 Y32.5559
G01 X68.2626 Y32.5617
G01 X68.2553 Y32.5683
G01 X68.2487 Y32.5756
G01 X68.2429 Y32.5834
G01 X68.2378 Y32.5919
G01 X68.2336 Y32.6007
G01 X68.2303 Y32.6100
G01 X68.2279 Y32.6195
G01 X68.2265 Y32.6292
G01 X68.2260 Y32.6390
G01 X68.2265 Y32.6488
G01 X68.2279 Y32.6585
G01 X68.2303 Y32.6680
G01 X68.2336 Y32.6773
G01 X68.2378 Y32.6861
G01 X68.2429 Y32.6946
G01 X68.2487 Y32.7024
G01 X68.2553 Y32.7097
G01 X68.2626 Y32.7163
G01 X68.2704 Y32.7221
G01 X68.2789 Y32.7272
G01 X68.2877 Y32.7314
G01 X68.2970 Y32.7347
G01 X68.3065 Y32.7371
G01 X68.3162 Y32.7385
G01 X68.3260 Y32.7390
G01 X68.3358 Y32.7385
G01 X68.3455 Y32.7371
G01 X68.3550 Y32.7347
G01 X68.3643 Y32.7314
G01 X68.3731 Y32.7272
G01 X68.3816 Y32.7221
G01 X68.3894 Y32.7163
G01 X68.3967 Y32.7097
G01 X68.4033 Y32.7024
G01 X68.4091 Y32.6946
G01 X68.4142 Y32.6861
G01 X68.4184 Y32.6773
G01 X68.4217 Y32.6680
G01 X68.4241 Y32.6585
G01 X68.4255 Y32.6488
G01 X68.4260 Y32.6390
G00 X68.4260 Y32.6390
G01 F120.00
G01 Z-0.6000
G01 F300.00
G01 X68.4255 Y32.6292
G01 X68.4241 Y32.6195
G01 X68.4217 Y32.6100
G01 X68.4184 Y32.6007
G01 X68.4142 Y32.5919
G01 X68.4091 Y32.5834
G01 X68.4033 Y32.5756
G01 X68.3967 Y32.5683
G01 X68.3894 Y32.5617
G01 X68.3816 Y32.5559
G01 X68.3731 Y32.5508
G01 X68.3643 Y32.5466
G01 X68.3550 Y32.5433
G01 X68.3455 Y32.5409
G01 X68.3358 Y32.5395
G01 X68.3260 Y32.5390
G01 X68.3162 Y32.5395
G01 X68.3065 Y32.5409
G01 X68.2970 Y32.5433
G01 X68.2877 Y32.5466
G01 X68.2789 Y32.5508
G01 X68.2704 Y32.5559
G01 X68.2626 Y32.5617
G01 X68.2553 Y32.5683
G01 X68.2487 Y32.5756
G01 X68.2429 Y32.5834
G01 X68.2378 Y32.5919
G01 X68.2336 Y32.6007
G01 X68.2303 Y32.6100
G01 X68.2279 Y32.6195
G01 X68.2265 Y32.6292
G01 X68.2260 Y32.6390
G01 X68.2265 Y32.6488
G01 X68.2279 Y32.6585
G01 X68.2303 Y32.6680
G01 X68.2336 Y32.6773
G01 X68.2378 Y32.6861
G01 X68.2429 Y32.6946
G01 X68.2487 Y32.7024
G01 X68.2553 Y32.7097
G01 X68.2626 Y32.7163
G01 X68.2704 Y32.7221
G01 X68.2789 Y32.7272
G01 X68.2877 Y32.7314
G01 X68.2970 Y32.7347
G01 X68.3065 Y32.7371
G01 X68.3162 Y32.7385
G01 X68.3260 Y32.7390
G01 X68.3358 Y32.7385
G01 X68.3455 Y32.7371
G01 X68.3550 Y32.7347
G01 X68.3643 Y32.7314
G01 X68.3731 Y32.7272
G01 X68.3816 Y32.7221
G01 X68.3894 Y32.7163
G01 X68.3967 Y32.7097
G01 X68.4033 Y32.7024
G01 X68.4091 Y32.6946
G01 X68.4142 Y32.6861
G01 X68.4184 Y32.6773
G01 X68.4217 Y32.6680
G01 X68.4241 Y32.6585
G01 X68.4255 Y32.6488
G01 X68.4260 Y32.6390
G00 X68.4260 Y32.6390
G01 F120.00
G01 Z-0.8000
G01 F300.00
G01 X68.4255 Y32.6292
G01 X68.4241 Y32.6195
G01 X68.4217 Y32.6100
G01 X68.4184 Y32.6007
G01 X68.4142 Y32.5919
G01 X68.4091 Y32.5834
G01 X68.4033 Y32.5756
G01 X68.3967 Y32.5683
G01 X68.3894 Y32.5617
G01 X68.3816 Y32.5559
G01 X68.3731 Y32.5508
G01 X68.3643 Y32.5466
G01 X68.3550 Y32.5433
G01 X68.3455 Y32.5409
G01 X68.3358 Y32.5395
G01 X68.3260 Y32.5390
G01 X68.3162 Y32.5395
G01 X68.3065 Y32.5409
G01 X68.2970 Y32.5433
G01 X68.2877 Y32.5466
G01 X68.2789 Y32.5508
G01 X68.2704 Y32.5559
G01 X68.2626 Y32.5617
G01 X68.2553 Y32.5683
G01 X68.2487 Y32.5756
G01 X68.2429 Y32.5834
G01 X68.2378 Y32.5919
G01 X68.2336 Y32.6007
G01 X68.2303 Y32.6100
G01 X68.2279 Y32.6195
G01 X68.2265 Y32.6292
G01 X68.2260 Y32.6390
G01 X68.2265 Y32.6488
G01 X68.2279 Y32.6585
G01 X68.2303 Y32.6680
G01 X68.2336 Y32.6773
G01 X68.2378 Y32.6861
G01 X68.2429 Y32.6946
G01 X68.2487 Y32.7024
G01 X68.2553 Y32.7097
G01 X68.2626 Y32.7163
G01 X68.2704 Y32.7221
G01 X68.2789 Y32.7272
G01 X68.2877 Y32.7314
G01 X68.2970 Y32.7347
G01 X68.3065 Y32.7371
G01 X68.3162 Y32.7385
G01 X68.3260 Y32.7390
G01 X68.3358 Y32.7385
G01 X68.3455 Y32.7371
G01 X68.3550 Y32.7347
G01 X68.3643 Y32.7314
G01 X68.3731 Y32.7272
G01 X68.3816 Y32.7221
G01 X68.3894 Y32.7163
G01 X68.3967 Y32.7097
G01 X68.4033 Y32.7024
G01 X68.4091 Y32.6946
G01 X68.4142 Y32.6861
G01 X68.4184 Y32.6773
G01 X68.4217 Y32.6680
G01 X68.4241 Y32.6585
G01 X68.4255 Y32.6488
G01 X68.4260 Y32.6390
G00 X68.4260 Y32.6390
G01 F120.00
G01 Z-1.0000
G01 F300.00
G01 X68.4255 Y32.6292
G01 X68.4241 Y32.6195
G01 X68.4217 Y32.6100
G01 X68.4184 Y32.6007
G01 X68.4142 Y32.5919
G01 X68.4091 Y32.5834
G01 X68.4033 Y32.5756
G01 X68.3967 Y32.5683
G01 X68.3894 Y32.5617
G01 X68.3816 Y32.5559
G01 X68.3731 Y32.5508
G01 X68.3643 Y32.5466
G01 X68.3550 Y32.5433
G01 X68.3455 Y32.5409
G01 X68.3358 Y32.5395
G01 X68.3260 Y32.5390
G01 X68.3162 Y32.5395
G01 X68.3065 Y32.5409
G01 X68.2970 Y32.5433
G01 X68.2877 Y32.5466
G01 X68.2789 Y32.5508
G01 X68.2704 Y32.5559
G01 X68.2626 Y32.5617
G01 X68.2553 Y32.5683
G01 X68.2487 Y32.5756
G01 X68.2429 Y32.5834
G01 X68.2378 Y32.5919
G01 X68.2336 Y32.6007
G01 X68.2303 Y32.6100
G01 X68.2279 Y32.6195
G01 X68.2265 Y32.6292
G01 X68.2260 Y32.6390
G01 X68.2265 Y32.6488
G01 X68.2279 Y32.6585
G01 X68.2303 Y32.6680
G01 X68.2336 Y32.6773
G01 X68.2378 Y32.6861
G01 X68.2429 Y32.6946
G01 X68.2487 Y32.7024
G01 X68.2553 Y32.7097
G01 X68.2626 Y32.7163
G01 X68.2704 Y32.7221
G01 X68.2789 Y32.7272
G01 X68.2877 Y32.7314
G01 X68.2970 Y32.7347
G01 X68.3065 Y32.7371
G01 X68.3162 Y32.7385
G01 X68.3260 Y32.7390
G01 X68.3358 Y32.7385
G01 X68.3455 Y32.7371
G01 X68.3550 Y32.7347
G01 X68.3643 Y32.7314
G01 X68.3731 Y32.7272
G01 X68.3816 Y32.7221
G01 X68.3894 Y32.7163
G01 X68.3967 Y32.7097
G01 X68.4033 Y32.7024
G01 X68.4091 Y32.6946
G01 X68.4142 Y32.6861
G01 X68.4184 Y32.6773
G01 X68.4217 Y32.6680
G01 X68.4241 Y32.6585
G01 X68.4255 Y32.6488
G01 X68.4260 Y32.6390
G00 X68.4260 Y32.6390
G01 F120.00
G01 Z-1.2000
G01 F300.00
G01 X68.4255 Y32.6292
G01 X68.4241 Y32.6195
G01 X68.4217 Y32.6100
G01 X68.4184 Y32.6007
G01 X68.4142 Y32.5919
G01 X68.4091 Y32.5834
G01 X68.4033 Y32.5756
G01 X68.3967 Y32.5683
G01 X68.3894 Y32.5617
G01 X68.3816 Y32.5559
G01 X68.3731 Y32.5508
G01 X68.3643 Y32.5466
G01 X68.3550 Y32.5433
G01 X68.3455 Y32.5409
G01 X68.3358 Y32.5395
G01 X68.3260 Y32.5390
G01 X68.3162 Y32.5395
G01 X68.3065 Y32.5409
G01 X68.2970 Y32.5433
G01 X68.2877 Y32.5466
G01 X68.2789 Y32.5508
G01 X68.2704 Y32.5559
G01 X68.2626 Y32.5617
G01 X68.2553 Y32.5683
G01 X68.2487 Y32.5756
G01 X68.2429 Y32.5834
G01 X68.2378 Y32.5919
G01 X68.2336 Y32.6007
G01 X68.2303 Y32.6100
G01 X68.2279 Y32.6195
G01 X68.2265 Y32.6292
G01 X68.2260 Y32.6390
G01 X68.2265 Y32.6488
G01 X68.2279 Y32.6585
G01 X68.2303 Y32.6680
G01 X68.2336 Y32.6773
G01 X68.2378 Y32.6861
G01 X68.2429 Y32.6946
G01 X68.2487 Y32.7024
G01 X68.2553 Y32.7097
G01 X68.2626 Y32.7163
G01 X68.2704 Y32.7221
G01 X68.2789 Y32.7272
G01 X68.2877 Y32.7314
G01 X68.2970 Y32.7347
G01 X68.3065 Y32.7371
G01 X68.3162 Y32.7385
G01 X68.3260 Y32.7390
G01 X68.3358 Y32.7385
G01 X68.3455 Y32.7371
G01 X68.3550 Y32.7347
G01 X68.3643 Y32.7314
G01 X68.3731 Y32.7272
G01 X68.3816 Y32.7221
G01 X68.3894 Y32.7163
G01 X68.3967 Y32.7097
G01 X68.4033 Y32.7024
G01 X68.4091 Y32.6946
G01 X68.4142 Y32.6861
G01 X68.4184 Y32.6773
G01 X68.4217 Y32.6680
G01 X68.4241 Y32.6585
G01 X68.4255 Y32.6488
G01 X68.4260 Y32.6390
G00 X68.4260 Y32.6390
G01 F120.00
G01 Z-1.4000
G01 F300.00
G01 X68.4255 Y32.6292
G01 X68.4241 Y32.6195
G01 X68.4217 Y32.6100
G01 X68.4184 Y32.6007
G01 X68.4142 Y32.5919
G01 X68.4091 Y32.5834
G01 X68.4033 Y32.5756
G01 X68.3967 Y32.5683
G01 X68.3894 Y32.5617
G01 X68.3816 Y32.5559
G01 X68.3731 Y32.5508
G01 X68.3643 Y32.5466
G01 X68.3550 Y32.5433
G01 X68.3455 Y32.5409
G01 X68.3358 Y32.5395
G01 X68.3260 Y32.5390
G01 X68.3162 Y32.5395
G01 X68.3065 Y32.5409
G01 X68.2970 Y32.5433
G01 X68.2877 Y32.5466
G01 X68.2789 Y32.5508
G01 X68.2704 Y32.5559
G01 X68.2626 Y32.5617
G01 X68.2553 Y32.5683
G01 X68.2487 Y32.5756
G01 X68.2429 Y32.5834
G01 X68.2378 Y32.5919
G01 X68.2336 Y32.6007
G01 X68.2303 Y32.6100
G01 X68.2279 Y32.6195
G01 X68.2265 Y32.6292
G01 X68.2260 Y32.6390
G01 X68.2265 Y32.6488
G01 X68.2279 Y32.6585
G01 X68.2303 Y32.6680
G01 X68.2336 Y32.6773
G01 X68.2378 Y32.6861
G01 X68.2429 Y32.6946
G01 X68.2487 Y32.7024
G01 X68.2553 Y32.7097
G01 X68.2626 Y32.7163
G01 X68.2704 Y32.7221
G01 X68.2789 Y32.7272
G01 X68.2877 Y32.7314
G01 X68.2970 Y32.7347
G01 X68.3065 Y32.7371
G01 X68.3162 Y32.7385
G01 X68.3260 Y32.7390
G01 X68.3358 Y32.7385
G01 X68.3455 Y32.7371
G01 X68.3550 Y32.7347
G01 X68.3643 Y32.7314
G01 X68.3731 Y32.7272
G01 X68.3816 Y32.7221
G01 X68.3894 Y32.7163
G01 X68.3967 Y32.7097
G01 X68.4033 Y32.7024
G01 X68.4091 Y32.6946
G01 X68.4142 Y32.6861
G01 X68.4184 Y32.6773
G01 X68.4217 Y32.6680
G01 X68.4241 Y32.6585
G01 X68.4255 Y32.6488
G01 X68.4260 Y32.6390
G00 X68.4260 Y32.6390
G01 F120.00
G01 Z-1.6000
G01 F300.00
G01 X68.4255 Y32.6292
G01 X68.4241 Y32.6195
G01 X68.4217 Y32.6100
G01 X68.4184 Y32.6007
G01 X68.4142 Y32.5919
G01 X68.4091 Y32.5834
G01 X68.4033 Y32.5756
G01 X68.3967 Y32.5683
G01 X68.3894 Y32.5617
G01 X68.3816 Y32.5559
G01 X68.3731 Y32.5508
G01 X68.3643 Y32.5466
G01 X68.3550 Y32.5433
G01 X68.3455 Y32.5409
G01 X68.3358 Y32.5395
G01 X68.3260 Y32.5390
G01 X68.3162 Y32.5395
G01 X68.3065 Y32.5409
G01 X68.2970 Y32.5433
G01 X68.2877 Y32.5466
G01 X68.2789 Y32.5508
G01 X68.2704 Y32.5559
G01 X68.2626 Y32.5617
G01 X68.2553 Y32.5683
G01 X68.2487 Y32.5756
G01 X68.2429 Y32.5834
G01 X68.2378 Y32.5919
G01 X68.2336 Y32.6007
G01 X68.2303 Y32.6100
G01 X68.2279 Y32.6195
G01 X68.2265 Y32.6292
G01 X68.2260 Y32.6390
G01 X68.2265 Y32.6488
G01 X68.2279 Y32.6585
G01 X68.2303 Y32.6680
G01 X68.2336 Y32.6773
G01 X68.2378 Y32.6861
G01 X68.2429 Y32.6946
G01 X68.2487 Y32.7024
G01 X68.2553 Y32.7097
G01 X68.2626 Y32.7163
G01 X68.2704 Y32.7221
G01 X68.2789 Y32.7272
G01 X68.2877 Y32.7314
G01 X68.2970 Y32.7347
G01 X68.3065 Y32.7371
G01 X68.3162 Y32.7385
G01 X68.3260 Y32.7390
G01 X68.3358 Y32.7385
G01 X68.3455 Y32.7371
G01 X68.3550 Y32.7347
G01 X68.3643 Y32.7314
G01 X68.3731 Y32.7272
G01 X68.3816 Y32.7221
G01 X68.3894 Y32.7163
G01 X68.3967 Y32.7097
G01 X68.4033 Y32.7024
G01 X68.4091 Y32.6946
G01 X68.4142 Y32.6861
G01 X68.4184 Y32.6773
G01 X68.4217 Y32.6680
G01 X68.4241 Y32.6585
G01 X68.4255 Y32.6488
G01 X68.4260 Y32.6390
G00 X68.4260 Y32.6390
G01 F120.00
G01 Z-1.8000
G01 F300.00
G01 X68.4255 Y32.6292
G01 X68.4241 Y32.6195
G01 X68.4217 Y32.6100
G01 X68.4184 Y32.6007
G01 X68.4142 Y32.5919
G01 X68.4091 Y32.5834
G01 X68.4033 Y32.5756
G01 X68.3967 Y32.5683
G01 X68.3894 Y32.5617
G01 X68.3816 Y32.5559
G01 X68.3731 Y32.5508
G01 X68.3643 Y32.5466
G01 X68.3550 Y32.5433
G01 X68.3455 Y32.5409
G01 X68.3358 Y32.5395
G01 X68.3260 Y32.5390
G01 X68.3162 Y32.5395
G01 X68.3065 Y32.5409
G01 X68.2970 Y32.5433
G01 X68.2877 Y32.5466
G01 X68.2789 Y32.5508
G01 X68.2704 Y32.5559
G01 X68.2626 Y32.5617
G01 X68.2553 Y32.5683
G01 X68.2487 Y32.5756
G01 X68.2429 Y32.5834
G01 X68.2378 Y32.5919
G01 X68.2336 Y32.6007
G01 X68.2303 Y32.6100
G01 X68.2279 Y32.6195
G01 X68.2265 Y32.6292
G01 X68.2260 Y32.6390
G01 X68.2265 Y32.6488
G01 X68.2279 Y32.6585
G01 X68.2303 Y32.6680
G01 X68.2336 Y32.6773
G01 X68.2378 Y32.6861
G01 X68.2429 Y32.6946
G01 X68.2487 Y32.7024
G01 X68.2553 Y32.7097
G01 X68.2626 Y32.7163
G01 X68.2704 Y32.7221
G01 X68.2789 Y32.7272
G01 X68.2877 Y32.7314
G01 X68.2970 Y32.7347
G01 X68.3065 Y32.7371
G01 X68.3162 Y32.7385
G01 X68.3260 Y32.7390
G01 X68.3358 Y32.7385
G01 X68.3455 Y32.7371
G01 X68.3550 Y32.7347
G01 X68.3643 Y32.7314
G01 X68.3731 Y32.7272
G01 X68.3816 Y32.7221
G01 X68.3894 Y32.7163
G01 X68.3967 Y32.7097
G01 X68.4033 Y32.7024
G01 X68.4091 Y32.6946
G01 X68.4142 Y32.6861
G01 X68.4184 Y32.6773
G01 X68.4217 Y32.6680
G01 X68.4241 Y32.6585
G01 X68.4255 Y32.6488
G01 X68.4260 Y32.6390
G00 Z1.0000
G00 X68.4260 Y30.0990
G01 F120.00
G01 Z-0.2000
G01 F300.00
G01 X68.4255 Y30.0892
G01 X68.4241 Y30.0795
G01 X68.4217 Y30.0700
G01 X68.4184 Y30.0607
G01 X68.4142 Y30.0519
G01 X68.4091 Y30.0434
G01 X68.4033 Y30.0356
G01 X68.3967 Y30.0283
G01 X68.3894 Y30.0217
G01 X68.3816 Y30.0159
G01 X68.3731 Y30.0108
G01 X68.3643 Y30.0066
G01 X68.3550 Y30.0033
G01 X68.3455 Y30.0009
G01 X68.3358 Y29.9995
G01 X68.3260 Y29.9990
G01 X68.3162 Y29.9995
G01 X68.3065 Y30.0009
G01 X68.2970 Y30.0033
G01 X68.2877 Y30.0066
G01 X68.2789 Y30.0108
G01 X68.2704 Y30.0159
G01 X68.2626 Y30.0217
G01 X68.2553 Y30.0283
G01 X68.2487 Y30.0356
G01 X68.2429 Y30.0434
G01 X68.2378 Y30.0519
G01 X68.2336 Y30.0607
G01 X68.2303 Y30.0700
G01 X68.2279 Y30.0795
G01 X68.2265 Y30.0892
G01 X68.2260 Y30.0990
G01 X68.2265 Y30.1088
G01 X68.2279 Y30.1185
G01 X68.2303 Y30.1280
G01 X68.2336 Y30.1373
G01 X68.2378 Y30.1461
G01 X68.2429 Y30.1546
G01 X68.2487 Y30.1624
G01 X68.2553 Y30.1697
G01 X68.2626 Y30.1763
G01 X68.2704 Y30.1821
G01 X68.2789 Y30.1872
G01 X68.2877 Y30.1914
G01 X68.2970 Y30.1947
G01 X68.3065 Y30.1971
G01 X68.3162 Y30.1985
G01 X68.3260 Y30.1990
G01 X68.3358 Y30.1985
G01 X68.3455 Y30.1971
G01 X68.3550 Y30.1947
G01 X68.3643 Y30.1914
G01 X68.3731 Y30.1872
G01 X68.3816 Y30.1821
G01 X68.3894 Y30.1763
G01 X68.3967 Y30.1697
G01 X68.4033 Y30.1624
G01 X68.4091 Y30.1546
G01 X68.4142 Y30.1461
G01 X68.4184 Y30.1373
G01 X68.4217 Y30.1280
G01 X68.4241 Y30.1185
G01 X68.4255 Y30.1088
G01 X68.4260 Y30.0990
G00 X68.4260 Y30.0990
G01 F120.00
G01 Z-0.4000
G01 F300.00
G01 X68.4255 Y30.0892
G01 X68.4241 Y30.0795
G01 X68.4217 Y30.0700
G01 X68.4184 Y30.0607
G01 X68.4142 Y30.0519
G01 X68.4091 Y30.0434
G01 X68.4033 Y30.0356
G01 X68.3967 Y30.0283
G01 X68.3894 Y30.0217
G01 X68.3816 Y30.0159
G01 X68.3731 Y30.0108
G01 X68.3643 Y30.0066
G01 X68.3550 Y30.0033
G01 X68.3455 Y30.0009
G01 X68.3358 Y29.9995
G01 X68.3260 Y29.9990
G01 X68.3162 Y29.9995
G01 X68.3065 Y30.0009
G01 X68.2970 Y30.0033
G01 X68.2877 Y30.0066
G01 X68.2789 Y30.0108
G01 X68.2704 Y30.0159
G01 X68.2626 Y30.0217
G01 X68.2553 Y30.0283
G01 X68.2487 Y30.0356
G01 X68.2429 Y30.0434
G01 X68.2378 Y30.0519
G01 X68.2336 Y30.0607
G01 X68.2303 Y30.0700
G01 X68.2279 Y30.0795
G01 X68.2265 Y30.0892
G01 X68.2260 Y30.0990
G01 X68.2265 Y30.1088
G01 X68.2279 Y30.1185
G01 X68.2303 Y30.1280
G01 X68.2336 Y30.1373
G01 X68.2378 Y30.1461
G01 X68.2429 Y30.1546
G01 X68.2487 Y30.1624
G01 X68.2553 Y30.1697
G01 X68.2626 Y30.1763
G01 X68.2704 Y30.1821
G01 X68.2789 Y30.1872
G01 X68.2877 Y30.1914
G01 X68.2970 Y30.1947
G01 X68.3065 Y30.1971
G01 X68.3162 Y30.1985
G01 X68.3260 Y30.1990
G01 X68.3358 Y30.1985
G01 X68.3455 Y30.1971
G01 X68.3550 Y30.1947
G01 X68.3643 Y30.1914
G01 X68.3731 Y30.1872
G01 X68.3816 Y30.1821
G01 X68.3894 Y30.1763
G01 X68.3967 Y30.1697
G01 X68.4033 Y30.1624
G01 X68.4091 Y30.1546
G01 X68.4142 Y30.1461
G01 X68.4184 Y30.1373
G01 X68.4217 Y30.1280
G01 X68.4241 Y30.1185
G01 X68.4255 Y30.1088
G01 X68.4260 Y30.0990
G00 X68.4260 Y30.0990
G01 F120.00
G01 Z-0.6000
G01 F300.00
G01 X68.4255 Y30.0892
G01 X68.4241 Y30.0795
G01 X68.4217 Y30.0700
G01 X68.4184 Y30.0607
G01 X68.4142 Y30.0519
G01 X68.4091 Y30.0434
G01 X68.4033 Y30.0356
G01 X68.3967 Y30.0283
G01 X68.3894 Y30.0217
G01 X68.3816 Y30.0159
G01 X68.3731 Y30.0108
G01 X68.3643 Y30.0066
G01 X68.3550 Y30.0033
G01 X68.3455 Y30.0009
G01 X68.3358 Y29.9995
G01 X68.3260 Y29.9990
G01 X68.3162 Y29.9995
G01 X68.3065 Y30.0009
G01 X68.2970 Y30.0033
G01 X68.2877 Y30.0066
G01 X68.2789 Y30.0108
G01 X68.2704 Y30.0159
G01 X68.2626 Y30.0217
G01 X68.2553 Y30.0283
G01 X68.2487 Y30.0356
G01 X68.2429 Y30.0434
G01 X68.2378 Y30.0519
G01 X68.2336 Y30.0607
G01 X68.2303 Y30.0700
G01 X68.2279 Y30.0795
G01 X68.2265 Y30.0892
G01 X68.2260 Y30.0990
G01 X68.2265 Y30.1088
G01 X68.2279 Y30.1185
G01 X68.2303 Y30.1280
G01 X68.2336 Y30.1373
G01 X68.2378 Y30.1461
G01 X68.2429 Y30.1546
G01 X68.2487 Y30.1624
G01 X68.2553 Y30.1697
G01 X68.2626 Y30.1763
G01 X68.2704 Y30.1821
G01 X68.2789 Y30.1872
G01 X68.2877 Y30.1914
G01 X68.2970 Y30.1947
G01 X68.3065 Y30.1971
G01 X68.3162 Y30.1985
G01 X68.3260 Y30.1990
G01 X68.3358 Y30.1985
G01 X68.3455 Y30.1971
G01 X68.3550 Y30.1947
G01 X68.3643 Y30.1914
G01 X68.3731 Y30.1872
G01 X68.3816 Y30.1821
G01 X68.3894 Y30.1763
G01 X68.3967 Y30.1697
G01 X68.4033 Y30.1624
G01 X68.4091 Y30.1546
G01 X68.4142 Y30.1461
G01 X68.4184 Y30.1373
G01 X68.4217 Y30.1280
G01 X68.4241 Y30.1185
G01 X68.4255 Y30.1088
G01 X68.4260 Y30.0990
G00 X68.4260 Y30.0990
G01 F120.00
G01 Z-0.8000
G01 F300.00
G01 X68.4255 Y30.0892
G01 X68.4241 Y30.0795
G01 X68.4217 Y30.0700
G01 X68.4184 Y30.0607
G01 X68.4142 Y30.0519
G01 X68.4091 Y30.0434
G01 X68.4033 Y30.0356
G01 X68.3967 Y30.0283
G01 X68.3894 Y30.0217
G01 X68.3816 Y30.0159
G01 X68.3731 Y30.0108
G01 X68.3643 Y30.0066
G01 X68.3550 Y30.0033
G01 X68.3455 Y30.0009
G01 X68.3358 Y29.9995
G01 X68.3260 Y29.9990
G01 X68.3162 Y29.9995
G01 X68.3065 Y30.0009
G01 X68.2970 Y30.0033
G01 X68.2877 Y30.0066
G01 X68.2789 Y30.0108
G01 X68.2704 Y30.0159
G01 X68.2626 Y30.0217
G01 X68.2553 Y30.0283
G01 X68.2487 Y30.0356
G01 X68.2429 Y30.0434
G01 X68.2378 Y30.0519
G01 X68.2336 Y30.0607
G01 X68.2303 Y30.0700
G01 X68.2279 Y30.0795
G01 X68.2265 Y30.0892
G01 X68.2260 Y30.0990
G01 X68.2265 Y30.1088
G01 X68.2279 Y30.1185
G01 X68.2303 Y30.1280
G01 X68.2336 Y30.1373
G01 X68.2378 Y30.1461
G01 X68.2429 Y30.1546
G01 X68.2487 Y30.1624
G01 X68.2553 Y30.1697
G01 X68.2626 Y30.1763
G01 X68.2704 Y30.1821
G01 X68.2789 Y30.1872
G01 X68.2877 Y30.1914
G01 X68.2970 Y30.1947
G01 X68.3065 Y30.1971
G01 X68.3162 Y30.1985
G01 X68.3260 Y30.1990
G01 X68.3358 Y30.1985
G01 X68.3455 Y30.1971
G01 X68.3550 Y30.1947
G01 X68.3643 Y30.1914
G01 X68.3731 Y30.1872
G01 X68.3816 Y30.1821
G01 X68.3894 Y30.1763
G01 X68.3967 Y30.1697
G01 X68.4033 Y30.1624
G01 X68.4091 Y30.1546
G01 X68.4142 Y30.1461
G01 X68.4184 Y30.1373
G01 X68.4217 Y30.1280
G01 X68.4241 Y30.1185
G01 X68.4255 Y30.1088
G01 X68.4260 Y30.0990
G00 X68.4260 Y30.0990
G01 F120.00
G01 Z-1.0000
G01 F300.00
G01 X68.4255 Y30.0892
G01 X68.4241 Y30.0795
G01 X68.4217 Y30.0700
G01 X68.4184 Y30.0607
G01 X68.4142 Y30.0519
G01 X68.4091 Y30.0434
G01 X68.4033 Y30.0356
G01 X68.3967 Y30.0283
G01 X68.3894 Y30.0217
G01 X68.3816 Y30.0159
G01 X68.3731 Y30.0108
G01 X68.3643 Y30.0066
G01 X68.3550 Y30.0033
G01 X68.3455 Y30.0009
G01 X68.3358 Y29.9995
G01 X68.3260 Y29.9990
G01 X68.3162 Y29.9995
G01 X68.3065 Y30.0009
G01 X68.2970 Y30.0033
G01 X68.2877 Y30.0066
G01 X68.2789 Y30.0108
G01 X68.2704 Y30.0159
G01 X68.2626 Y30.0217
G01 X68.2553 Y30.0283
G01 X68.2487 Y30.0356
G01 X68.2429 Y30.0434
G01 X68.2378 Y30.0519
G01 X68.2336 Y30.0607
G01 X68.2303 Y30.0700
G01 X68.2279 Y30.0795
G01 X68.2265 Y30.0892
G01 X68.2260 Y30.0990
G01 X68.2265 Y30.1088
G01 X68.2279 Y30.1185
G01 X68.2303 Y30.1280
G01 X68.2336 Y30.1373
G01 X68.2378 Y30.1461
G01 X68.2429 Y30.1546
G01 X68.2487 Y30.1624
G01 X68.2553 Y30.1697
G01 X68.2626 Y30.1763
G01 X68.2704 Y30.1821
G01 X68.2789 Y30.1872
G01 X68.2877 Y30.1914
G01 X68.2970 Y30.1947
G01 X68.3065 Y30.1971
G01 X68.3162 Y30.1985
G01 X68.3260 Y30.1990
G01 X68.3358 Y30.1985
G01 X68.3455 Y30.1971
G01 X68.3550 Y30.1947
G01 X68.3643 Y30.1914
G01 X68.3731 Y30.1872
G01 X68.3816 Y30.1821
G01 X68.3894 Y30.1763
G01 X68.3967 Y30.1697
G01 X68.4033 Y30.1624
G01 X68.4091 Y30.1546
G01 X68.4142 Y30.1461
G01 X68.4184 Y30.1373
G01 X68.4217 Y30.1280
G01 X68.4241 Y30.1185
G01 X68.4255 Y30.1088
G01 X68.4260 Y30.0990
G00 X68.4260 Y30.0990
G01 F120.00
G01 Z-1.2000
G01 F300.00
G01 X68.4255 Y30.0892
G01 X68.4241 Y30.0795
G01 X68.4217 Y30.0700
G01 X68.4184 Y30.0607
G01 X68.4142 Y30.0519
G01 X68.4091 Y30.0434
G01 X68.4033 Y30.0356
G01 X68.3967 Y30.0283
G01 X68.3894 Y30.0217
G01 X68.3816 Y30.0159
G01 X68.3731 Y30.0108
G01 X68.3643 Y30.0066
G01 X68.3550 Y30.0033
G01 X68.3455 Y30.0009
G01 X68.3358 Y29.9995
G01 X68.3260 Y29.9990
G01 X68.3162 Y29.9995
G01 X68.3065 Y30.0009
G01 X68.2970 Y30.0033
G01 X68.2877 Y30.0066
G01 X68.2789 Y30.0108
G01 X68.2704 Y30.0159
G01 X68.2626 Y30.0217
G01 X68.2553 Y30.0283
G01 X68.2487 Y30.0356
G01 X68.2429 Y30.0434
G01 X68.2378 Y30.0519
G01 X68.2336 Y30.0607
G01 X68.2303 Y30.0700
G01 X68.2279 Y30.0795
G01 X68.2265 Y30.0892
G01 X68.2260 Y30.0990
G01 X68.2265 Y30.1088
G01 X68.2279 Y30.1185
G01 X68.2303 Y30.1280
G01 X68.2336 Y30.1373
G01 X68.2378 Y30.1461
G01 X68.2429 Y30.1546
G01 X68.2487 Y30.1624
G01 X68.2553 Y30.1697
G01 X68.2626 Y30.1763
G01 X68.2704 Y30.1821
G01 X68.2789 Y30.1872
G01 X68.2877 Y30.1914
G01 X68.2970 Y30.1947
G01 X68.3065 Y30.1971
G01 X68.3162 Y30.1985
G01 X68.3260 Y30.1990
G01 X68.3358 Y30.1985
G01 X68.3455 Y30.1971
G01 X68.3550 Y30.1947
G01 X68.3643 Y30.1914
G01 X68.3731 Y30.1872
G01 X68.3816 Y30.1821
G01 X68.3894 Y30.1763
G01 X68.3967 Y30.1697
G01 X68.4033 Y30.1624
G01 X68.4091 Y30.1546
G01 X68.4142 Y30.1461
G01 X68.4184 Y30.1373
G01 X68.4217 Y30.1280
G01 X68.4241 Y30.1185
G01 X68.4255 Y30.1088
G01 X68.4260 Y30.0990
G00 X68.4260 Y30.0990
G01 F120.00
G01 Z-1.4000
G01 F300.00
G01 X68.4255 Y30.0892
G01 X68.4241 Y30.0795
G01 X68.4217 Y30.0700
G01 X68.4184 Y30.0607
G01 X68.4142 Y30.0519
G01 X68.4091 Y30.0434
G01 X68.4033 Y30.0356
G01 X68.3967 Y30.0283
G01 X68.3894 Y30.0217
G01 X68.3816 Y30.0159
G01 X68.3731 Y30.0108
G01 X68.3643 Y30.0066
G01 X68.3550 Y30.0033
G01 X68.3455 Y30.0009
G01 X68.3358 Y29.9995
G01 X68.3260 Y29.9990
G01 X68.3162 Y29.9995
G01 X68.3065 Y30.0009
G01 X68.2970 Y30.0033
G01 X68.2877 Y30.0066
G01 X68.2789 Y30.0108
G01 X68.2704 Y30.0159
G01 X68.2626 Y30.0217
G01 X68.2553 Y30.0283
G01 X68.2487 Y30.0356
G01 X68.2429 Y30.0434
G01 X68.2378 Y30.0519
G01 X68.2336 Y30.0607
G01 X68.2303 Y30.0700
G01 X68.2279 Y30.0795
G01 X68.2265 Y30.0892
G01 X68.2260 Y30.0990
G01 X68.2265 Y30.1088
G01 X68.2279 Y30.1185
G01 X68.2303 Y30.1280
G01 X68.2336 Y30.1373
G01 X68.2378 Y30.1461
G01 X68.2429 Y30.1546
G01 X68.2487 Y30.1624
G01 X68.2553 Y30.1697
G01 X68.2626 Y30.1763
G01 X68.2704 Y30.1821
G01 X68.2789 Y30.1872
G01 X68.2877 Y30.1914
G01 X68.2970 Y30.1947
G01 X68.3065 Y30.1971
G01 X68.3162 Y30.1985
G01 X68.3260 Y30.1990
G01 X68.3358 Y30.1985
G01 X68.3455 Y30.1971
G01 X68.3550 Y30.1947
G01 X68.3643 Y30.1914
G01 X68.3731 Y30.1872
G01 X68.3816 Y30.1821
G01 X68.3894 Y30.1763
G01 X68.3967 Y30.1697
G01 X68.4033 Y30.1624
G01 X68.4091 Y30.1546
G01 X68.4142 Y30.1461
G01 X68.4184 Y30.1373
G01 X68.4217 Y30.1280
G01 X68.4241 Y30.1185
G01 X68.4255 Y30.1088
G01 X68.4260 Y30.0990
G00 X68.4260 Y30.0990
G01 F120.00
G01 Z-1.6000
G01 F300.00
G01 X68.4255 Y30.0892
G01 X68.4241 Y30.0795
G01 X68.4217 Y30.0700
G01 X68.4184 Y30.0607
G01 X68.4142 Y30.0519
G01 X68.4091 Y30.0434
G01 X68.4033 Y30.0356
G01 X68.3967 Y30.0283
G01 X68.3894 Y30.0217
G01 X68.3816 Y30.0159
G01 X68.3731 Y30.0108
G01 X68.3643 Y30.0066
G01 X68.3550 Y30.0033
G01 X68.3455 Y30.0009
G01 X68.3358 Y29.9995
G01 X68.3260 Y29.9990
G01 X68.3162 Y29.9995
G01 X68.3065 Y30.0009
G01 X68.2970 Y30.0033
G01 X68.2877 Y30.0066
G01 X68.2789 Y30.0108
G01 X68.2704 Y30.0159
G01 X68.2626 Y30.0217
G01 X68.2553 Y30.0283
G01 X68.2487 Y30.0356
G01 X68.2429 Y30.0434
G01 X68.2378 Y30.0519
G01 X68.2336 Y30.0607
G01 X68.2303 Y30.0700
G01 X68.2279 Y30.0795
G01 X68.2265 Y30.0892
G01 X68.2260 Y30.0990
G01 X68.2265 Y30.1088
G01 X68.2279 Y30.1185
G01 X68.2303 Y30.1280
G01 X68.2336 Y30.1373
G01 X68.2378 Y30.1461
G01 X68.2429 Y30.1546
G01 X68.2487 Y30.1624
G01 X68.2553 Y30.1697
G01 X68.2626 Y30.1763
G01 X68.2704 Y30.1821
G01 X68.2789 Y30.1872
G01 X68.2877 Y30.1914
G01 X68.2970 Y30.1947
G01 X68.3065 Y30.1971
G01 X68.3162 Y30.1985
G01 X68.3260 Y30.1990
G01 X68.3358 Y30.1985
G01 X68.3455 Y30.1971
G01 X68.3550 Y30.1947
G01 X68.3643 Y30.1914
G01 X68.3731 Y30.1872
G01 X68.3816 Y30.1821
G01 X68.3894 Y30.1763
G01 X68.3967 Y30.1697
G01 X68.4033 Y30.1624
G01 X68.4091 Y30.1546
G01 X68.4142 Y30.1461
G01 X68.4184 Y30.1373
G01 X68.4217 Y30.1280
G01 X68.4241 Y30.1185
G01 X68.4255 Y30.1088
G01 X68.4260 Y30.0990
G00 X68.4260 Y30.0990
G01 F120.00
G01 Z-1.8000
G01 F300.00
G01 X68.4255 Y30.0892
G01 X68.4241 Y30.0795
G01 X68.4217 Y30.0700
G01 X68.4184 Y30.0607
G01 X68.4142 Y30.0519
G01 X68.4091 Y30.0434
G01 X68.4033 Y30.0356
G01 X68.3967 Y30.0283
G01 X68.3894 Y30.0217
G01 X68.3816 Y30.0159
G01 X68.3731 Y30.0108
G01 X68.3643 Y30.0066
G01 X68.3550 Y30.0033
G01 X68.3455 Y30.0009
G01 X68.3358 Y29.9995
G01 X68.3260 Y29.9990
G01 X68.3162 Y29.9995
G01 X68.3065 Y30.0009
G01 X68.2970 Y30.0033
G01 X68.2877 Y30.0066
G01 X68.2789 Y30.0108
G01 X68.2704 Y30.0159
G01 X68.2626 Y30.0217
G01 X68.2553 Y30.0283
G01 X68.2487 Y30.0356
G01 X68.2429 Y30.0434
G01 X68.2378 Y30.0519
G01 X68.2336 Y30.0607
G01 X68.2303 Y30.0700
G01 X68.2279 Y30.0795
G01 X68.2265 Y30.0892
G01 X68.2260 Y30.0990
G01 X68.2265 Y30.1088
G01 X68.2279 Y30.1185
G01 X68.2303 Y30.1280
G01 X68.2336 Y30.1373
G01 X68.2378 Y30.1461
G01 X68.2429 Y30.1546
G01 X68.2487 Y30.1624
G01 X68.2553 Y30.1697
G01 X68.2626 Y30.1763
G01 X68.2704 Y30.1821
G01 X68.2789 Y30.1872
G01 X68.2877 Y30.1914
G01 X68.2970 Y30.1947
G01 X68.3065 Y30.1971
G01 X68.3162 Y30.1985
G01 X68.3260 Y30.1990
G01 X68.3358 Y30.1985
G01 X68.3455 Y30.1971
G01 X68.3550 Y30.1947
G01 X68.3643 Y30.1914
G01 X68.3731 Y30.1872
G01 X68.3816 Y30.1821
G01 X68.3894 Y30.1763
G01 X68.3967 Y30.1697
G01 X68.4033 Y30.1624
G01 X68.4091 Y30.1546
G01 X68.4142 Y30.1461
G01 X68.4184 Y30.1373
G01 X68.4217 Y30.1280
G01 X68.4241 Y30.1185
G01 X68.4255 Y30.1088
G01 X68.4260 Y30.0990
G00 Z1.0000
G00 X68.4260 Y27.5590
G01 F120.00
G01 Z-0.2000
G01 F300.00
G01 X68.4255 Y27.5492
G01 X68.4241 Y27.5395
G01 X68.4217 Y27.5300
G01 X68.4184 Y27.5207
G01 X68.4142 Y27.5119
G01 X68.4091 Y27.5034
G01 X68.4033 Y27.4956
G01 X68.3967 Y27.4883
G01 X68.3894 Y27.4817
G01 X68.3816 Y27.4759
G01 X68.3731 Y27.4708
G01 X68.3643 Y27.4666
G01 X68.3550 Y27.4633
G01 X68.3455 Y27.4609
G01 X68.3358 Y27.4595
G01 X68.3260 Y27.4590
G01 X68.3162 Y27.4595
G01 X68.3065 Y27.4609
G01 X68.2970 Y27.4633
G01 X68.2877 Y27.4666
G01 X68.2789 Y27.4708
G01 X68.2704 Y27.4759
G01 X68.2626 Y27.4817
G01 X68.2553 Y27.4883
G01 X68.2487 Y27.4956
G01 X68.2429 Y27.5034
G01 X68.2378 Y27.5119
G01 X68.2336 Y27.5207
G01 X68.2303 Y27.5300
G01 X68.2279 Y27.5395
G01 X68.2265 Y27.5492
G01 X68.2260 Y27.5590
G01 X68.2265 Y27.5688
G01 X68.2279 Y27.5785
G01 X68.2303 Y27.5880
G01 X68.2336 Y27.5973
G01 X68.2378 Y27.6061
G01 X68.2429 Y27.6146
G01 X68.2487 Y27.6224
G01 X68.2553 Y27.6297
G01 X68.2626 Y27.6363
G01 X68.2704 Y27.6421
G01 X68.2789 Y27.6472
G01 X68.2877 Y27.6514
G01 X68.2970 Y27.6547
G01 X68.3065 Y27.6571
G01 X68.3162 Y27.6585
G01 X68.3260 Y27.6590
G01 X68.3358 Y27.6585
G01 X68.3455 Y27.6571
G01 X68.3550 Y27.6547
G01 X68.3643 Y27.6514
G01 X68.3731 Y27.6472
G01 X68.3816 Y27.6421
G01 X68.3894 Y27.6363
G01 X68.3967 Y27.6297
G01 X68.4033 Y27.6224
G01 X68.4091 Y27.6146
G01 X68.4142 Y27.6061
G01 X68.4184 Y27.5973
G01 X68.4217 Y27.5880
G01 X68.4241 Y27.5785
G01 X68.4255 Y27.5688
G01 X68.4260 Y27.5590
G00 X68.4260 Y27.5590
G01 F120.00
G01 Z-0.4000
G01 F300.00
G01 X68.4255 Y27.5492
G01 X68.4241 Y27.5395
G01 X68.4217 Y27.5300
G01 X68.4184 Y27.5207
G01 X68.4142 Y27.5119
G01 X68.4091 Y27.5034
G01 X68.4033 Y27.4956
G01 X68.3967 Y27.4883
G01 X68.3894 Y27.4817
G01 X68.3816 Y27.4759
G01 X68.3731 Y27.4708
G01 X68.3643 Y27.4666
G01 X68.3550 Y27.4633
G01 X68.3455 Y27.4609
G01 X68.3358 Y27.4595
G01 X68.3260 Y27.4590
G01 X68.3162 Y27.4595
G01 X68.3065 Y27.4609
G01 X68.2970 Y27.4633
G01 X68.2877 Y27.4666
G01 X68.2789 Y27.4708
G01 X68.2704 Y27.4759
G01 X68.2626 Y27.4817
G01 X68.2553 Y27.4883
G01 X68.2487 Y27.4956
G01 X68.2429 Y27.5034
G01 X68.2378 Y27.5119
G01 X68.2336 Y27.5207
G01 X68.2303 Y27.5300
G01 X68.2279 Y27.5395
G01 X68.2265 Y27.5492
G01 X68.2260 Y27.5590
G01 X68.2265 Y27.5688
G01 X68.2279 Y27.5785
G01 X68.2303 Y27.5880
G01 X68.2336 Y27.5973
G01 X68.2378 Y27.6061
G01 X68.2429 Y27.6146
G01 X68.2487 Y27.6224
G01 X68.2553 Y27.6297
G01 X68.2626 Y27.6363
G01 X68.2704 Y27.6421
G01 X68.2789 Y27.6472
G01 X68.2877 Y27.6514
G01 X68.2970 Y27.6547
G01 X68.3065 Y27.6571
G01 X68.3162 Y27.6585
G01 X68.3260 Y27.6590
G01 X68.3358 Y27.6585
G01 X68.3455 Y27.6571
G01 X68.3550 Y27.6547
G01 X68.3643 Y27.6514
G01 X68.3731 Y27.6472
G01 X68.3816 Y27.6421
G01 X68.3894 Y27.6363
G01 X68.3967 Y27.6297
G01 X68.4033 Y27.6224
G01 X68.4091 Y27.6146
G01 X68.4142 Y27.6061
G01 X68.4184 Y27.5973
G01 X68.4217 Y27.5880
G01 X68.4241 Y27.5785
G01 X68.4255 Y27.5688
G01 X68.4260 Y27.5590
G00 X68.4260 Y27.5590
G01 F120.00
G01 Z-0.6000
G01 F300.00
G01 X68.4255 Y27.5492
G01 X68.4241 Y27.5395
G01 X68.4217 Y27.5300
G01 X68.4184 Y27.5207
G01 X68.4142 Y27.5119
G01 X68.4091 Y27.5034
G01 X68.4033 Y27.4956
G01 X68.3967 Y27.4883
G01 X68.3894 Y27.4817
G01 X68.3816 Y27.4759
G01 X68.3731 Y27.4708
G01 X68.3643 Y27.4666
G01 X68.3550 Y27.4633
G01 X68.3455 Y27.4609
G01 X68.3358 Y27.4595
G01 X68.3260 Y27.4590
G01 X68.3162 Y27.4595
G01 X68.3065 Y27.4609
G01 X68.2970 Y27.4633
G01 X68.2877 Y27.4666
G01 X68.2789 Y27.4708
G01 X68.2704 Y27.4759
G01 X68.2626 Y27.4817
G01 X68.2553 Y27.4883
G01 X68.2487 Y27.4956
G01 X68.2429 Y27.5034
G01 X68.2378 Y27.5119
G01 X68.2336 Y27.5207
G01 X68.2303 Y27.5300
G01 X68.2279 Y27.5395
G01 X68.2265 Y27.5492
G01 X68.2260 Y27.5590
G01 X68.2265 Y27.5688
G01 X68.2279 Y27.5785
G01 X68.2303 Y27.5880
G01 X68.2336 Y27.5973
G01 X68.2378 Y27.6061
G01 X68.2429 Y27.6146
G01 X68.2487 Y27.6224
G01 X68.2553 Y27.6297
G01 X68.2626 Y27.6363
G01 X68.2704 Y27.6421
G01 X68.2789 Y27.6472
G01 X68.2877 Y27.6514
G01 X68.2970 Y27.6547
G01 X68.3065 Y27.6571
G01 X68.3162 Y27.6585
G01 X68.3260 Y27.6590
G01 X68.3358 Y27.6585
G01 X68.3455 Y27.6571
G01 X68.3550 Y27.6547
G01 X68.3643 Y27.6514
G01 X68.3731 Y27.6472
G01 X68.3816 Y27.6421
G01 X68.3894 Y27.6363
G01 X68.3967 Y27.6297
G01 X68.4033 Y27.6224
G01 X68.4091 Y27.6146
G01 X68.4142 Y27.6061
G01 X68.4184 Y27.5973
G01 X68.4217 Y27.5880
G01 X68.4241 Y27.5785
G01 X68.4255 Y27.5688
G01 X68.4260 Y27.5590
G00 X68.4260 Y27.5590
G01 F120.00
G01 Z-0.8000
G01 F300.00
G01 X68.4255 Y27.5492
G01 X68.4241 Y27.5395
G01 X68.4217 Y27.5300
G01 X68.4184 Y27.5207
G01 X68.4142 Y27.5119
G01 X68.4091 Y27.5034
G01 X68.4033 Y27.4956
G01 X68.3967 Y27.4883
G01 X68.3894 Y27.4817
G01 X68.3816 Y27.4759
G01 X68.3731 Y27.4708
G01 X68.3643 Y27.4666
G01 X68.3550 Y27.4633
G01 X68.3455 Y27.4609
G01 X68.3358 Y27.4595
G01 X68.3260 Y27.4590
G01 X68.3162 Y27.4595
G01 X68.3065 Y27.4609
G01 X68.2970 Y27.4633
G01 X68.2877 Y27.4666
G01 X68.2789 Y27.4708
G01 X68.2704 Y27.4759
G01 X68.2626 Y27.4817
G01 X68.2553 Y27.4883
G01 X68.2487 Y27.4956
G01 X68.2429 Y27.5034
G01 X68.2378 Y27.5119
G01 X68.2336 Y27.5207
G01 X68.2303 Y27.5300
G01 X68.2279 Y27.5395
G01 X68.2265 Y27.5492
G01 X68.2260 Y27.5590
G01 X68.2265 Y27.5688
G01 X68.2279 Y27.5785
G01 X68.2303 Y27.5880
G01 X68.2336 Y27.5973
G01 X68.2378 Y27.6061
G01 X68.2429 Y27.6146
G01 X68.2487 Y27.6224
G01 X68.2553 Y27.6297
G01 X68.2626 Y27.6363
G01 X68.2704 Y27.6421
G01 X68.2789 Y27.6472
G01 X68.2877 Y27.6514
G01 X68.2970 Y27.6547
G01 X68.3065 Y27.6571
G01 X68.3162 Y27.6585
G01 X68.3260 Y27.6590
G01 X68.3358 Y27.6585
G01 X68.3455 Y27.6571
G01 X68.3550 Y27.6547
G01 X68.3643 Y27.6514
G01 X68.3731 Y27.6472
G01 X68.3816 Y27.6421
G01 X68.3894 Y27.6363
G01 X68.3967 Y27.6297
G01 X68.4033 Y27.6224
G01 X68.4091 Y27.6146
G01 X68.4142 Y27.6061
G01 X68.4184 Y27.5973
G01 X68.4217 Y27.5880
G01 X68.4241 Y27.5785
G01 X68.4255 Y27.5688
G01 X68.4260 Y27.5590
G00 X68.4260 Y27.5590
G01 F120.00
G01 Z-1.0000
G01 F300.00
G01 X68.4255 Y27.5492
G01 X68.4241 Y27.5395
G01 X68.4217 Y27.5300
G01 X68.4184 Y27.5207
G01 X68.4142 Y27.5119
G01 X68.4091 Y27.5034
G01 X68.4033 Y27.4956
G01 X68.3967 Y27.4883
G01 X68.3894 Y27.4817
G01 X68.3816 Y27.4759
G01 X68.3731 Y27.4708
G01 X68.3643 Y27.4666
G01 X68.3550 Y27.4633
G01 X68.3455 Y27.4609
G01 X68.3358 Y27.4595
G01 X68.3260 Y27.4590
G01 X68.3162 Y27.4595
G01 X68.3065 Y27.4609
G01 X68.2970 Y27.4633
G01 X68.2877 Y27.4666
G01 X68.2789 Y27.4708
G01 X68.2704 Y27.4759
G01 X68.2626 Y27.4817
G01 X68.2553 Y27.4883
G01 X68.2487 Y27.4956
G01 X68.2429 Y27.5034
G01 X68.2378 Y27.5119
G01 X68.2336 Y27.5207
G01 X68.2303 Y27.5300
G01 X68.2279 Y27.5395
G01 X68.2265 Y27.5492
G01 X68.2260 Y27.5590
G01 X68.2265 Y27.5688
G01 X68.2279 Y27.5785
G01 X68.2303 Y27.5880
G01 X68.2336 Y27.5973
G01 X68.2378 Y27.6061
G01 X68.2429 Y27.6146
G01 X68.2487 Y27.6224
G01 X68.2553 Y27.6297
G01 X68.2626 Y27.6363
G01 X68.2704 Y27.6421
G01 X68.2789 Y27.6472
G01 X68.2877 Y27.6514
G01 X68.2970 Y27.6547
G01 X68.3065 Y27.6571
G01 X68.3162 Y27.6585
G01 X68.3260 Y27.6590
G01 X68.3358 Y27.6585
G01 X68.3455 Y27.6571
G01 X68.3550 Y27.6547
G01 X68.3643 Y27.6514
G01 X68.3731 Y27.6472
G01 X68.3816 Y27.6421
G01 X68.3894 Y27.6363
G01 X68.3967 Y27.6297
G01 X68.4033 Y27.6224
G01 X68.4091 Y27.6146
G01 X68.4142 Y27.6061
G01 X68.4184 Y27.5973
G01 X68.4217 Y27.5880
G01 X68.4241 Y27.5785
G01 X68.4255 Y27.5688
G01 X68.4260 Y27.5590
G00 X68.4260 Y27.5590
G01 F120.00
G01 Z-1.2000
G01 F300.00
G01 X68.4255 Y27.5492
G01 X68.4241 Y27.5395
G01 X68.4217 Y27.5300
G01 X68.4184 Y27.5207
G01 X68.4142 Y27.5119
G01 X68.4091 Y27.5034
G01 X68.4033 Y27.4956
G01 X68.3967 Y27.4883
G01 X68.3894 Y27.4817
G01 X68.3816 Y27.4759
G01 X68.3731 Y27.4708
G01 X68.3643 Y27.4666
G01 X68.3550 Y27.4633
G01 X68.3455 Y27.4609
G01 X68.3358 Y27.4595
G01 X68.3260 Y27.4590
G01 X68.3162 Y27.4595
G01 X68.3065 Y27.4609
G01 X68.2970 Y27.4633
G01 X68.2877 Y27.4666
G01 X68.2789 Y27.4708
G01 X68.2704 Y27.4759
G01 X68.2626 Y27.4817
G01 X68.2553 Y27.4883
G01 X68.2487 Y27.4956
G01 X68.2429 Y27.5034
G01 X68.2378 Y27.5119
G01 X68.2336 Y27.5207
G01 X68.2303 Y27.5300
G01 X68.2279 Y27.5395
G01 X68.2265 Y27.5492
G01 X68.2260 Y27.5590
G01 X68.2265 Y27.5688
G01 X68.2279 Y27.5785
G01 X68.2303 Y27.5880
G01 X68.2336 Y27.5973
G01 X68.2378 Y27.6061
G01 X68.2429 Y27.6146
G01 X68.2487 Y27.6224
G01 X68.2553 Y27.6297
G01 X68.2626 Y27.6363
G01 X68.2704 Y27.6421
G01 X68.2789 Y27.6472
G01 X68.2877 Y27.6514
G01 X68.2970 Y27.6547
G01 X68.3065 Y27.6571
G01 X68.3162 Y27.6585
G01 X68.3260 Y27.6590
G01 X68.3358 Y27.6585
G01 X68.3455 Y27.6571
G01 X68.3550 Y27.6547
G01 X68.3643 Y27.6514
G01 X68.3731 Y27.6472
G01 X68.3816 Y27.6421
G01 X68.3894 Y27.6363
G01 X68.3967 Y27.6297
G01 X68.4033 Y27.6224
G01 X68.4091 Y27.6146
G01 X68.4142 Y27.6061
G01 X68.4184 Y27.5973
G01 X68.4217 Y27.5880
G01 X68.4241 Y27.5785
G01 X68.4255 Y27.5688
G01 X68.4260 Y27.5590
G00 X68.4260 Y27.5590
G01 F120.00
G01 Z-1.4000
G01 F300.00
G01 X68.4255 Y27.5492
G01 X68.4241 Y27.5395
G01 X68.4217 Y27.5300
G01 X68.4184 Y27.5207
G01 X68.4142 Y27.5119
G01 X68.4091 Y27.5034
G01 X68.4033 Y27.4956
G01 X68.3967 Y27.4883
G01 X68.3894 Y27.4817
G01 X68.3816 Y27.4759
G01 X68.3731 Y27.4708
G01 X68.3643 Y27.4666
G01 X68.3550 Y27.4633
G01 X68.3455 Y27.4609
G01 X68.3358 Y27.4595
G01 X68.3260 Y27.4590
G01 X68.3162 Y27.4595
G01 X68.3065 Y27.4609
G01 X68.2970 Y27.4633
G01 X68.2877 Y27.4666
G01 X68.2789 Y27.4708
G01 X68.2704 Y27.4759
G01 X68.2626 Y27.4817
G01 X68.2553 Y27.4883
G01 X68.2487 Y27.4956
G01 X68.2429 Y27.5034
G01 X68.2378 Y27.5119
G01 X68.2336 Y27.5207
G01 X68.2303 Y27.5300
G01 X68.2279 Y27.5395
G01 X68.2265 Y27.5492
G01 X68.2260 Y27.5590
G01 X68.2265 Y27.5688
G01 X68.2279 Y27.5785
G01 X68.2303 Y27.5880
G01 X68.2336 Y27.5973
G01 X68.2378 Y27.6061
G01 X68.2429 Y27.6146
G01 X68.2487 Y27.6224
G01 X68.2553 Y27.6297
G01 X68.2626 Y27.6363
G01 X68.2704 Y27.6421
G01 X68.2789 Y27.6472
G01 X68.2877 Y27.6514
G01 X68.2970 Y27.6547
G01 X68.3065 Y27.6571
G01 X68.3162 Y27.6585
G01 X68.3260 Y27.6590
G01 X68.3358 Y27.6585
G01 X68.3455 Y27.6571
G01 X68.3550 Y27.6547
G01 X68.3643 Y27.6514
G01 X68.3731 Y27.6472
G01 X68.3816 Y27.6421
G01 X68.3894 Y27.6363
G01 X68.3967 Y27.6297
G01 X68.4033 Y27.6224
G01 X68.4091 Y27.6146
G01 X68.4142 Y27.6061
G01 X68.4184 Y27.5973
G01 X68.4217 Y27.5880
G01 X68.4241 Y27.5785
G01 X68.4255 Y27.5688
G01 X68.4260 Y27.5590
G00 X68.4260 Y27.5590
G01 F120.00
G01 Z-1.6000
G01 F300.00
G01 X68.4255 Y27.5492
G01 X68.4241 Y27.5395
G01 X68.4217 Y27.5300
G01 X68.4184 Y27.5207
G01 X68.4142 Y27.5119
G01 X68.4091 Y27.5034
G01 X68.4033 Y27.4956
G01 X68.3967 Y27.4883
G01 X68.3894 Y27.4817
G01 X68.3816 Y27.4759
G01 X68.3731 Y27.4708
G01 X68.3643 Y27.4666
G01 X68.3550 Y27.4633
G01 X68.3455 Y27.4609
G01 X68.3358 Y27.4595
G01 X68.3260 Y27.4590
G01 X68.3162 Y27.4595
G01 X68.3065 Y27.4609
G01 X68.2970 Y27.4633
G01 X68.2877 Y27.4666
G01 X68.2789 Y27.4708
G01 X68.2704 Y27.4759
G01 X68.2626 Y27.4817
G01 X68.2553 Y27.4883
G01 X68.2487 Y27.4956
G01 X68.2429 Y27.5034
G01 X68.2378 Y27.5119
G01 X68.2336 Y27.5207
G01 X68.2303 Y27.5300
G01 X68.2279 Y27.5395
G01 X68.2265 Y27.5492
G01 X68.2260 Y27.5590
G01 X68.2265 Y27.5688
G01 X68.2279 Y27.5785
G01 X68.2303 Y27.5880
G01 X68.2336 Y27.5973
G01 X68.2378 Y27.6061
G01 X68.2429 Y27.6146
G01 X68.2487 Y27.6224
G01 X68.2553 Y27.6297
G01 X68.2626 Y27.6363
G01 X68.2704 Y27.6421
G01 X68.2789 Y27.6472
G01 X68.2877 Y27.6514
G01 X68.2970 Y27.6547
G01 X68.3065 Y27.6571
G01 X68.3162 Y27.6585
G01 X68.3260 Y27.6590
G01 X68.3358 Y27.6585
G01 X68.3455 Y27.6571
G01 X68.3550 Y27.6547
G01 X68.3643 Y27.6514
G01 X68.3731 Y27.6472
G01 X68.3816 Y27.6421
G01 X68.3894 Y27.6363
G01 X68.3967 Y27.6297
G01 X68.4033 Y27.6224
G01 X68.4091 Y27.6146
G01 X68.4142 Y27.6061
G01 X68.4184 Y27.5973
G01 X68.4217 Y27.5880
G01 X68.4241 Y27.5785
G01 X68.4255 Y27.5688
G01 X68.4260 Y27.5590
G00 X68.4260 Y27.5590
G01 F120.00
G01 Z-1.8000
G01 F300.00
G01 X68.4255 Y27.5492
G01 X68.4241 Y27.5395
G01 X68.4217 Y27.5300
G01 X68.4184 Y27.5207
G01 X68.4142 Y27.5119
G01 X68.4091 Y27.5034
G01 X68.4033 Y27.4956
G01 X68.3967 Y27.4883
G01 X68.3894 Y27.4817
G01 X68.3816 Y27.4759
G01 X68.3731 Y27.4708
G01 X68.3643 Y27.4666
G01 X68.3550 Y27.4633
G01 X68.3455 Y27.4609
G01 X68.3358 Y27.4595
G01 X68.3260 Y27.4590
G01 X68.3162 Y27.4595
G01 X68.3065 Y27.4609
G01 X68.2970 Y27.4633
G01 X68.2877 Y27.4666
G01 X68.2789 Y27.4708
G01 X68.2704 Y27.4759
G01 X68.2626 Y27.4817
G01 X68.2553 Y27.4883
G01 X68.2487 Y27.4956
G01 X68.2429 Y27.5034
G01 X68.2378 Y27.5119
G01 X68.2336 Y27.5207
G01 X68.2303 Y27.5300
G01 X68.2279 Y27.5395
G01 X68.2265 Y27.5492
G01 X68.2260 Y27.5590
G01 X68.2265 Y27.5688
G01 X68.2279 Y27.5785
G01 X68.2303 Y27.5880
G01 X68.2336 Y27.5973
G01 X68.2378 Y27.6061
G01 X68.2429 Y27.6146
G01 X68.2487 Y27.6224
G01 X68.2553 Y27.6297
G01 X68.2626 Y27.6363
G01 X68.2704 Y27.6421
G01 X68.2789 Y27.6472
G01 X68.2877 Y27.6514
G01 X68.2970 Y27.6547
G01 X68.3065 Y27.6571
G01 X68.3162 Y27.6585
G01 X68.3260 Y27.6590
G01 X68.3358 Y27.6585
G01 X68.3455 Y27.6571
G01 X68.3550 Y27.6547
G01 X68.3643 Y27.6514
G01 X68.3731 Y27.6472
G01 X68.3816 Y27.6421
G01 X68.3894 Y27.6363
G01 X68.3967 Y27.6297
G01 X68.4033 Y27.6224
G01 X68.4091 Y27.6146
G01 X68.4142 Y27.6061
G01 X68.4184 Y27.5973
G01 X68.4217 Y27.5880
G01 X68.4241 Y27.5785
G01 X68.4255 Y27.5688
G01 X68.4260 Y27.5590
G00 Z1.0000
G00 X68.4260 Y25.0190
G01 F120.00
G01 Z-0.2000
G01 F300.00
G01 X68.4255 Y25.0092
G01 X68.4241 Y24.9995
G01 X68.4217 Y24.9900
G01 X68.4184 Y24.9807
G01 X68.4142 Y24.9719
G01 X68.4091 Y24.9634
G01 X68.4033 Y24.9556
G01 X68.3967 Y24.9483
G01 X68.3894 Y24.9417
G01 X68.3816 Y24.9359
G01 X68.3731 Y24.9308
G01 X68.3643 Y24.9266
G01 X68.3550 Y24.9233
G01 X68.3455 Y24.9209
G01 X68.3358 Y24.9195
G01 X68.3260 Y24.9190
G01 X68.3162 Y24.9195
G01 X68.3065 Y24.9209
G01 X68.2970 Y24.9233
G01 X68.2877 Y24.9266
G01 X68.2789 Y24.9308
G01 X68.2704 Y24.9359
G01 X68.2626 Y24.9417
G01 X68.2553 Y24.9483
G01 X68.2487 Y24.9556
G01 X68.2429 Y24.9634
G01 X68.2378 Y24.9719
G01 X68.2336 Y24.9807
G01 X68.2303 Y24.9900
G01 X68.2279 Y24.9995
G01 X68.2265 Y25.0092
G01 X68.2260 Y25.0190
G01 X68.2265 Y25.0288
G01 X68.2279 Y25.0385
G01 X68.2303 Y25.0480
G01 X68.2336 Y25.0573
G01 X68.2378 Y25.0661
G01 X68.2429 Y25.0746
G01 X68.2487 Y25.0824
G01 X68.2553 Y25.0897
G01 X68.2626 Y25.0963
G01 X68.2704 Y25.1021
G01 X68.2789 Y25.1072
G01 X68.2877 Y25.1114
G01 X68.2970 Y25.1147
G01 X68.3065 Y25.1171
G01 X68.3162 Y25.1185
G01 X68.3260 Y25.1190
G01 X68.3358 Y25.1185
G01 X68.3455 Y25.1171
G01 X68.3550 Y25.1147
G01 X68.3643 Y25.1114
G01 X68.3731 Y25.1072
G01 X68.3816 Y25.1021
G01 X68.3894 Y25.0963
G01 X68.3967 Y25.0897
G01 X68.4033 Y25.0824
G01 X68.4091 Y25.0746
G01 X68.4142 Y25.0661
G01 X68.4184 Y25.0573
G01 X68.4217 Y25.0480
G01 X68.4241 Y25.0385
G01 X68.4255 Y25.0288
G01 X68.4260 Y25.0190
G00 X68.4260 Y25.0190
G01 F120.00
G01 Z-0.4000
G01 F300.00
G01 X68.4255 Y25.0092
G01 X68.4241 Y24.9995
G01 X68.4217 Y24.9900
G01 X68.4184 Y24.9807
G01 X68.4142 Y24.9719
G01 X68.4091 Y24.9634
G01 X68.4033 Y24.9556
G01 X68.3967 Y24.9483
G01 X68.3894 Y24.9417
G01 X68.3816 Y24.9359
G01 X68.3731 Y24.9308
G01 X68.3643 Y24.9266
G01 X68.3550 Y24.9233
G01 X68.3455 Y24.9209
G01 X68.3358 Y24.9195
G01 X68.3260 Y24.9190
G01 X68.3162 Y24.9195
G01 X68.3065 Y24.9209
G01 X68.2970 Y24.9233
G01 X68.2877 Y24.9266
G01 X68.2789 Y24.9308
G01 X68.2704 Y24.9359
G01 X68.2626 Y24.9417
G01 X68.2553 Y24.9483
G01 X68.2487 Y24.9556
G01 X68.2429 Y24.9634
G01 X68.2378 Y24.9719
G01 X68.2336 Y24.9807
G01 X68.2303 Y24.9900
G01 X68.2279 Y24.9995
G01 X68.2265 Y25.0092
G01 X68.2260 Y25.0190
G01 X68.2265 Y25.0288
G01 X68.2279 Y25.0385
G01 X68.2303 Y25.0480
G01 X68.2336 Y25.0573
G01 X68.2378 Y25.0661
G01 X68.2429 Y25.0746
G01 X68.2487 Y25.0824
G01 X68.2553 Y25.0897
G01 X68.2626 Y25.0963
G01 X68.2704 Y25.1021
G01 X68.2789 Y25.1072
G01 X68.2877 Y25.1114
G01 X68.2970 Y25.1147
G01 X68.3065 Y25.1171
G01 X68.3162 Y25.1185
G01 X68.3260 Y25.1190
G01 X68.3358 Y25.1185
G01 X68.3455 Y25.1171
G01 X68.3550 Y25.1147
G01 X68.3643 Y25.1114
G01 X68.3731 Y25.1072
G01 X68.3816 Y25.1021
G01 X68.3894 Y25.0963
G01 X68.3967 Y25.0897
G01 X68.4033 Y25.0824
G01 X68.4091 Y25.0746
G01 X68.4142 Y25.0661
G01 X68.4184 Y25.0573
G01 X68.4217 Y25.0480
G01 X68.4241 Y25.0385
G01 X68.4255 Y25.0288
G01 X68.4260 Y25.0190
G00 X68.4260 Y25.0190
G01 F120.00
G01 Z-0.6000
G01 F300.00
G01 X68.4255 Y25.0092
G01 X68.4241 Y24.9995
G01 X68.4217 Y24.9900
G01 X68.4184 Y24.9807
G01 X68.4142 Y24.9719
G01 X68.4091 Y24.9634
G01 X68.4033 Y24.9556
G01 X68.3967 Y24.9483
G01 X68.3894 Y24.9417
G01 X68.3816 Y24.9359
G01 X68.3731 Y24.9308
G01 X68.3643 Y24.9266
G01 X68.3550 Y24.9233
G01 X68.3455 Y24.9209
G01 X68.3358 Y24.9195
G01 X68.3260 Y24.9190
G01 X68.3162 Y24.9195
G01 X68.3065 Y24.9209
G01 X68.2970 Y24.9233
G01 X68.2877 Y24.9266
G01 X68.2789 Y24.9308
G01 X68.2704 Y24.9359
G01 X68.2626 Y24.9417
G01 X68.2553 Y24.9483
G01 X68.2487 Y24.9556
G01 X68.2429 Y24.9634
G01 X68.2378 Y24.9719
G01 X68.2336 Y24.9807
G01 X68.2303 Y24.9900
G01 X68.2279 Y24.9995
G01 X68.2265 Y25.0092
G01 X68.2260 Y25.0190
G01 X68.2265 Y25.0288
G01 X68.2279 Y25.0385
G01 X68.2303 Y25.0480
G01 X68.2336 Y25.0573
G01 X68.2378 Y25.0661
G01 X68.2429 Y25.0746
G01 X68.2487 Y25.0824
G01 X68.2553 Y25.0897
G01 X68.2626 Y25.0963
G01 X68.2704 Y25.1021
G01 X68.2789 Y25.1072
G01 X68.2877 Y25.1114
G01 X68.2970 Y25.1147
G01 X68.3065 Y25.1171
G01 X68.3162 Y25.1185
G01 X68.3260 Y25.1190
G01 X68.3358 Y25.1185
G01 X68.3455 Y25.1171
G01 X68.3550 Y25.1147
G01 X68.3643 Y25.1114
G01 X68.3731 Y25.1072
G01 X68.3816 Y25.1021
G01 X68.3894 Y25.0963
G01 X68.3967 Y25.0897
G01 X68.4033 Y25.0824
G01 X68.4091 Y25.0746
G01 X68.4142 Y25.0661
G01 X68.4184 Y25.0573
G01 X68.4217 Y25.0480
G01 X68.4241 Y25.0385
G01 X68.4255 Y25.0288
G01 X68.4260 Y25.0190
G00 X68.4260 Y25.0190
G01 F120.00
G01 Z-0.8000
G01 F300.00
G01 X68.4255 Y25.0092
G01 X68.4241 Y24.9995
G01 X68.4217 Y24.9900
G01 X68.4184 Y24.9807
G01 X68.4142 Y24.9719
G01 X68.4091 Y24.9634
G01 X68.4033 Y24.9556
G01 X68.3967 Y24.9483
G01 X68.3894 Y24.9417
