(G-CODE GENERATED BY FLATCAM v8.992 - www.flatcam.org - Version Date: 2020/05/01)

(Name: hardware-Edge_Cuts.gbr_bbox_cnc)
(Type: G-code from Geometry)
(Units: MM)

(Created on Montag, 07 September 2020 at 21:58)

(This preprocessor is the default preprocessor used by FlatCAM.)
(It is made to work with MACH3 compatible motion controllers.)

(TOOL DIAMETER: 0.8 mm)
(Feedrate_XY: 120.0 mm/min)
(Feedrate_Z: 120.0 mm/min)
(Feedrate rapids 1500.0 mm/min)

(Z_Cut: -1.8 mm)
(Z_Move: 1.0 mm)
(Z Start: None mm)
(Z End: 2.0 mm)
(Steps per circle: 64)
(Preprocessor Geometry: default)

(X range:   -0.0500 ...   99.8720  mm)
(Y range:   -0.0500 ...   99.8720  mm)

(Spindle Speed: None RPM)
G21
G90
G94

M3141 ;  Enable RF1000 Z compensation

G01 F120.00
G00 Z1.0000

M03
G00 X-0.0500 Y-0.0500
G01 F120.00
G01 Z-1.8000
G01 F120.00
G01 X99.8720 Y-0.0500
G01 X99.8720 Y99.8720
G01 X-0.0500 Y99.8720
G01 X-0.0500 Y-0.0500
G00 Z1.0000
M05
G00 Z1.0000
G00 Z2.00
G00 X0.0 Y0.0

