(G-CODE GENERATED BY FLATCAM v8.992 - www.flatcam.org - Version Date: 2020/05/01)

(Name: hardware.drl_cnc)
(Type: G-code from Excellon)
(Units: MM)

(Created on Montag, 07 September 2020 at 21:55)

(This preprocessor is the default preprocessor used by FlatCAM.)
(It is made to work with MACH3 compatible motion controllers.)


(TOOLS DIAMETER: )
(Tool: 1 -> Dia: 0.5)
(Tool: 2 -> Dia: 0.8)
(Tool: 3 -> Dia: 0.9)
(Tool: 4 -> Dia: 1.0)
(Tool: 5 -> Dia: 1.1)
(Tool: 6 -> Dia: 1.2)
(Tool: 7 -> Dia: 3.2)
(Tool: 8 -> Dia: 3.0)

(FEEDRATE Z: )
(Tool: 1 -> Feedrate: 150.0)
(Tool: 2 -> Feedrate: 300)
(Tool: 3 -> Feedrate: 300)
(Tool: 4 -> Feedrate: 300)
(Tool: 5 -> Feedrate: 300)
(Tool: 6 -> Feedrate: 300)
(Tool: 7 -> Feedrate: 300)
(Tool: 8 -> Feedrate: 300)

(FEEDRATE RAPIDS: )
(Tool: 1 -> Feedrate Rapids: 1500)
(Tool: 2 -> Feedrate Rapids: 1500)
(Tool: 3 -> Feedrate Rapids: 1500)
(Tool: 4 -> Feedrate Rapids: 1500)
(Tool: 5 -> Feedrate Rapids: 1500)
(Tool: 6 -> Feedrate Rapids: 1500)
(Tool: 7 -> Feedrate Rapids: 1500)
(Tool: 8 -> Feedrate Rapids: 1500)

(Z_CUT: )
(Tool: 1 -> Z_Cut: -1.7)
(Tool: 2 -> Z_Cut: -1.7)
(Tool: 3 -> Z_Cut: -1.7)
(Tool: 4 -> Z_Cut: -1.7)
(Tool: 5 -> Z_Cut: -1.7)
(Tool: 6 -> Z_Cut: -1.7)
(Tool: 7 -> Z_Cut: -1.7)
(Tool: 8 -> Z_Cut: -1.7)

(Tools Offset: )
(Tool: 1 -> Offset Z: -0.0)

(Z_MOVE: )
(Tool: 1 -> Z_Move: 0.5)
(Tool: 2 -> Z_Move: 0.5)
(Tool: 3 -> Z_Move: 0.5)
(Tool: 4 -> Z_Move: 0.5)
(Tool: 5 -> Z_Move: 0.5)
(Tool: 6 -> Z_Move: 0.5)
(Tool: 7 -> Z_Move: 0.5)
(Tool: 8 -> Z_Move: 0.5)

(Z Start: None mm)
(Z End: 2.0 mm)
(Steps per circle: 64)
(Preprocessor Excellon: default)

(X range:    2.4170 ...   96.6000  mm)
(Y range:    3.4000 ...   97.2470  mm)

(Spindle Speed: None RPM)
G21
G90
G94

M3141 ;  Enable RF1000 Z compensation

G00 Z0.5000

G01 F150.00
M03
G00 X2.6670 Y88.3920
G01 Z-1.7000
G01 Z0
G00 Z0.5000
G00 X13.2080 Y96.5840
G01 Z-1.7000
G01 Z0
G00 Z0.5000
G00 X30.4800 Y90.8050
G01 Z-1.7000
G01 Z0
G00 Z0.5000
G00 X75.2480 Y86.2960
G01 Z-1.7000
G01 Z0
G00 Z0.5000
G00 X85.0260 Y85.9150
G01 Z-1.7000
G01 Z0
G00 Z0.5000
G00 X74.1680 Y75.4380
G01 Z-1.7000
G01 Z0
G00 Z0.5000
G00 X73.4060 Y67.6910
G01 Z-1.7000
G01 Z0
G00 Z0.5000
G00 X68.7070 Y65.4680
G01 Z-1.7000
G01 Z0
G00 Z0.5000
G00 X83.1850 Y21.4630
G01 Z-1.7000
G01 Z0
G00 Z0.5000
G00 X84.2010 Y3.6830
G01 Z-1.7000
G01 Z0
G00 Z0.5000
G00 X37.5290 Y35.0520
G01 Z-1.7000
G01 Z0
G00 Z0.5000
G00 X35.1790 Y35.0520
G01 Z-1.7000
G01 Z0
G00 Z0.5000
G00 X33.0200 Y31.1150
G01 Z-1.7000
G01 Z0
G00 Z0.5000
G00 X30.9880 Y27.1780
G01 Z-1.7000
G01 Z0
G00 Z0.5000
G00 X30.2260 Y20.4470
G01 Z-1.7000
G01 Z0
G00 Z0.5000
G00 X29.5910 Y5.0800
G01 Z-1.7000
G01 Z0
G00 Z0.5000
G00 X14.6050 Y4.5720
G01 Z-1.7000
G01 Z0
G00 Z0.5000
G00 X15.0510 Y9.0250
G01 Z-1.7000
G01 Z0
G00 Z0.5000
G00 X22.8600 Y9.6520
G01 Z-1.7000
G01 Z0
G00 Z0.5000
G00 X22.9870 Y13.7160
G01 Z-1.7000
G01 Z0
G00 Z0.5000
G00 X22.9870 Y17.9070
G01 Z-1.7000
G01 Z0
G00 Z0.5000
G00 X22.7330 Y21.9710
G01 Z-1.7000
G01 Z0
G00 Z0.5000
G00 X26.0350 Y23.3680
G01 Z-1.7000
G01 Z0
G00 Z0.5000
G00 X27.3050 Y27.5590
G01 Z-1.7000
G01 Z0
G00 Z0.5000
G00 X19.5590 Y27.8120
G01 Z-1.7000
G01 Z0
G00 Z0.5000
G00 X15.8550 Y27.3090
G01 Z-1.7000
G01 Z0
G00 Z0.5000
G00 X13.0810 Y26.0350
G01 Z-1.7000
G01 Z0
G00 Z0.5000
G00 X3.3500 Y23.1140
G01 Z-1.7000
G01 Z0
G00 Z0.5000
G00 X7.3660 Y53.4670
G01 Z-1.7000
G01 Z0
G00 Z0.5000
G00 X7.8740 Y59.1820
G01 Z-1.7000
G01 Z0
G00 Z0.5000
G00 X16.7640 Y59.4360
G01 Z-1.7000
G01 Z0
G00 Z0.5000
G00 X19.2840 Y52.7780
G01 Z-1.7000
G01 Z0
G00 Z0.5000
G00 X20.9590 Y52.0450
G01 Z-1.7000
G01 Z0
G00 Z0.5000
G00 X20.9350 Y49.2760
G01 Z-1.7000
G01 Z0
G00 Z0.5000
G00 X24.7450 Y48.6500
G01 Z-1.7000
G01 Z0
G00 Z0.5000
G00 X28.5750 Y50.6730
G01 Z-1.7000
G01 Z0
G00 Z0.5000
G00 X31.1150 Y50.2920
G01 Z-1.7000
G01 Z0
G00 Z0.5000
G00 X34.6110 Y44.5060
G01 Z-1.7000
G01 Z0
G00 Z0.5000
G00 X35.9410 Y42.6720
G01 Z-1.7000
G01 Z0
G00 Z0.5000
G00 X33.7590 Y57.1310
G01 Z-1.7000
G01 Z0
G00 Z0.5000
G00 X31.5190 Y58.2930
G01 Z-1.7000
G01 Z0
G00 Z0.5000
G00 X27.6860 Y61.2140
G01 Z-1.7000
G01 Z0
G00 Z0.5000
G00 X18.9230 Y64.8970
G01 Z-1.7000
G01 Z0
G00 Z0.5000
G00 X14.2240 Y70.9930
G01 Z-1.7000
G01 Z0
G00 Z0.5000
G00 X21.7170 Y71.8820
G01 Z-1.7000
G01 Z0
G00 Z0.5000
G00 X30.8610 Y72.5170
G01 Z-1.7000
G01 Z0
G00 Z0.5000
G00 X25.2730 Y73.9140
G01 Z-1.7000
G01 Z0
G00 Z0.5000
G00 X17.6530 Y76.8350
G01 Z-1.7000
G01 Z0
G00 Z0.5000
M05
G00 Z2.00

